/* XPM */
static char *blu_down[] = {
/* columns rows colors chars-per-pixel */
"32 32 24 1 ",
"  c None",
". c #0000D0",
"X c #0100D0",
"o c #0001D0",
"O c #0101D0",
"+ c #0000D1",
"@ c #0100D1",
"# c #0001D1",
"$ c #0101D1",
"% c #62CAFE",
"& c #62CBFE",
"* c #63CBFE",
"= c #62CAFF",
"- c #63CAFF",
"; c #62CBFF",
": c #63CBFF",
"> c #F8F8F8",
", c #F9F8F8",
"< c #F8F9F8",
"1 c #F9F9F8",
"2 c #F8F8F9",
"3 c #F9F8F9",
"4 c #F8F9F9",
"5 c #F9F9F9",
/* pixels */
"                                ",
"           %%%%%%%%%%           ",
"         %%%%%%%%%%%%%%         ",
"       %%%%%%%%%%%%%%%%%%       ",
"      %%%%%%%%%%%%%%%%%%%%      ",
"     %%%%%%%%%%%%%%%%%%%%%%     ",
"    %%%%%%%%%%%%%%%%%%%%%%%%    ",
"    %%%444%%%%%%%%%%%%444%%%    ",
"   %%4444444%%%%%%%%4444444%%   ",
"   %%4444444%%%%%%%%4444444%%   ",
"   %444444444%%%%%%444444444%   ",
"  %%444444444%%%%%%444444444%%  ",
"  %%444OOOO44%%%%%%44OOOO444%%  ",
"  %%44OOOOO44%%%%%%44OOOOO44%%  ",
"  %%44OOOOOO4%%%%%%4OOOOOO44%%  ",
"  %%44OOOOOO4%%%%%%4OOOOOO44%%  ",
" %%%%4OOOOOO%%%%%%%%OOOOOO4%%%% ",
" %%%%44OOOO4%%%%%%%%4OOOO44%%%% ",
" %%%%%%444%%%%%%%%%%%%444%%%%%% ",
" %%%%%%%;%%%%%%%%%%%%%%%;%%%%%% ",
" %%%%%%%%%%%%%%%%%%%%%%%%%%%%%% ",
" %%%%%%%%%%%%%%%%%%%%%%%%%%%%%% ",
" %%%%%%%%%%%%%%%%%%%%%%%%%%%%%% ",
" %%%%%%%%%%%%%%%%%%%%%%%%%%%%%% ",
" %%%%%%%%%%%%%%%%%%;%%%%%%%%%%% ",
" %%%%%%%%%%%%%%%%%;;%%%%%%%%%%% ",
" %%%%%%%%%%%%%%%%%;;%%%%%%%%%%% ",
" %%%%  %%%%%%%    %%%%%%%  %%%% ",
" %%%    %%%%%      %%%%%    %%% ",
" %%%    %%%%%      %%%%%    %%% ",
" %%      %%%        %%%      %% ",
"                                "
};
