/* XPM */
static char *close_up[] = {
/* columns rows colors chars-per-pixel */
"32 32 96 2 ",
"   c None",
".  c #4A4A00",
"X  c #545401",
"o  c #555501",
"O  c #565600",
"+  c #565701",
"@  c #646400",
"#  c #666600",
"$  c #666701",
"%  c #757500",
"&  c #757401",
"*  c #818001",
"=  c #828200",
"-  c #838200",
";  c #8A8A00",
":  c #8B8B00",
">  c #8A8A01",
",  c #8B8A01",
"<  c #8A8B01",
"1  c #8B8B01",
"2  c #8C8C00",
"3  c #8C8D00",
"4  c #8D8D00",
"5  c #8C8C01",
"6  c #909000",
"7  c #919000",
"8  c #949400",
"9  c #959400",
"0  c #949500",
"q  c #959500",
"w  c #959401",
"e  c #949501",
"r  c #979600",
"t  c #A0A000",
"y  c #A1A100",
"u  c #B1B001",
"i  c #B1B101",
"p  c #B4B401",
"a  c #B4B501",
"s  c #B8B901",
"d  c #B9B901",
"f  c #BFBF00",
"g  c #BEBE01",
"h  c #BEBF01",
"j  c #BFBF01",
"k  c #C2C301",
"l  c #C3C301",
"z  c #C6C600",
"x  c #C6C601",
"c  c #D4D400",
"v  c #D4D500",
"b  c #DDDD00",
"n  c #DEDE00",
"m  c #DEDE01",
"M  c #E2E300",
"N  c #E3E301",
"B  c #E8E900",
"V  c #E8E901",
"C  c #F2F200",
"Z  c #F3F200",
"A  c #F3F300",
"S  c #F2F201",
"D  c #F3F201",
"F  c #F4F400",
"G  c #F5F400",
"H  c #F4F500",
"J  c #F5F500",
"K  c #F4F401",
"L  c #F5F401",
"P  c #F4F501",
"I  c #F5F501",
"U  c #F6F701",
"Y  c #F8F800",
"T  c #F9F800",
"R  c #F8F900",
"E  c #F9F900",
"W  c #F8F801",
"Q  c #F9F801",
"!  c #F8F901",
"~  c #F9F901",
"^  c #FAFA00",
"/  c #FBFA00",
"(  c #FAFB00",
")  c #FBFB00",
"_  c #FAFA01",
"`  c #FBFA01",
"'  c #FAFB01",
"]  c #FBFB01",
"[  c #FCFC00",
"{  c #FDFC00",
"}  c #FCFD00",
"|  c #FDFD00",
" . c #FCFC01",
".. c #FDFC01",
"X. c #FCFD01",
"o. c #FDFD01",
/* pixels */
"                                                                ",
"                                                                ",
"              w H H w                   w H H w O               ",
"          w H H ^ ^ ^                   | ^ | H H w             ",
"        w H ^ ^ ^ ^ ^                   | ^ | | | H w           ",
"      w H ^ ^ H ^ ^ ^                   | H H ^ H | H w         ",
"    O H ^ ^ ^ H H H ^ ^               | H H ^ H H H | H 2       ",
"    t | ^ ^ ^ H H H H ^               | H H H H H H H | | t     ",
"    H ^ ^ H ^ H H H H H               | H H H H H H H H ^ V     ",
"  * | H H H H H H H H H ^           | ^ H H H H H H H H H | *   ",
"  x ^ ^ H H H H H H H H ^           | H H H H H H H H ^ H ^ x   ",
"  n ^ ^ H H H H H H H H ^           | H H H H H H H H H ^ ^ n   ",
"& H ^ ^ ^ H H H H H H H ^ ^       | ^ H H F F F H H H H ^ ^ H & ",
"2 ^ ^ ^ H H H H H H H H H ^       | H H H H F F H H ^ H ^ ^ ^ 2 ",
"1 ^ ^ ^ H ^ H H H H H H H ^       | H H H H H F H ^ ^ H ^ ^ ^ 1 ",
"1 ^ ^ H H H H H H H ^ H H H ^   | H H H H H H H H ^ H ^ ^ ^ ^ 1 ",
"2 ^ ^ H ^ H H H ^ H ^ H H F ^   H H H H H H H H ^ H H ^ ^ ^ ^ 2 ",
"* ^ ^ H ^ H H H H H H ^ H ^ H w H H H H H H H H H F ^ ^ ^ ^ ^ * ",
"  N ^ ^ F H H H H H H ^ ^ ^ ^ H H H H H H H H H F ^ W Y ^ ^ N   ",
"  v ^ ^ ^ H ^ H H ^ H H H H ^ ^ ^ H H H H H H H ^ H W Y ^ ^ c   ",
"  7 | ^ ^ H H H H H F H H H H W ^ H H F H H H ^ ^ ^ ^ Y ^ | 7   ",
"  O S ^ ^ ^ H H F F F H H H H F H F F F H H H H ^ ^ ^ ^ ^ S O   ",
"    d ^ ^ ^ H H ^ F H H H ^ H F H ^ F F H H H ^ ^ ^ ^ ^ ^ d     ",
"    O S W ^ ^ H ^ H ^ H H H H H ^ H F H H H H ^ ^ ^ ^ ^ S O     ",
"      u ^ ^ ^ ^ H H H ^ H H ^ H H H H H H H H ^ ^ ^ ^ | u       ",
"        j | ^ ^ ^ ^ H ^ H H H F H H H H H H ^ ^ ^ ^ | j         ",
"          l ^ ^ ^ ^ ^ H H ^ H H H H H H H H H ^ ^ | l .         ",
"            a S ^ W ^ ^ ^ ^ ^ H H H H H H H | | | u             ",
"              @ j S | ^ ^ ^ ^ ^ ^ ^ ^ ^ ^ | | j @               ",
"                  @ t n V ^ | | | | ^ V n t @                   ",
"                          1 w w w w 1                           ",
"                                                                "
};
