/* XPM */
static char *close_down[] = {
/* columns rows colors chars-per-pixel */
"32 32 96 2 ",
"   c None",
".  c #4A4A00",
"X  c #545401",
"o  c #555501",
"O  c #565600",
"+  c #565701",
"@  c #646400",
"#  c #666600",
"$  c #666701",
"%  c #757500",
"&  c #757401",
"*  c #818001",
"=  c #828200",
"-  c #838200",
";  c #8A8A00",
":  c #8B8B00",
">  c #8A8A01",
",  c #8B8A01",
"<  c #8A8B01",
"1  c #8B8B01",
"2  c #8C8C00",
"3  c #8C8D00",
"4  c #8D8D00",
"5  c #8C8C01",
"6  c #909000",
"7  c #919000",
"8  c #949400",
"9  c #959400",
"0  c #949500",
"q  c #959500",
"w  c #959401",
"e  c #949501",
"r  c #979600",
"t  c #A0A000",
"y  c #A1A100",
"u  c #B1B001",
"i  c #B1B101",
"p  c #B4B401",
"a  c #B4B501",
"s  c #B8B901",
"d  c #B9B901",
"f  c #BFBF00",
"g  c #BEBE01",
"h  c #BEBF01",
"j  c #BFBF01",
"k  c #C2C301",
"l  c #C3C301",
"z  c #C6C600",
"x  c #C6C601",
"c  c #D4D400",
"v  c #D4D500",
"b  c #DDDD00",
"n  c #DEDE00",
"m  c #DEDE01",
"M  c #E2E300",
"N  c #E3E301",
"B  c #E8E900",
"V  c #E8E901",
"C  c #F2F200",
"Z  c #F3F200",
"A  c #F3F300",
"S  c #F2F201",
"D  c #F3F201",
"F  c #F4F400",
"G  c #F5F400",
"H  c #F4F500",
"J  c #F5F500",
"K  c #F4F401",
"L  c #F5F401",
"P  c #F4F501",
"I  c #F5F501",
"U  c #F6F701",
"Y  c #F8F800",
"T  c #F9F800",
"R  c #F8F900",
"E  c #F9F900",
"W  c #F8F801",
"Q  c #F9F801",
"!  c #F8F901",
"~  c #F9F901",
"^  c #FAFA00",
"/  c #FBFA00",
"(  c #FAFB00",
")  c #FBFB00",
"_  c #FAFA01",
"`  c #FBFA01",
"'  c #FAFB01",
"]  c #FBFB01",
"[  c #FCFC00",
"{  c #FDFC00",
"}  c #FCFD00",
"|  c #FDFD00",
" . c #FCFC01",
".. c #FDFC01",
"X. c #FCFD01",
"o. c #FDFD01",
/* pixels */
"                                                                ",
"                          > e e e e >                           ",
"                  @ y b B T  . . . .T B b y @                   ",
"              @ g  . .T T T T T T T T T T  .C g @               ",
"            p  . . .F F F F F F F T T T T T T T C p             ",
"        . k  .T T F F F F F F F F F T F F T T T T T k           ",
"        g  .T T T T F F F F F F F F F F T F T T T T  .g         ",
"      i  .T T T T F F F F F F F F T F F T F F F T T T T i       ",
"    + C T T T T T F F F F F F T F F F F F T F T F T T T C +     ",
"    s T T T T T T F F F F F T F F F T F F F F T F F T T T s     ",
"  + C T T T T T F F F F F F F F F F F F F F F F F F T T T C +   ",
"  6  .T T T T T T F F F F F F T T F F F F F F F F F F T T  .6   ",
"  c T T T T T T F F F F F F F T T T F F F F T F F T F T T T c   ",
"  M T T T T T F F F F F F F F F F T T T T F F F F F F F T T N   ",
"- T T T T T F F F F F F F F F F e F T F T F F F F F F T F T T - ",
"4 T T T T F F T F F F F F F F F   T F F F T F T F F F T F T T 4 ",
"> T T T T F T F F F F F F F F  .  T F F F T F F F F F F F T T > ",
"> T T T F T T F F F F F F F  .      T F F F F F F F T F T T T > ",
"4 T T T F T F F F F F F F F  .      T F F F F F F F F F T T T 4 ",
"% F T T F F F F F F F F F T  .      T T F F F F F F F T T T F % ",
"  b T T F F F F F F F F F  .          T F F F F F F F F T T b   ",
"  z T F T F F F F F F F F  .          T F F F F F F F F T T z   ",
"  -  .F F F F F F F F F T  .          T F F F F F F F F F  .-   ",
"    B T F F F F F F F F  .              F F F F F T F T T F     ",
"    y  . .F F F F F F F  .              T F F F F T T T  .y     ",
"      4 F  .F F F T F F  .              T T F F F T ] T F +     ",
"        e F  .F T F F  .                  T T T F T T F e       ",
"          e F  . . .T  .                  T T T ] T F e         ",
"            e F F  .T  .                  T T T F F e           ",
"              + e F F e                   e F F e               ",
"                                                                ",
"                                                                "
};
