/* XPM */
static char *ghost_eaten[] = {
/* columns rows colors chars-per-pixel */
"32 32 104 2 ",
"   c None",
".  c #010042",
"X  c #000043",
"o  c #010043",
"O  c #000143",
"+  c #010143",
"@  c #000054",
"#  c #010054",
"$  c #000154",
"%  c #010154",
"&  c #000055",
"*  c #000155",
"=  c #010155",
"-  c #000064",
";  c #010064",
":  c #000164",
">  c #010164",
",  c #000065",
"<  c #010065",
"1  c #00006C",
"2  c #01006C",
"3  c #00016C",
"4  c #00006D",
"5  c #01006D",
"6  c #00016D",
"7  c #00007C",
"8  c #01007C",
"9  c #00017C",
"0  c #01017C",
"q  c #01007D",
"w  c #00017D",
"e  c #01017D",
"r  c #00008C",
"t  c #00018C",
"y  c #00008D",
"u  c #00018D",
"i  c #0000A6",
"p  c #0100A6",
"a  c #0001A6",
"s  c #0101A6",
"d  c #0000A7",
"f  c #0100A7",
"g  c #0001A7",
"h  c #0101A7",
"j  c #0000B8",
"k  c #0001B8",
"l  c #0000B9",
"z  c #0100B9",
"x  c #0001B9",
"c  c #0000C0",
"v  c #0100C0",
"b  c #0001C0",
"n  c #0000C1",
"m  c #0000D0",
"M  c #0100D0",
"N  c #0001D0",
"B  c #0101D0",
"V  c #0000D1",
"C  c #0100D1",
"Z  c #0001D1",
"A  c #0101D1",
"S  c #1313D2",
"D  c #1312D3",
"F  c #1313D3",
"G  c #1C1DD4",
"H  c #1D1DD4",
"J  c #1C1CD5",
"K  c #1D1CD5",
"L  c #1C1DD5",
"P  c #1D1DD5",
"I  c #5050DC",
"U  c #5150DC",
"Y  c #5051DC",
"T  c #5050DD",
"R  c #5150DD",
"E  c #5051DD",
"W  c #5151DD",
"Q  c #6464E0",
"!  c #6564E0",
"~  c #6465E0",
"^  c #6464E1",
"/  c #6C6DE2",
"(  c #6D6DE2",
")  c #6C6CE3",
"_  c #6C6DE3",
"`  c #6D6DE3",
"'  c #7677E2",
"]  c #7777E2",
"[  c #7776E3",
"{  c #7677E3",
"}  c #7777E3",
"|  c #8A8AE6",
" . c #8B8AE6",
".. c #8A8BE6",
"X. c #8A8AE7",
"o. c #8B8BE7",
"O. c #9494E8",
"+. c #9594E8",
"@. c #9495E8",
"#. c #9494E9",
"$. c #9594E9",
"%. c #9495E9",
"&. c #FEFFFF",
"*. c white",
/* pixels */
"                      O $ $ $ $ $ $ $ $ $                       ",
"                  O $ l Z Z Z Z Z Z Z Z Z 6 $                   ",
"              O $ l Z Z Z Z Z Z Z Z Z Z Z Z Z 6 $               ",
"            O l Z Z Z Z Z Z Z Z Z Z Z Z Z Z Z Z Z 6             ",
"          O l Z Z Z Z Z Z Z Z Z Z Z Z Z Z Z Z Z Z Z 6           ",
"        O l Z Z Z Z Z Z Z Z Z Z Z Z Z Z Z Z Z Z Z Z Z 6         ",
"        h Z Z Z Z Z Z Z Z Z Z Z Z Z Z Z Z Z Z Z Z Z Z Z         ",
"      O l Z Z Z Z Z Z Z Z Z Z Z Z Z Z Z Z Z Z Z Z Z Z Z 6       ",
"      h Z Z Z Z Z Z Z Z Z Z Z Z Z Z Z Z Z Z Z Z Z Z Z Z Z       ",
"      h Z Z Z ) Y Z Z Z Z Z Z Z Z Z Z Z Z Z Z U ) Z Z Z Z       ",
"    O l Z Z Z Z ) *.U U L Z Z Z Z Z Z L U U *.) Z Z Z Z Z 6     ",
"    h Z Z Z Z Z Z L Z *.U Z Z Z Z Z Z U *.Z L Z Z Z Z Z Z Z     ",
"    h Z Z Z Z Z Z L Z Z O.U Z Z Z Z U O.Z Z L Z Z Z Z Z Z Z     ",
"    h Z Z Z Z Z U U O.O.O.L Z Z Z Z L O.O.O.U U Z Z Z Z Z Z     ",
"    h Z Z Z Z ) ) ) Z Z Z Z Z Z Z Z Z Z Z Z ) ) ) Z Z Z Z Z     ",
"  O l Z Z Z Z Z Z Z Z Z Z Z Z Z Z Z Z Z Z Z Z Z Z Z Z Z Z Z 6   ",
"  h Z Z Z Z Z Z Z Z Z Z Z Z Z Z Z Z Z Z Z Z Z Z Z Z Z Z Z Z Z   ",
"  h Z Z Z Z Z Z Z Z Z Z Z Z Z Z Z Z Z Z Z Z Z Z Z Z Z Z Z Z Z   ",
"  h Z Z Z Z Z Z Z Z Z Z Z Z Z Z Z Z Z Z Z Z Z Z Z Z Z Z Z Z Z   ",
"  h Z Z Z Z Z U ~ F Z Z Z Z Z U ~ F Z Z Z Z Z U ~ F Z Z Z Z Z   ",
"  h Z Z Z Z U o.O.) F Z Z Z U o.O.) F Z Z Z U o.O.) F Z Z Z Z   ",
"  h Z Z Z U o.L Z } ) F Z U o.L Z } ) F Z U o.L Z } ) F Z Z Z   ",
"  h Z Z U o.L Z Z Z } ) ~ o.L Z Z Z } ) ~ o.L Z Z Z } ) F Z Z   ",
"  h Z Z } L Z Z Z Z Z } O.L Z Z Z Z Z } O.L Z Z Z Z Z } L Z Z   ",
"  h Z Z Z Z Z Z Z Z Z Z Z Z Z Z Z Z Z Z Z Z Z Z Z Z Z Z Z Z Z   ",
"  h Z Z Z Z Z Z Z Z Z Z Z Z Z Z Z Z Z Z Z Z Z Z Z Z Z Z Z Z Z   ",
"  h Z Z Z y q c Z Z Z Z Z Z y q q q c Z Z Z Z Z Z y q c Z Z Z   ",
"  h Z Z y     ; c Z Z Z Z y         ; c Z Z Z Z y     ; c Z Z   ",
"  h Z Z         h Z Z Z Z             h Z Z Z Z         h Z Z   ",
"  h Z y         ; c Z Z y             ; c Z Z y         ; c Z   ",
"  ; q             ; q q                 ; q q             ; q   ",
"                                                                "
};
