/* XPM */
static char *heart[] = {
/* columns rows colors chars-per-pixel */
"32 32 22 1 ",
"  c None",
". c #680000",
"X c #690000",
"o c #680100",
"O c #690100",
"+ c #680001",
"@ c #690001",
"# c #680101",
"$ c #880000",
"% c #890000",
"& c #AC0000",
"* c #AD0000",
"= c #AC0100",
"- c #AD0100",
"; c #AC0001",
": c #AD0001",
"> c #AC0101",
", c #AD0101",
"< c red",
"1 c #FF0100",
"2 c #FEFFFF",
"3 c white",
/* pixels */
"                                ",
"                                ",
"                                ",
"                                ",
"                                ",
"                                ",
"                                ",
"                                ",
"                                ",
"          @@@@     @@@@         ",
"         @<<<@@   @@<<<@        ",
"        @::::<@@ @@::::<@       ",
"        @:::::<@@@:::3::@       ",
"        @::::::<@:::::3:@       ",
"        @$$:::::::::::::@       ",
"         @$::::::::::::@        ",
"          @$::::::::::@         ",
"           @$::::::::@          ",
"            @$::::::@           ",
"             @$::::@            ",
"              @$::@             ",
"               @$@              ",
"                @               ",
"                                ",
"                                ",
"                                ",
"                                ",
"                                ",
"                                ",
"                                ",
"                                ",
"                                "
};
