/* XPM */
static char *orange_up[] = {
/* columns rows colors chars-per-pixel */
"32 32 24 1 ",
"  c None",
". c #FE9C00",
"X c #FF9C00",
"o c #FE9D00",
"O c #FF9D00",
"+ c #FE9C01",
"@ c #FF9C01",
"# c #FF9D01",
"$ c #0000D0",
"% c #0100D0",
"& c #0001D0",
"* c #0101D0",
"= c #0000D1",
"- c #0100D1",
"; c #0001D1",
": c #0101D1",
"> c #F8F8F8",
", c #F9F8F8",
"< c #F8F9F8",
"1 c #F9F9F8",
"2 c #F8F8F9",
"3 c #F9F8F9",
"4 c #F8F9F9",
"5 c #F9F9F9",
/* pixels */
"                                ",
"           XXXXXXXXXX           ",
"         XXXXXXXXXXXXXX         ",
"       XXXXXXXXXXXXXXXXXX       ",
"      XXXXXXXXXXXXXXXXXXXX      ",
"     XXXXXXXXXXXXXXXXXXXXXX     ",
"    XXXXXXXXXXXXXXXXXXXXXXXX    ",
"    XXX>>>XXXXXXXXXXXX>>>XXX    ",
"   XX>>;;;;>XXXXXXXX>;;;;>>XX   ",
"   XX>;;;;;;XXXXXXXX;;;;;;>XX   ",
"   X>>;;;;;;>XXXXXX>;;;;;;>>X   ",
"  XX>>;;;;;;>XXXXXX>;;;;;;>>XX  ",
"  XX>>;;;;;;>XXXXXX>;;;;;;>>XX  ",
"  XX>>>;;;;>>XXXXXX>>;;;;>>>XX  ",
"  XX>>>>>>>>>XXXXXX>>>>>>>>>XX  ",
"  XX>>>>>>>>>XXXXXX>>>>>>>>>XX  ",
" XXXX>>>>>>>XXXXXXXX>>>>>>>XXXX ",
" XXXX>>>>>>>XXXXXXXX>>>>>>>XXXX ",
" XXXXXX>>>XXXXXXXXXXXX>>>XXXXXX ",
" XXXXXXXXXXXXXXXXXXXXXXXXXXXXXX ",
" XXXXXXXXXXXXXXXXXXXXXXXXXXXXXX ",
" XXXXXXXXXXXXXXXXXXXXXXXXXXXXXX ",
" XXXXXXXXXXXXXXXXXXXXXXXXXXXXXX ",
" XXXXXXXXXXXXXXXXXXXXXXXXXXXXXX ",
" XXXXXXXXXXXXXXXXXXXXXXXXXXXXXX ",
" XXXXXXXXXXXXXXXXXXXXXXXXXXXXXX ",
" XXXXXXXXXXXXXXXXXXXXXXXXXXXXXX ",
" XXXX  XXXXXXX    XXXXXXX  XXXX ",
" XXX    XXXXX      XXXXX    XXX ",
" XXX    XXXXX      XXXXX    XXX ",
" XX      XXX        XXX      XX ",
"                                "
};
