/* XPM */
static char *orange_down[] = {
/* columns rows colors chars-per-pixel */
"32 32 23 1 ",
"  c None",
". c #FE9C00",
"X c #FF9C00",
"o c #FE9D00",
"O c #FF9D00",
"+ c #FE9C01",
"@ c #FF9C01",
"# c #0000D0",
"$ c #0100D0",
"% c #0001D0",
"& c #0101D0",
"* c #0000D1",
"= c #0100D1",
"- c #0001D1",
"; c #0101D1",
": c #F8F8F8",
"> c #F9F8F8",
", c #F8F9F8",
"< c #F9F9F8",
"1 c #F8F8F9",
"2 c #F9F8F9",
"3 c #F8F9F9",
"4 c #F9F9F9",
/* pixels */
"                                ",
"           XXXXXXXXXX           ",
"         XXXXXXXXXXXXXX         ",
"       XXXXXXXXXXXXXXXXXX       ",
"      XXXXXXXXXXXXXXXXXXXX      ",
"     XXXXXXXXXXXXXXXXXXXXXX     ",
"    XXXXXXXXXXXXXXXXXXXXXXXX    ",
"    XXX333XXXXXXXXXXXX333XXX    ",
"   XX3333333XXXXXXXX3333333XX   ",
"   XX3333333XXXXXXXX3333333XX   ",
"   X333333333XXXXXX333333333X   ",
"  XX333333333XXXXXX333333333XX  ",
"  XX333&&&&33XXXXXX33&&&&333XX  ",
"  XX33&&&&&33XXXXXX33&&&&&33XX  ",
"  XX33&&&&&&3XXXXXX3&&&&&&33XX  ",
"  XX33&&&&&&3XXXXXX3&&&&&&33XX  ",
" XXXX3&&&&&&XXXXXXXX&&&&&&3XXXX ",
" XXXX33&&&&3XXXXXXXX3&&&&33XXXX ",
" XXXXXX333XXXXXXXXXXXX333XXXXXX ",
" XXXXXXXXXXXXXXXXXXXXXXXXXXXXXX ",
" XXXXXXXXXXXXXXXXXXXXXXXXXXXXXX ",
" XXXXXXXXXXXXXXXXXXXXXXXXXXXXXX ",
" XXXXXXXXXXXXXXXXXXXXXXXXXXXXXX ",
" XXXXXXXXXXXXXXXXXXXXXXXXXXXXXX ",
" XXXXXXXXXXXXXXXXXXXXXXXXXXXXXX ",
" XXXXXXXXXXXXXXXXXXXXXXXXXXXXXX ",
" XXXXXXXXXXXXXXXXXXXXXXXXXXXXXX ",
" XXXX  XXXXXXX    XXXXXXX  XXXX ",
" XXX    XXXXX      XXXXX    XXX ",
" XXX    XXXXX      XXXXX    XXX ",
" XX      XXX        XXX      XX ",
"                                "
};
