/* XPM */
static char *pacman_right[] = {
/* columns rows colors chars-per-pixel */
"32 32 98 2 ",
"   c None",
".  c #4A4A01",
"X  c #555400",
"o  c #545501",
"O  c #565700",
"+  c #565701",
"@  c #646400",
"#  c #656400",
"$  c #666600",
"%  c #666601",
"&  c #757400",
"*  c #808001",
"=  c #818001",
"-  c #828200",
";  c #828300",
":  c #898800",
">  c #888901",
",  c #8A8A00",
"<  c #8A8B00",
"1  c #8B8B00",
"2  c #8B8A01",
"3  c #8C8C00",
"4  c #8D8C00",
"5  c #8C8D00",
"6  c #8D8C01",
"7  c #909000",
"8  c #919000",
"9  c #909100",
"0  c #909001",
"q  c #919001",
"w  c #949500",
"e  c #959500",
"r  c #959501",
"t  c #969600",
"y  c #979600",
"u  c #A1A100",
"i  c #A0A001",
"p  c #A0A101",
"a  c #B0B000",
"s  c #B0B100",
"d  c #B4B400",
"f  c #B4B500",
"g  c #B8B900",
"h  c #B9B801",
"j  c #BFBF00",
"k  c #BFBF01",
"l  c #C3C301",
"z  c #C6C600",
"x  c #C7C701",
"c  c #D2D200",
"v  c #D2D300",
"b  c #D2D201",
"n  c #D3D301",
"m  c #D4D400",
"M  c #D4D500",
"N  c #D4D401",
"B  c #D5D401",
"V  c #DDDC00",
"C  c #DDDD00",
"Z  c #DEDF00",
"A  c #DFDF00",
"S  c #DEDE01",
"D  c #DFDF01",
"F  c #E2E300",
"G  c #E2E301",
"H  c #E8E800",
"J  c #E8E801",
"K  c #E9E801",
"L  c #E8E901",
"P  c #F2F200",
"I  c #F2F300",
"U  c #F3F300",
"Y  c #F4F400",
"T  c #F5F400",
"R  c #F4F500",
"E  c #F5F500",
"W  c #F6F600",
"Q  c #F8F800",
"!  c #F9F800",
"~  c #F8F900",
"^  c #F9F900",
"/  c #F8F801",
"(  c #F9F801",
")  c #F8F901",
"_  c #F9F901",
"`  c #FAFA00",
"'  c #FBFA00",
"]  c #FAFB00",
"[  c #FBFB00",
"{  c #FAFA01",
"}  c #FAFB01",
"|  c #FBFB01",
" . c #FCFC00",
".. c #FDFC00",
"X. c #FCFD00",
"o. c #FDFD00",
"O. c #FCFC01",
"+. c #FDFC01",
/* pixels */
"                            ; 5 2 2 5 &                         ",
"                    O 7 m G ^ ^ ^ ^ ^ T V z ;                   ",
"                O h U o.^ ^ ^ ^ ^ ^ ^ ^ ^ ^ o.J p               ",
"              s U ^ ^ ^ ^ ^ ^ ^ ^ ^ ^ ^ ^ ^ ^ ^ o.5             ",
"            j ^ ^ ^ ^ ^ ^ ^ ^ ^ ^ ^ ^ ^ ^ ^ ^ ^ b               ",
"          l o.^ ^ ^ ^ ^ ^ ^ ^ ^ ^ ^ ^ ^ ^ ^ ^ m                 ",
"        f ^ ^ ^ ^ ^ ^ ^ ^ ^ ^ ^ ^ ^ ^ ^ ^ ^ m                   ",
"      @ U ^ ^ ^ ^ ^ ^ ^ ^ ^ ^ ^ ^ ^ ^ ^ ^ m                     ",
"      j ^ ^ ^ ^ ^ ^ ^ ^ ^ ^ ^ ^ ^ ^ ^ ^ m                       ",
"    @ U ^ ^ ^ ^ ^ ^ ^ ^ ^ ^ ^ ^ ^ ^ ^ m                         ",
"    p o.^ ^ ^ ^ ^ ^ ^ ^ ^ ^ ^ ^ ^ ^ b                           ",
"    V ^ ^ ^ ^ ^ ^ ^ ^ ^ ^ ^ ^ ^ ^ V                             ",
"    J ^ ^ ^ ^ ^ ^ ^ ^ ^ ^ ^ ^ ^ T 2                             ",
"  2 ^ ^ ^ ^ ^ ^ ^ ^ ^ ^ ^ ^ ^ T 7                               ",
"  y o.^ ^ ^ ^ ^ ^ ^ ^ ^ ^ ^ T 7                                 ",
"  y o.^ ^ ^ ^ ^ ^ ^ ^ ^ ^ T y                                   ",
"  y o.^ ^ ^ ^ ^ ^ ^ ^ ^ ^ T y                                   ",
"  y o.^ ^ ^ ^ ^ ^ ^ ^ ^ ^ ^ T 7                                 ",
"  2 ^ ^ ^ ^ ^ ^ ^ ^ ^ ^ ^ ^ ^ T 7                               ",
"    J ^ ^ ^ ^ ^ ^ ^ ^ ^ ^ ^ ^ ^ T 2                             ",
"    V ^ ^ ^ ^ ^ ^ ^ ^ ^ ^ ^ ^ ^ ^ V                             ",
"    p o.^ ^ ^ ^ ^ ^ ^ ^ ^ ^ ^ ^ ^ ^ b                           ",
"    @ U ^ ^ ^ ^ ^ ^ ^ ^ ^ ^ ^ ^ ^ ^ ^ m                         ",
"      j ^ ^ ^ ^ ^ ^ ^ ^ ^ ^ ^ ^ ^ ^ ^ ^ m                       ",
"      @ U ^ ^ ^ ^ ^ ^ ^ ^ ^ ^ ^ ^ ^ ^ ^ ^ m                     ",
"        f ^ ^ ^ ^ ^ ^ ^ ^ ^ ^ ^ ^ ^ ^ ^ ^ ^ m                   ",
"          l o.^ ^ ^ ^ ^ ^ ^ ^ ^ ^ ^ ^ ^ ^ ^ ^ m                 ",
"          . j ^ ^ ^ ^ ^ ^ ^ ^ ^ ^ ^ ^ ^ ^ ^ ^ ^ b               ",
"              s U ^ ^ ^ ^ ^ ^ ^ ^ ^ ^ ^ ^ ^ ^ ^ o.5             ",
"                O h U o.^ ^ ^ ^ ^ ^ ^ ^ ^ ^ o.J p               ",
"                    O 7 m G ^ ^ ^ ^ ^ T V z ;                   ",
"                            ; 5 2 2 5 &                         "
};
