/* XPM */
static char *pink_down[] = {
/* columns rows colors chars-per-pixel */
"32 32 25 1 ",
"  c None",
". c #0000D0",
"X c #0100D0",
"o c #0001D0",
"O c #0101D0",
"+ c #0000D1",
"@ c #0100D1",
"# c #0001D1",
"$ c #0101D1",
"% c #FE76E0",
"& c #FF76E0",
"* c #FE77E0",
"= c #FF77E0",
"- c #FE76E1",
"; c #FF76E1",
": c #FE77E1",
"> c #FF77E1",
", c #F8F8F8",
"< c #F9F8F8",
"1 c #F8F9F8",
"2 c #F9F9F8",
"3 c #F8F8F9",
"4 c #F9F8F9",
"5 c #F8F9F9",
"6 c #F9F9F9",
/* pixels */
"                                ",
"           &&&&&&&&&&           ",
"         &&&&&&&&&&&&&&         ",
"       &&&&&&&&&&&&&&&&&&       ",
"      &&&&&&&&&&&&&&&&&&&&      ",
"     &&&&&&&&&&&&&&&&&&&&&&     ",
"    &&&&&&&&&&&&&&&&&&&&&&&&    ",
"    &&&111&&&&&&&&&&&&111&&&    ",
"   &&1111111&&&&&&&&1111111&&   ",
"   &&1111111&&&&&&&&1111111&&   ",
"   &111111111&&&&&&111111111&   ",
"  &&111111111&&&&&&111111111&&  ",
"  &&111OOOO11&&&&&&11OOOO111&&  ",
"  &&11OOOOO11&&&&&&11OOOOO11&&  ",
"  &&11OOOOOO1&&&&&&1OOOOOO11&&  ",
"  &&11OOOOOO1&&&&&&1OOOOOO11&&  ",
" &&&&1OOOOOO&&&&&&&&OOOOOO1&&&& ",
" &&&&11OOOO1&&&&&&&&1OOOO11&&&& ",
" &&&&&&111&&&&&&&&&&&&111&&&&&& ",
" &&&&&&&&&&&&&&&&&&&&&&&&&&&&&& ",
" &&&&&&&&&&&&&&&&&&&&&&&&&&&&&& ",
" &&&&&&&&&&&&&&&&&&&&&&&&&&&&&& ",
" &&&&&&&&&&&&&&&&&&&&&&&&&&&&&& ",
" &&&&&&&&&&&&&&&&&&&&&&&&&&&&&& ",
" &&&&&&&&&&&&&&&&&&&&&&&&&&&&&& ",
" &&&&&&&&&&&&&&&&&&&&&&&&&&&&&& ",
" &&&&&&&&&&&&&&&&&&&&&&&&&&&&&& ",
" &&&&  &&&&&&&    &&&&&&&  &&&& ",
" &&&    &&&&&      &&&&&    &&& ",
" &&&    &&&&&      &&&&&    &&& ",
" &&      &&&        &&&      && ",
"                                "
};
