/* XPM */
static char *pink_left[] = {
/* columns rows colors chars-per-pixel */
"32 32 22 1 ",
"  c None",
". c #0000D0",
"X c #0100D0",
"o c #0101D0",
"O c #0000D1",
"+ c #0100D1",
"@ c #0001D1",
"# c #FE76E0",
"$ c #FF76E0",
"% c #FF77E0",
"& c #FE76E1",
"* c #FF76E1",
"= c #FE77E1",
"- c #FF77E1",
"; c #F8F8F8",
": c #F9F8F8",
"> c #F8F9F8",
", c #F9F9F8",
"< c #F8F8F9",
"1 c #F9F8F9",
"2 c #F8F9F9",
"3 c #F9F9F9",
/* pixels */
"                                ",
"           **********           ",
"         **************         ",
"       ******************       ",
"      ********************      ",
"     **********************     ",
"    ************************    ",
"    **222**********222******    ",
"   *2222222******2222222*****   ",
"   *2222222******2222222*****   ",
"   2...22222****2...22222****   ",
"  *.....2222****.....2222*****  ",
"  *.....2222****.....2222*****  ",
"  *.....2222****.....2222*****  ",
"  *.....2222****.....2222*****  ",
"  *2...22222****2...22222*****  ",
" ***2222222******2222222******* ",
" ***2222222******2222222******* ",
" *****222**********222********* ",
" ****************************** ",
" ****************************** ",
" ****************************** ",
" ****************************** ",
" ****************************** ",
" ****************************** ",
" ****************************** ",
" ****************************** ",
" ****  *******    *******  **** ",
" ***    *****      *****    *** ",
" ***    *****      *****    *** ",
" **      ***        ***      ** ",
"                                "
};
