/* XPM */
static char *red_right[] = {
/* columns rows colors chars-per-pixel */
"32 32 23 1 ",
"  c None",
". c #FE0000",
"X c red",
"o c #FE0100",
"O c #FF0100",
"+ c #FE0001",
"@ c #FF0001",
"# c #0000D0",
"$ c #0100D0",
"% c #0001D0",
"& c #0101D0",
"* c #0000D1",
"= c #0100D1",
"- c #0001D1",
"; c #0101D1",
": c #F8F8F8",
"> c #F9F8F8",
", c #F8F9F8",
"< c #F9F9F8",
"1 c #F8F8F9",
"2 c #F9F8F9",
"3 c #F8F9F9",
"4 c #F9F9F9",
/* pixels */
"                                ",
"           XXXXXXXXXX           ",
"         XXXXXXXXXXXXXX         ",
"       XXXXXXXXXXXXXXXXXX       ",
"      XXXXXXXXXXXXXXXXXXXX      ",
"     XXXXXXXXXXXXXXXXXXXXXX     ",
"    XXXXXXXXXXXXXXXXXXXXXXXX    ",
"    XXXXXX:::XXXXXXXXXX:::XX    ",
"   XXXXX:::::::XXXXXX:::::::X   ",
"   XXXXX:::::::XXXXXX:::::::X   ",
"   XXXX:::::---:XXXX:::::---:   ",
"  XXXXX::::-----XXXX::::-----X  ",
"  XXXXX::::-----XXXX::::-----X  ",
"  XXXXX::::-----XXXX::::-----X  ",
"  XXXXX::::-----XXXX::::-----X  ",
"  XXXXX:::::---:XXXX:::::---:X  ",
" XXXXXXX:::::::XXXXXX:::::::XXX ",
" XXXXXXX:::::::XXXXXX:::::::XXX ",
" XXXXXXXXX:::XXXXXXXXXX:::XXXXX ",
" XXXXXXXXXXXXXXXXXXXXXXXXXXXXXX ",
" XXXXXXXXXXXXXXXXXXXXXXXXXXXXXX ",
" XXXXXXXXXXXXXXXXXXXXXXXXXXXXXX ",
" XXXXXXXXXXXXXXXXXXXXXXXXXXXXXX ",
" XXXXXXXXXXXXXXXXXXXXXXXXXXXXXX ",
" XXXXXXXXXXXXXXXXXXXXXXXXXXXXXX ",
" XXXXXXXXXXXXXXXXXXXXXXXXXXXXXX ",
" XXXXXXXXXXXXXXXXXXXXXXXXXXXXXX ",
" XXXX  XXXXXXX    XXXXXXX  XXXX ",
" XXX    XXXXX      XXXXX    XXX ",
" XXX    XXXXX      XXXXX    XXX ",
" XX      XXX        XXX      XX ",
"                                "
};
