/* XPM */
static char *red_down[] = {
/* columns rows colors chars-per-pixel */
"32 32 24 1 ",
"  c None",
". c #FE0000",
"X c red",
"o c #FE0100",
"O c #FF0100",
"+ c #FE0001",
"@ c #FF0001",
"# c #FF0101",
"$ c #0000D0",
"% c #0100D0",
"& c #0001D0",
"* c #0101D0",
"= c #0000D1",
"- c #0100D1",
"; c #0001D1",
": c #0101D1",
"> c #F8F8F8",
", c #F9F8F8",
"< c #F8F9F8",
"1 c #F9F9F8",
"2 c #F8F8F9",
"3 c #F9F8F9",
"4 c #F8F9F9",
"5 c #F9F9F9",
/* pixels */
"                                ",
"           XXXXXXXXXX           ",
"         XXXXXXXXXXXXXX         ",
"       XXXXXXXXXXXXXXXXXX       ",
"      XXXXXXXXXXXXXXXXXXXX      ",
"     XXXXXXXXXXXXXXXXXXXXXX     ",
"    XXXXXXXXXXXXXXXXXXXXXXXX    ",
"    XXX444XXXXXXXXXXXX444XXX    ",
"   XX4444444XXXXXXXX4444444XX   ",
"   XX4444444XXXXXXXX4444444XX   ",
"   X444444444XXXXXX444444444X   ",
"  XX444444444XXXXXX444444444XX  ",
"  XX444****44XXXXXX44****444XX  ",
"  XX44*****44XXXXXX44*****44XX  ",
"  XX44******4XXXXXX4******44XX  ",
"  XX44******4XXXXXX4******44XX  ",
" XXXX4******XXXXXXXX******4XXXX ",
" XXXX44****4XXXXXXXX4****44XXXX ",
" XXXXXX444XXXXXXXXXXXX444XXXXXX ",
" XXXXXXXXXXXXXXXXXXXXXXXXXXXXXX ",
" XXXXXXXXXXXXXXXXXXXXXXXXXXXXXX ",
" XXXXXXXXXXXXXXXXXXXXXXXXXXXXXX ",
" XXXXXXXXXXXXXXXXXXXXXXXXXXXXXX ",
" XXXXXXXXXXXXXXXXXXXXXXXXXXXXXX ",
" XXXXXXXXXXXXXXXXXXXXXXXXXXXXXX ",
" XXXXXXXXXXXXXXXXXXXXXXXXXXXXXX ",
" XXXXXXXXXXXXXXXXXXXXXXXXXXXXXX ",
" XXXX  XXXXXXX    XXXXXXX  XXXX ",
" XXX    XXXXX      XXXXX    XXX ",
" XXX    XXXXX      XXXXX    XXX ",
" XX      XXX        XXX      XX ",
"                                "
};
