/* XPM */
static char *red_up[] = {
/* columns rows colors chars-per-pixel */
"32 32 24 1 ",
"  c None",
". c #FE0000",
"X c red",
"o c #FE0100",
"O c #FF0100",
"+ c #FE0001",
"@ c #FF0001",
"# c #FF0101",
"$ c #0000D0",
"% c #0100D0",
"& c #0001D0",
"* c #0101D0",
"= c #0000D1",
"- c #0100D1",
"; c #0001D1",
": c #0101D1",
"> c #F8F8F8",
", c #F9F8F8",
"< c #F8F9F8",
"1 c #F9F9F8",
"2 c #F8F8F9",
"3 c #F9F8F9",
"4 c #F8F9F9",
"5 c #F9F9F9",
/* pixels */
"                                ",
"           XXXXXXXXXX           ",
"         XXXXXXXXXXXXXX         ",
"       XXXXXXXXXXXXXXXXXX       ",
"      XXXXXXXXXXXXXXXXXXXX      ",
"     XXXXXXXXXXXXXXXXXXXXXX     ",
"    XXXXXXXXXXXXXXXXXXXXXXXX    ",
"    XXX333XXXXXXXXXXXX333XXX    ",
"   XX33::::3XXXXXXXX3::::33XX   ",
"   XX3::::::XXXXXXXX::::::3XX   ",
"   X33::::::3XXXXXX3::::::33X   ",
"  XX33::::::3XXXXXX3::::::33XX  ",
"  XX33::::::3XXXXXX3::::::33XX  ",
"  XX333::::33XXXXXX33::::333XX  ",
"  XX333333333XXXXXX333333333XX  ",
"  XX333333333XXXXXX333333333XX  ",
" XXXX3333333XXXXXXXX3333333XXXX ",
" XXXX3333333XXXXXXXX3333333XXXX ",
" XXXXXX333XXXXXXXXXXXX333XXXXXX ",
" XXXXXXXXXXXXXXXXXXXXXXXXXXXXXX ",
" XXXXXXXXXXXXXXXXXXXXXXXXXXXXXX ",
" XXXXXXXXXXXXXXXXXXXXXXXXXXXXXX ",
" XXXXXXXXXXXXXXXXXXXXXXXXXXXXXX ",
" XXXXXXXXXXXXXXXXXXXXXXXXXXXXXX ",
" XXXXXXXXXXXXXXXXXXXXXXXXXXXXXX ",
" XXXXXXXXXXXXXXXXXXXXXXXXXXXXXX ",
" XXXXXXXXXXXXXXXXXXXXXXXXXXXXXX ",
" XXXX  XXXXXXX    XXXXXXX  XXXX ",
" XXX    XXXXX      XXXXX    XXX ",
" XXX    XXXXX      XXXXX    XXX ",
" XX      XXX        XXX      XX ",
"                                "
};
