/* XPM */
static const char *win[] = {
/* columns rows colors chars-per-pixel */
"300 129 136 2 ",
"   c #010101",
".  c #070807",
"X  c #080807",
"o  c #070808",
"O  c #0C0D0C",
"+  c #0F100F",
"@  c #10100F",
"#  c #0F0F10",
"$  c #0F1010",
"%  c #131313",
"&  c #171817",
"*  c #181817",
"=  c #171918",
"-  c #1B1C1B",
";  c #1F201F",
":  c #20201F",
">  c #232322",
",  c #282727",
"<  c #282827",
"1  c #272828",
"2  c None",
"3  c None",
"4  c None",
"5  c None",
"6  c None",
"7  c None",
"8  c #373837",
"9  c #3A3A3A",
"0  c None",
"q  c #3F403F",
"w  c #40403F",
"e  c #3F4040",
"r  c #424342",
"t  c #4D4D4C",
"y  c #4F514F",
"u  c #535353",
"i  c #5B5B5B",
"p  c #636463",
"a  c #6D6E6D",
"s  c #757574",
"d  c #777877",
"f  c #787877",
"g  c #7A7A79",
"h  c #7A7A7A",
"j  c #7D7D7D",
"k  c #7F7F7F",
"l  c #7F7F7E",
"z  c #7B7B7B",
"x  c None",
"c  c None",
"v  c None",
"b  c None",
"n  c #7F807F",
"m  c #7F807F",
"M  c #80807F",
"N  c #80807F",
"B  c #808180",
"V  c #828382",
"C  c #838483",
"Z  c #818181",
"A  c #888887",
"S  c #8D8D8C",
"D  c #8E8E8D",
"F  c #8A8A8A",
"G  c #8F908F",
"H  c #949493",
"J  c #9B9B9A",
"K  c #9B9B9A",
"L  c #A4A4A3",
"P  c #A7A8A7",
"I  c #A8A8A7",
"U  c #A8A8A7",
"Y  c #A8A8A8",
"T  c #A9A9A8",
"R  c #AAAAA9",
"E  c #AAAAA9",
"W  c #B0B0AF",
"Q  c #B3B4B3",
"!  c #B4B4B3",
"~  c #B5B5B4",
"^  c #B5B6B5",
"/  c #B7B7B6",
"(  c #BCBCBB",
")  c #BABAB9",
"_  c #C0C0BF",
"`  c #C1C1C1",
"'  c #C1C2C1",
"]  c #C4C4C3",
"[  c #C3C4C2",
"{  c #C8C9C7",
"}  c #C9C9C8",
"|  c #C9CACA",
" . c #CBCBCA",
".. c #CBCBCA",
"X. c #D0D0CE",
"o. c #D6D6D5",
"O. c #D4D4D3",
"+. c #DCDDDB",
"@. c #DCDCDB",
"#. c #DFE0DE",
"$. c #E0E0DF",
"%. c #E1E1E0",
"&. c #E1E1E1",
"*. c #E1E2E0",
"=. c #E2E2E1",
"-. c #E2E2E2",
";. c #E3E4E2",
":. c #E8E9E7",
">. c #E9E9E8",
",. c #E9E9E9",
"<. c #E9EAE9",
"1. c #EAEAE9",
"2. c #EBEBEB",
"3. c #ECECEB",
"4. c #EEEEED",
"5. c #EEEFED",
"6. c #EFEFED",
"7. c #EFEFEE",
"8. c #EDEDEC",
"9. c #F0F0EF",
"0. c #F1F1F0",
"q. c #F2F2F1",
"w. c #F3F3F2",
"e. c #F4F4F3",
"r. c #F2F2F1",
"t. c #F8F8F7",
"y. c #F9F9F8",
"u. c #FBFBFA",
"i. c #FAFAF9",
"p. c #FCFCFB",
"a. c #FDFDFC",
"s. c #FDFDFD",
"d. c #FEFEFD",
"f. c #FFFFFE",
"g. c #FFFFFF",
"h. c #FEFEFD",
/* pixels */
"7 7 7 7 7 7 7 7 7 7 7 5 7 7 7 7 7 7 7 7 7 7 7 7 7 7 7 7 7 7 7 7 7 7 7 7 7 7 7 7 7 7 7 7 7 7 7 7 7 7 7 3 3 3 5 7 7 7 2 2 2 2 2 2 2 2 2 2 2 2 2 2 2 2 2 2 2 2 2 2 2 2 7 7 5 2 2 2 2 2 2 2 2 2 2 2 2 2 2 2 2 2 2 2 2 2 2 2 2 7 7 2 2 2 2 2 2 2 2 2 2 2 2 2 2 2 2 2 2 2 2 2 2 2 2 7 7 7 2 2 2 2 2 2 2 2 2 2 2 2 2 2 2 2 2 2 2 2 2 2 2 2 7 7 5 2 2 2 2 2 2 2 2 2 2 2 2 2 2 2 2 2 2 2 2 2 2 2 2 7 7 2 2 2 2 2 2 2 2 2 2 2 2 2 2 2 2 2 2 2 2 2 2 2 2 5 7 7 2 2 2 2 2 2 2 2 2 2 2 2 2 2 2 2 2 2 2 2 2 2 2 2 7 7 7 7 7 7 7 7 7 7 7 7 7 7 7 7 7 7 7 7 7 7 7 7 7 7 7 7 7 7 7 7 7 7 7 7 7 7 7 7 7 7 7 7 7 7 7 7 7 7 7 7 7 7 7 7 7 7 ",
"7 7 7 7 7 7 7 7 7 5 7 7 7 7 5 7 7 7 7 7 7 7 7 7 7 7 7 7 5 7 7 5 3 7 7 7 7 7 7 7 7 7 7 7 7 7 7 7 7 7 7 5 5 3 5 5 5 7 7 5 7 7 5 7 5 5 4 2 5 5 5 4 5 5 5 5 5 5 5 7 7 7 4 4 7 7 7 7 5 5 5 7 7 5 2 2 4 5 5 5 5 5 5 5 5 5 5 5 5 5 5 7 7 7 7 7 7 7 5 4 5 5 4 5 7 7 5 5 3 5 5 4 5 7 7 7 7 7 5 5 5 7 4 2 5 7 7 5 7 7 7 7 5 5 4 4 5 5 5 5 7 7 7 7 5 5 5 5 2 5 5 7 7 7 7 7 5 5 5 5 5 5 5 5 5 7 7 7 7 5 7 7 7 7 7 7 7 7 7 7 5 5 2 2 5 7 5 7 7 7 5 3 2 5 4 4 7 7 7 7 7 5 7 7 7 5 4 4 4 7 7 7 7 7 7 7 5 2 2 2 5 7 7 7 7 7 7 7 7 7 7 7 7 7 7 7 7 7 7 7 7 7 7 7 7 7 7 7 7 7 7 7 7 7 7 7 7 7 7 7 7 7 7 7 7 7 7 7 7 7 7 7 7 7 7 7 7 7 7 5 ",
"7 7 5 5 7 7 7 7 7 5 5 5 5 5 3 5 7 7 7 7 7 7 5 5 7 7 7 7 5 5 5 3 3 3 5 3 5 5 5 5 7 7 5 5 5 5 7 5 5 5 5 3 5 5 7 5 5 5 7 7 2 2 5 5 7 5 3 3 5 4 4 2 2 2 3 3 5 3 5 5 7 4 2 2 5 5 7 7 5 5 3 7 7 4 2 2 2 2 5 3 5 5 5 3 4 2 2 2 4 4 5 5 7 7 5 7 4 4 4 4 2 2 5 5 7 7 5 5 3 4 4 2 2 2 5 4 5 5 2 3 5 5 5 2 2 4 7 7 7 7 7 7 5 2 2 2 2 2 5 3 7 7 7 7 5 5 5 5 2 2 5 4 7 7 7 7 3 3 3 2 2 2 5 4 7 7 7 7 5 4 4 4 5 5 5 7 7 5 5 7 5 4 2 2 2 2 7 7 7 7 5 5 5 2 4 4 7 7 7 7 5 5 7 7 7 4 4 2 2 4 7 7 7 7 7 7 5 2 2 2 2 4 7 7 7 7 7 7 7 7 7 7 7 7 7 7 7 7 7 7 7 7 7 7 7 7 7 7 7 7 7 7 7 7 7 7 7 7 7 7 7 7 7 7 7 7 7 7 7 7 7 7 7 7 7 7 7 7 7 7 ",
"5 5 5 3 3 5 5 7 5 3 5 5 5 5 3 3 5 5 5 5 5 7 5 5 5 3 5 5 5 5 5 3 5 5 5 3 3 3 5 5 5 5 5 5 5 5 5 5 3 3 5 5 3 5 5 5 3 3 2 7 2 2 2 5 5 3 2 3 2 4 2 2 2 2 2 3 3 5 5 7 7 5 2 2 5 7 7 5 5 3 5 7 2 2 2 2 2 2 2 2 3 5 5 5 2 2 2 2 4 4 4 5 5 5 5 5 2 2 2 2 2 2 2 2 7 5 5 5 2 2 2 2 2 2 2 2 5 5 5 7 7 7 5 5 2 2 4 3 5 5 7 5 4 2 2 2 2 2 4 3 5 5 5 5 3 3 5 5 2 2 4 5 7 7 7 7 5 2 2 2 2 2 2 4 7 7 7 7 5 2 2 2 2 4 3 5 5 5 3 5 4 4 2 2 2 2 4 5 7 7 7 7 3 2 2 2 7 5 5 5 3 3 5 7 4 7 2 2 2 2 4 7 7 7 7 7 3 2 2 2 2 4 2 3 5 5 5 7 7 5 5 5 5 7 7 7 7 7 7 5 7 7 7 7 7 7 7 7 7 7 7 7 5 5 5 5 7 7 7 7 7 7 7 7 7 7 7 7 7 7 7 7 7 7 7 5 5 3 7 7 ",
"5 5 5 3 5 5 5 5 7 5 5 5 5 5 5 5 5 7 7 7 5 5 5 7 5 3 3 5 7 5 5 5 5 3 5 5 5 5 5 5 5 5 3 5 5 3 5 5 3 3 5 3 3 5 5 5 5 5 7 7 2 2 3 5 5 3 3 3 5 5 5 3 2 2 5 5 5 5 7 7 7 7 7 7 5 2 2 3 5 5 5 5 7 7 7 7 2 2 5 5 7 7 7 5 7 7 7 5 5 5 5 5 5 5 3 3 3 3 5 5 2 2 7 7 7 7 5 5 5 5 5 5 2 4 5 7 7 5 5 7 7 7 7 5 2 4 7 5 5 5 7 5 5 5 5 5 2 2 4 5 5 3 3 3 5 5 5 5 4 5 7 7 7 7 7 5 5 5 5 7 2 2 4 5 7 7 7 7 7 7 7 7 2 2 5 7 5 5 5 5 7 7 7 7 4 2 5 5 5 5 5 7 7 5 5 6 7 5 5 5 5 5 7 7 7 7 7 7 2 2 5 7 7 7 7 7 7 5 5 5 4 7 7 7 5 7 7 7 7 5 5 5 5 7 7 7 7 7 3 5 7 7 7 7 5 7 5 5 5 5 7 7 5 5 5 5 7 7 7 5 5 7 7 7 7 7 7 7 7 7 7 7 7 7 7 5 5 3 7 7 ",
"7 7 7 7 7 7 7 7 7 7 5 5 7 7 7 5 5 5 5 7 7 7 7 7 7 7 7 7 7 7 7 7 5 5 5 5 5 5 5 5 5 5 5 5 5 5 5 5 5 7 7 5 5 5 7 7 7 7 7 7 4 4 7 7 5 5 5 5 7 7 7 5 2 4 7 7 7 7 7 7 7 7 7 7 4 2 5 5 5 7 5 7 7 7 7 7 4 4 7 7 7 7 7 7 7 7 7 7 5 5 5 5 7 5 5 3 5 7 7 7 2 2 7 7 5 7 3 5 7 7 5 5 5 4 7 5 5 5 5 7 7 7 7 5 2 4 7 7 7 7 7 7 7 5 7 7 4 4 7 7 7 5 5 5 7 7 7 7 4 4 7 7 7 7 5 5 5 7 7 7 5 4 7 7 7 7 7 7 7 7 7 7 2 4 7 7 7 7 7 7 7 7 7 7 4 5 7 7 5 5 5 7 7 5 3 3 5 5 5 5 5 5 5 7 7 7 7 7 4 4 7 7 7 7 7 5 5 5 5 7 5 7 7 7 7 7 5 5 7 7 7 7 7 7 7 7 5 7 7 5 7 7 7 7 7 7 7 7 7 7 7 7 5 5 5 5 7 7 7 7 7 7 7 7 7 7 7 7 7 7 7 7 7 7 7 7 7 5 7 7 ",
"7 7 7 7 7 7 7 7 7 7 7 5 7 7 7 7 5 5 5 7 7 7 7 7 7 7 7 7 5 5 5 5 5 5 5 5 5 7 7 7 7 5 5 5 7 7 7 7 7 7 7 7 5 5 5 7 7 7 7 7 7 7 7 7 7 7 7 7 7 7 7 7 6 7 7 7 7 7 7 7 7 7 5 5 7 7 7 7 7 7 7 7 7 7 7 7 4 7 7 7 7 7 7 5 5 7 7 7 5 5 5 7 7 7 5 5 7 7 7 7 5 7 7 7 5 3 3 7 7 7 7 5 7 7 7 7 7 7 7 7 7 7 7 7 6 7 7 7 7 7 7 7 7 7 7 7 7 7 7 7 7 7 7 7 7 7 7 7 4 7 7 7 7 7 7 7 7 7 7 7 7 7 7 7 7 7 7 7 7 7 7 7 4 7 7 7 7 7 7 7 7 7 7 7 7 7 7 7 7 7 7 7 7 7 5 5 4 7 7 7 7 7 7 7 7 7 7 7 7 7 7 7 5 7 7 7 7 7 7 7 7 7 7 7 7 7 7 7 7 7 7 7 7 7 7 7 7 7 7 5 7 7 7 7 7 7 7 7 7 7 7 7 7 5 5 5 7 7 7 7 7 7 7 7 7 7 7 7 7 7 7 7 7 7 7 7 7 7 7 5 ",
"5 5 5 7 7 7 7 7 7 7 7 5 7 7 7 7 5 5 5 7 7 7 7 7 7 7 7 7 3 5 5 5 5 5 5 7 7 7 7 7 7 5 5 5 5 5 5 7 5 5 5 5 7 5 5 5 5 7 7 7 7 7 7 7 7 7 7 7 7 7 7 7 7 7 7 7 7 7 7 7 5 5 3 5 5 5 5 7 7 7 7 7 7 7 7 7 5 5 5 5 7 7 7 7 5 5 5 5 3 5 7 7 7 7 5 5 5 7 7 7 5 7 7 7 3 3 5 5 5 5 5 7 7 7 7 7 7 7 7 7 7 7 7 5 5 7 7 7 7 7 7 7 7 7 7 7 7 7 7 7 7 7 7 7 7 7 7 7 7 7 7 7 7 7 7 7 7 7 7 7 7 7 7 7 7 7 7 7 7 7 5 7 5 5 5 7 7 7 7 7 7 7 7 7 7 7 7 7 7 7 5 7 7 5 5 3 5 7 7 7 7 7 7 7 7 7 7 7 7 7 7 7 3 7 7 7 7 7 7 7 7 7 7 7 7 7 7 7 7 7 7 7 7 5 5 7 5 7 7 7 5 7 7 7 7 7 7 7 7 7 7 7 7 7 5 5 7 7 7 7 7 7 7 7 7 7 7 7 7 7 7 7 7 7 7 7 7 7 7 5 ",
"7 7 5 7 7 7 7 7 7 7 7 7 7 7 5 5 5 7 7 7 7 5 5 5 5 5 7 7 5 5 5 7 7 5 5 7 7 7 5 5 5 5 7 7 7 5 5 7 5 5 5 5 5 5 5 5 5 5 7 7 7 7 7 7 7 7 7 7 7 7 7 7 7 5 5 7 7 7 7 7 7 5 3 5 5 5 5 7 7 7 7 7 7 7 7 7 7 5 5 5 7 7 7 7 5 5 7 7 5 5 5 5 5 5 5 5 5 5 5 5 7 7 5 5 5 5 5 5 5 7 7 7 7 7 7 7 7 7 5 5 7 7 7 5 5 5 5 5 5 7 7 7 7 7 7 5 5 5 7 7 7 7 7 7 7 7 7 7 7 7 7 5 7 7 7 7 7 7 7 7 7 7 7 7 7 7 7 5 5 5 5 5 5 7 7 7 7 7 7 7 7 7 5 5 7 7 7 7 7 5 5 7 5 5 7 5 5 7 7 7 7 7 7 7 7 7 7 7 7 7 7 7 5 7 7 7 7 7 7 7 7 7 7 7 7 7 7 7 7 7 7 7 7 5 5 7 7 7 7 7 7 7 7 7 7 7 7 7 7 7 7 7 7 5 5 5 7 7 7 5 7 7 7 7 7 7 7 7 7 7 7 7 7 7 7 7 7 7 7 5 ",
"7 5 5 5 5 7 7 5 5 7 7 5 5 5 5 5 5 5 5 5 5 5 5 5 5 5 7 7 5 5 5 7 7 5 5 7 7 5 5 5 5 5 5 5 5 5 5 7 7 5 5 5 5 5 5 5 5 5 5 5 5 5 5 7 7 5 5 5 5 7 7 7 5 5 5 5 5 5 5 3 7 7 5 5 5 7 5 5 5 5 7 5 5 5 7 7 7 7 5 5 5 5 5 5 5 5 5 5 5 5 5 5 5 5 5 5 5 5 5 7 7 7 5 5 5 3 5 5 5 7 5 5 5 5 5 5 5 5 3 5 5 5 5 5 5 5 5 7 5 7 7 7 7 5 5 5 5 5 5 7 7 7 7 7 7 5 5 5 5 5 5 5 7 7 7 7 5 5 5 5 5 5 5 7 5 5 5 5 5 5 5 5 5 5 7 7 7 7 7 7 7 5 5 5 7 7 7 5 3 3 5 5 5 5 5 5 5 7 7 7 7 7 7 7 7 5 7 7 7 7 7 7 7 7 7 7 7 7 5 7 7 5 5 5 5 7 7 7 5 5 7 7 7 5 5 5 7 7 7 7 7 7 7 7 7 7 7 7 7 7 7 7 5 5 3 5 7 7 7 7 7 7 7 7 7 7 7 7 7 7 7 7 7 7 7 7 7 7 7 7 ",
"7 7 5 5 5 7 7 7 7 7 5 5 5 7 7 7 5 5 5 5 5 5 5 5 5 7 7 7 7 7 7 7 7 5 7 7 7 7 5 7 7 7 7 5 5 7 5 7 7 7 7 7 7 7 7 7 7 7 7 7 7 7 7 7 7 7 7 7 7 7 7 7 7 5 5 7 7 5 7 7 7 7 7 7 7 7 7 7 7 7 7 7 7 7 7 7 7 7 7 7 5 7 7 7 7 5 5 5 7 7 5 7 7 7 7 7 7 5 7 7 7 7 5 5 7 5 5 5 5 7 7 5 7 7 7 7 7 5 5 7 7 7 7 5 7 7 7 7 7 7 7 7 7 7 7 7 7 7 7 7 7 7 7 7 7 7 7 7 7 7 7 7 7 7 7 7 7 5 7 7 5 5 7 7 7 7 7 7 7 7 7 7 7 5 7 7 7 7 7 7 7 7 7 7 7 7 7 7 5 5 5 7 7 7 7 7 7 7 7 7 7 7 7 7 7 7 7 7 7 7 7 7 7 7 7 7 7 7 7 7 7 7 5 5 5 7 7 7 7 7 7 7 7 7 7 7 7 7 7 7 7 7 7 7 7 7 7 7 7 7 7 7 7 7 5 7 7 7 7 7 7 7 7 7 7 7 7 7 7 7 7 7 7 7 7 7 7 7 7 7 ",
"7 7 7 7 7 7 7 7 7 7 7 7 7 7 7 7 7 7 7 7 7 7 7 7 7 7 7 7 7 7 7 7 7 5 7 7 7 7 7 7 7 7 7 7 7 7 7 7 7 7 7 7 7 7 7 7 7 7 7 7 7 7 7 7 7 7 7 7 7 7 7 7 7 7 7 7 7 7 7 7 7 7 7 7 7 7 7 7 7 7 7 7 7 7 7 7 7 7 7 7 7 7 7 7 7 7 7 7 7 7 7 7 7 7 7 7 7 7 7 7 5 5 5 5 7 7 5 7 7 7 7 7 7 7 7 7 7 7 7 7 7 7 7 7 7 7 7 7 7 7 7 7 7 7 7 7 7 7 7 7 7 7 7 7 7 7 7 7 7 7 7 7 7 7 7 7 7 7 7 7 7 7 7 7 7 7 7 7 7 7 7 7 7 7 7 7 7 7 7 7 7 7 7 7 7 7 7 7 7 7 7 7 7 7 7 7 7 7 7 7 7 7 7 7 7 7 7 7 7 7 7 7 7 7 7 7 7 7 7 7 7 7 7 5 7 7 7 7 7 7 7 7 7 7 7 7 7 7 7 7 7 7 7 7 7 7 7 7 7 7 7 7 7 7 7 7 7 7 7 7 7 7 7 7 5 7 7 7 7 7 7 7 7 7 7 7 7 7 7 5 ",
"5 5 5 5 5 5 5 7 7 5 7 5 5 5 5 5 5 5 7 7 7 7 7 7 5 5 5 5 5 5 5 5 5 5 5 7 7 7 7 7 7 7 7 7 7 5 5 5 5 3 5 5 5 7 7 7 7 7 7 7 7 7 7 7 7 7 5 5 5 5 7 7 5 3 5 5 5 5 5 5 5 7 5 5 5 5 5 5 7 5 5 5 7 5 7 7 5 7 7 5 5 5 5 5 5 5 5 3 5 5 5 5 5 5 3 3 3 5 5 5 3 3 3 5 7 5 5 5 5 5 5 5 5 3 3 5 5 5 3 5 3 5 5 5 5 7 7 7 7 7 5 7 7 5 5 7 5 5 5 3 3 5 5 7 7 7 7 7 7 7 7 7 7 7 7 7 7 7 7 7 7 7 7 7 7 7 7 7 7 7 7 7 7 7 7 7 7 7 3 7 7 7 7 7 7 7 7 7 5 7 7 7 7 7 7 7 7 7 7 7 7 7 7 7 7 7 7 7 7 7 7 7 7 7 7 7 7 7 7 7 7 7 5 3 5 7 5 7 5 7 7 7 7 7 5 5 5 5 5 5 7 5 5 5 5 5 7 5 5 7 7 5 7 5 5 5 7 7 7 7 5 7 7 7 7 7 7 7 5 5 5 7 7 7 5 5 5 5 5 7 ",
"5 5 5 5 5 5 7 7 7 5 7 7 7 7 5 5 5 5 5 7 7 7 5 7 5 5 5 5 5 5 5 5 5 5 5 7 7 7 7 7 7 7 7 7 5 5 5 5 3 3 5 7 7 7 7 7 7 7 7 7 7 7 7 7 7 7 7 7 7 5 7 7 5 3 5 5 3 3 5 7 7 7 7 7 7 5 5 5 5 5 5 5 5 5 7 7 7 7 7 7 5 5 5 5 5 5 7 5 5 5 5 5 5 5 5 5 5 5 5 5 5 5 5 5 7 7 5 5 5 5 5 3 3 3 5 5 5 5 5 7 7 7 7 5 7 7 7 7 7 7 7 7 7 5 5 5 5 5 5 5 5 5 7 7 7 7 7 7 7 7 7 7 7 7 5 7 5 5 5 5 5 5 5 7 7 7 7 7 7 7 7 7 7 7 7 7 7 5 5 7 5 5 7 7 7 7 7 7 7 7 7 7 7 7 7 7 7 7 7 5 7 7 7 7 7 7 7 7 7 7 7 7 7 7 7 7 7 7 5 7 5 5 7 5 5 7 7 7 7 7 7 7 7 7 7 7 7 7 5 5 7 7 5 5 7 5 7 7 7 7 7 7 7 7 5 7 7 7 7 5 7 5 7 5 7 7 7 7 7 5 7 7 7 7 7 7 5 5 5 5 ",
"7 5 5 3 3 5 7 5 5 5 7 7 7 7 7 5 5 5 5 7 7 5 5 5 5 5 5 5 3 5 5 5 5 5 5 7 7 7 7 7 7 7 5 5 3 3 3 5 5 5 5 7 5 7 5 5 5 5 5 7 7 7 7 7 5 3 3 3 7 5 7 5 5 3 5 5 5 5 7 7 7 7 7 7 7 5 5 3 3 3 5 5 5 5 7 7 7 7 7 5 5 7 5 5 5 7 7 7 7 5 5 5 5 7 5 5 5 7 7 7 7 5 5 5 7 7 7 7 5 5 3 3 3 3 5 5 5 5 7 7 7 7 7 7 7 7 7 7 7 7 7 7 5 3 3 5 7 7 5 5 5 5 7 7 7 7 7 7 7 7 7 5 7 7 5 7 5 5 5 5 5 5 5 7 7 7 7 7 7 7 7 7 5 7 7 5 3 3 5 5 5 5 7 7 7 7 7 7 7 7 7 7 7 7 5 5 5 5 5 3 7 5 7 7 5 7 7 7 7 7 7 7 7 7 7 5 5 3 3 7 5 7 5 5 7 7 7 7 7 7 7 7 7 7 7 7 7 5 5 5 7 7 7 7 5 5 7 7 7 7 7 7 7 7 7 7 7 7 7 7 5 7 7 7 7 7 7 7 7 7 7 7 7 7 7 7 7 7 7 5 ",
"5 3 3 3 3 5 5 5 5 5 5 5 5 5 5 3 3 3 5 5 5 3 3 3 3 3 5 3 3 3 5 5 3 3 5 5 5 5 5 5 5 5 3 3 3 3 3 3 3 3 3 5 5 5 5 5 3 5 5 5 5 5 5 5 3 3 3 3 3 3 5 5 3 5 3 3 5 5 5 5 7 7 5 5 5 3 3 3 3 3 5 5 5 5 7 5 5 5 5 5 5 7 5 3 5 5 7 7 5 3 5 5 5 3 3 3 5 5 7 5 5 5 3 5 7 5 3 3 3 3 3 3 3 5 3 3 3 5 5 5 7 7 5 5 5 7 7 5 5 3 5 7 5 3 3 5 5 5 5 5 3 5 7 7 7 7 7 7 5 5 3 3 3 5 5 5 5 7 7 7 5 5 7 7 7 7 7 7 7 7 7 7 5 5 5 5 5 3 5 7 7 7 5 5 7 7 7 7 5 3 5 5 5 5 3 3 3 5 5 5 5 7 7 5 5 5 5 5 5 5 5 5 5 5 7 5 3 3 3 7 5 7 5 5 5 5 7 7 5 5 7 7 7 5 5 5 7 5 7 5 5 5 5 5 7 7 7 7 7 7 7 7 7 7 7 5 7 5 5 5 5 7 7 5 7 7 7 7 7 7 7 7 7 7 5 5 5 5 7 5 ",
"5 3 3 3 3 5 5 5 5 3 5 5 5 5 5 3 3 3 5 5 3 3 3 3 3 5 5 3 3 3 3 5 3 3 3 3 3 3 3 3 5 5 3 5 3 3 5 5 5 7 5 5 5 5 7 5 5 3 5 5 5 5 5 5 3 3 3 5 5 5 5 7 7 5 5 5 5 5 3 3 5 5 3 3 5 3 3 3 3 3 3 5 5 5 7 7 7 7 5 5 5 7 3 3 5 5 5 5 5 5 5 5 5 3 3 5 5 5 5 5 3 3 3 3 5 3 3 3 5 5 5 3 3 5 3 5 5 5 7 5 7 5 5 5 5 7 5 5 5 5 5 7 5 5 5 5 5 7 5 5 3 5 7 7 7 7 5 3 3 3 3 3 3 5 5 5 5 7 7 5 5 5 5 7 7 7 5 5 5 5 7 5 5 5 5 7 5 3 5 7 7 5 5 5 5 5 5 5 3 3 3 5 5 5 5 3 5 5 7 7 7 7 7 7 7 5 5 7 7 5 5 5 5 5 5 3 5 5 5 7 7 7 7 7 7 7 7 7 7 5 5 7 7 5 5 5 5 5 5 5 5 5 7 7 7 7 7 7 7 7 7 7 7 7 5 5 7 3 5 7 5 7 5 5 7 7 7 7 5 5 7 7 7 7 5 5 7 7 7 5 ",
"5 5 3 3 3 3 3 3 3 3 5 3 5 3 3 3 3 3 3 3 3 3 3 5 5 3 3 3 3 3 3 3 3 3 3 3 3 3 3 3 5 5 3 3 3 3 5 5 5 5 5 3 5 5 5 5 5 3 3 3 5 5 5 3 5 5 5 5 5 5 5 7 7 5 5 5 5 3 5 3 3 3 3 3 5 3 5 5 5 5 5 5 5 5 7 7 5 5 5 3 5 5 5 5 5 3 5 5 3 5 3 5 5 5 5 5 5 5 5 3 3 3 5 5 5 3 3 5 7 7 5 5 5 3 3 5 5 5 5 5 7 5 3 3 5 7 7 7 5 5 7 7 7 5 5 5 5 5 5 5 3 5 5 5 5 5 3 3 5 5 5 5 3 7 5 5 5 7 7 5 5 5 5 7 7 7 5 5 5 5 5 5 5 5 5 7 5 3 5 5 5 5 5 3 3 5 5 5 3 3 3 5 5 5 5 5 5 5 5 7 7 7 7 7 7 5 5 5 5 5 5 5 5 3 3 5 5 5 5 7 7 7 7 7 7 7 7 7 5 5 5 5 5 5 5 5 5 5 5 5 5 5 7 5 7 7 7 7 7 7 7 5 5 5 5 5 5 3 5 7 7 5 5 5 5 7 7 5 5 5 5 7 7 7 5 5 7 5 5 7 ",
"5 5 5 3 3 3 3 3 3 3 5 5 3 5 3 3 5 3 3 5 5 5 3 5 5 3 5 3 3 5 5 5 5 3 3 3 3 3 5 5 5 5 5 5 5 5 5 5 5 5 5 5 5 5 5 3 3 3 3 5 3 5 5 5 5 5 5 5 5 5 5 5 3 5 5 3 3 5 5 3 5 3 3 5 5 5 5 5 5 5 5 5 5 5 5 5 3 3 3 3 3 7 5 5 5 3 3 5 5 5 3 5 5 5 5 3 5 5 5 3 3 3 3 3 3 3 5 5 5 5 5 5 5 5 5 5 5 5 5 5 3 5 3 3 3 5 7 5 5 5 7 7 7 5 5 5 5 5 5 5 3 3 3 3 3 3 3 5 5 5 7 5 5 5 5 5 3 5 5 5 5 5 5 5 5 5 5 5 7 5 5 5 5 5 5 5 5 5 5 5 3 3 5 3 5 5 3 3 3 3 3 3 5 5 5 5 5 5 5 5 5 5 7 7 5 5 3 5 5 5 5 5 5 5 5 5 5 5 5 5 5 5 5 5 7 5 5 5 5 5 3 7 3 7 5 5 5 5 5 5 5 5 5 5 5 5 5 7 7 7 7 5 3 3 5 5 5 5 5 5 5 5 3 5 5 5 7 3 5 3 5 7 5 5 5 3 5 5 5 7 ",
"7 5 5 5 5 5 7 7 7 7 7 7 7 7 7 7 7 5 7 7 7 7 7 7 7 7 5 7 5 5 7 7 7 5 5 5 7 7 7 7 7 7 7 7 7 7 7 7 7 7 7 7 7 7 7 7 5 5 7 7 7 7 7 7 7 7 7 7 7 7 7 7 7 7 7 7 7 7 7 7 7 7 7 7 7 7 5 7 7 7 7 7 7 7 7 7 7 5 5 7 7 7 7 7 7 7 7 7 5 5 5 7 7 7 5 5 5 5 5 5 5 5 3 5 5 5 5 7 7 7 7 5 7 7 7 7 7 7 7 5 5 5 5 5 5 5 7 7 7 5 7 7 7 7 7 7 7 7 7 7 5 5 5 5 7 5 5 5 7 7 7 7 7 7 7 7 7 7 7 7 7 7 7 7 7 7 7 7 7 7 7 7 5 5 7 7 7 7 5 5 5 7 7 5 7 7 7 5 7 7 7 5 5 5 7 7 7 7 7 7 7 7 7 7 7 7 7 7 7 7 7 7 7 7 7 7 7 7 7 7 7 7 7 7 7 7 7 7 7 7 7 7 7 7 7 7 7 5 7 7 5 7 7 7 7 7 7 7 7 7 7 7 7 7 7 7 7 7 7 7 7 7 7 7 7 7 7 7 7 7 7 7 7 7 7 7 7 7 7 5 ",
"7 7 5 5 5 5 5 5 5 5 7 7 5 5 5 5 7 5 7 7 7 7 7 5 5 5 5 3 5 5 7 5 5 5 5 7 7 7 7 7 7 5 5 5 7 7 7 7 7 7 7 7 7 7 7 5 5 5 7 7 7 7 7 7 5 5 5 5 5 5 7 7 7 7 5 5 7 7 7 7 7 7 7 7 7 5 5 5 5 7 7 5 5 5 5 5 5 5 5 5 5 7 7 7 7 7 7 7 5 5 5 5 7 7 5 5 5 3 3 5 5 5 5 5 5 5 5 7 7 7 7 5 5 7 5 5 5 5 5 3 3 5 5 5 5 5 5 5 5 5 5 7 7 7 7 5 5 5 5 5 3 5 5 7 7 5 5 5 7 7 7 7 7 7 7 7 7 7 7 7 7 7 5 7 7 7 7 7 7 7 7 5 5 5 5 7 7 5 5 5 5 7 5 5 5 5 7 7 7 7 5 5 5 5 5 5 7 7 7 7 7 7 7 7 7 7 5 7 7 7 7 7 7 7 7 7 7 5 5 7 7 7 7 7 7 7 7 7 7 7 7 7 7 5 5 5 5 5 5 5 5 5 7 7 7 7 5 7 7 7 7 7 7 7 7 7 7 5 7 5 5 5 5 5 5 5 7 7 7 7 7 7 7 7 7 7 7 7 7 7 ",
"7 7 7 7 7 5 7 7 5 5 7 7 5 5 7 7 7 7 7 7 7 7 7 7 5 5 5 3 5 5 5 5 5 5 7 7 7 7 7 7 5 5 5 5 7 5 5 7 7 7 7 5 3 3 5 5 5 5 7 7 7 7 7 7 7 5 5 7 5 5 7 7 7 5 5 5 5 5 5 7 7 7 7 7 7 7 7 7 7 7 7 5 5 7 7 5 5 5 7 5 5 7 7 7 7 7 7 7 5 7 5 5 7 7 7 5 7 7 5 5 5 5 5 5 7 7 5 7 7 7 7 5 7 5 5 7 5 5 5 3 5 7 7 7 7 5 5 7 7 7 7 7 7 7 7 5 7 7 7 5 5 7 7 7 7 7 5 7 7 7 7 7 7 7 7 7 7 7 7 7 7 7 7 7 7 7 7 7 7 7 7 7 7 7 7 7 7 7 7 7 7 7 7 7 7 7 7 7 7 7 7 7 7 7 7 7 7 7 7 7 7 7 7 7 7 7 7 7 7 7 7 7 7 7 7 7 7 7 7 7 7 7 7 7 7 7 7 7 7 7 7 7 7 7 7 7 7 7 7 5 5 7 7 7 7 7 7 5 7 7 7 7 7 7 7 7 7 7 7 7 7 7 7 7 7 7 7 7 7 7 7 7 7 7 7 7 7 7 7 7 ",
"7 7 5 3 3 5 5 5 5 3 5 5 5 5 5 7 5 5 5 7 7 5 5 5 5 5 3 3 3 3 3 3 3 3 5 7 5 5 5 5 5 5 5 3 3 3 5 5 7 5 5 5 3 3 5 3 3 5 5 5 7 7 7 7 5 5 3 5 5 3 5 5 3 5 5 5 5 5 5 5 7 7 7 7 7 5 5 5 3 7 5 5 3 3 5 3 3 5 5 5 5 5 7 7 7 7 5 5 5 5 3 3 3 5 5 5 5 5 5 3 5 7 7 5 5 5 3 5 5 5 5 5 5 5 3 5 5 5 5 5 7 7 5 5 5 5 5 7 5 5 5 7 7 5 5 5 5 5 5 3 5 5 7 7 7 5 5 7 7 7 7 7 5 5 7 7 5 7 7 7 5 7 7 7 7 7 7 7 7 7 7 7 7 5 7 7 5 5 5 5 5 5 5 5 7 7 7 7 7 7 7 7 7 7 7 5 5 7 7 5 5 5 3 5 5 7 7 7 7 7 7 7 7 7 7 7 5 5 5 7 3 5 5 5 7 7 5 7 5 7 7 5 7 7 5 7 7 7 7 5 5 5 7 7 5 5 5 5 7 7 7 7 7 7 7 7 7 7 7 7 7 3 5 5 7 7 5 7 7 7 7 7 7 7 7 7 7 7 7 7 ",
"5 5 5 3 3 5 5 5 7 5 5 5 5 5 5 5 5 5 7 7 7 5 5 5 7 5 3 3 3 5 5 5 5 3 5 7 7 7 5 5 5 7 5 5 3 3 5 5 5 3 3 5 5 5 3 5 5 5 7 7 7 7 5 5 3 3 3 3 3 3 5 5 3 3 3 5 7 7 7 7 7 7 7 7 7 5 5 3 3 5 3 5 5 3 3 3 5 5 5 5 5 7 7 5 5 7 7 3 3 3 3 3 3 3 3 3 5 3 5 5 5 7 7 7 7 5 5 5 3 3 3 3 3 3 5 5 5 5 3 5 7 7 5 5 5 5 7 7 7 7 5 3 3 3 3 3 5 5 5 5 5 5 5 7 7 7 7 7 7 7 5 3 3 3 3 3 3 5 5 5 5 5 5 7 7 7 7 7 7 7 5 5 3 3 3 3 3 3 3 3 3 3 3 5 7 7 7 5 5 7 7 7 7 5 3 3 3 3 3 5 5 3 3 5 7 7 7 7 7 7 7 7 5 7 7 5 5 3 3 5 3 3 5 5 5 5 7 7 7 7 7 5 5 5 5 3 3 3 3 3 5 3 3 7 7 5 5 7 5 5 5 5 7 7 7 7 7 7 7 7 3 3 3 3 7 5 5 5 5 7 7 7 7 7 7 7 7 5 7 7 ",
"7 7 5 5 5 3 3 5 5 5 5 5 5 5 5 5 5 5 5 3 5 3 3 3 3 3 3 3 3 5 5 5 5 3 5 3 5 5 3 5 5 5 5 3 3 3 3 5 5 7 5 5 5 3 3 5 5 5 5 5 3 3 5 5 3 3 3 3 3 3 5 5 5 5 5 5 7 5 5 5 7 7 5 5 5 3 3 3 3 3 3 3 3 3 5 5 7 7 7 5 5 5 5 3 5 5 5 3 3 3 5 5 5 5 5 5 5 5 5 5 5 5 5 7 7 5 3 5 3 3 3 3 3 3 5 5 5 5 3 5 5 5 5 5 5 5 5 5 3 3 3 3 3 3 3 5 5 5 5 5 7 7 5 5 5 5 5 5 5 5 3 3 3 3 3 3 3 5 5 5 5 5 5 5 5 5 5 5 5 5 5 5 3 3 3 3 3 3 3 5 5 5 5 5 5 5 5 5 5 5 5 5 5 5 3 3 3 3 3 3 3 3 5 5 5 5 5 5 5 5 5 5 3 3 5 3 3 3 3 5 3 3 5 5 5 5 5 5 5 5 7 5 5 3 5 5 3 3 3 3 3 3 5 5 5 3 5 5 5 5 5 3 5 5 5 3 5 5 3 3 3 3 3 3 3 5 5 5 5 5 5 7 7 7 5 3 3 3 5 5 ",
"7 7 5 5 5 5 5 5 5 5 5 5 5 5 5 5 3 3 5 5 3 3 3 3 3 3 5 5 5 5 5 5 5 5 5 5 5 3 3 3 3 5 3 3 3 3 5 5 5 5 5 5 5 5 5 5 5 5 5 5 3 3 3 5 3 3 3 3 3 5 7 7 5 5 5 7 7 7 5 3 7 7 5 5 7 3 3 5 5 5 5 5 5 3 5 5 5 5 7 5 5 5 3 3 3 5 3 3 3 3 3 5 7 7 7 7 7 7 7 5 5 5 5 5 5 3 3 3 3 5 5 5 5 3 5 5 5 5 5 7 7 7 7 5 5 7 5 5 3 3 3 3 3 5 5 7 5 5 5 5 7 5 5 5 5 5 5 5 5 5 3 5 5 5 5 5 7 7 7 5 5 5 5 7 7 5 5 5 5 5 5 3 3 3 3 3 3 3 5 5 5 5 7 7 7 7 5 5 7 5 5 5 5 3 3 5 5 5 5 5 7 5 5 5 5 5 5 5 5 5 5 3 5 5 3 3 3 3 3 5 5 5 5 5 5 5 5 5 5 5 5 5 5 5 5 5 3 3 3 3 5 5 7 7 5 5 5 5 5 7 5 3 5 5 3 5 5 3 3 5 3 3 5 3 5 5 5 5 5 7 7 7 7 7 7 3 3 5 7 7 ",
"7 7 5 5 5 7 7 5 5 5 5 5 7 7 5 5 3 3 5 5 5 5 5 5 5 5 5 7 5 7 7 7 7 7 7 7 5 5 5 3 5 5 5 5 5 5 5 5 5 5 5 7 5 5 7 7 5 5 5 3 5 5 7 7 7 7 5 5 5 5 7 7 7 5 7 7 7 7 7 7 7 7 5 3 7 7 7 7 7 7 7 5 5 5 5 5 5 5 3 5 5 5 5 3 3 5 5 5 5 5 5 7 7 7 7 7 7 7 7 7 7 5 5 5 5 3 3 5 5 7 7 7 7 7 5 5 7 7 7 7 7 7 7 7 7 7 7 7 7 5 5 5 5 7 7 7 7 5 5 5 5 7 7 7 7 7 5 7 7 7 7 7 7 7 7 7 7 7 7 7 5 7 7 7 7 7 7 7 5 7 7 7 7 7 7 7 7 7 7 7 7 7 7 7 7 7 7 7 7 5 5 5 5 5 5 5 7 7 7 7 7 7 7 7 7 7 7 7 7 5 5 5 5 7 7 7 7 5 5 5 5 5 5 5 5 5 7 7 7 7 7 5 5 5 5 7 5 7 7 7 7 7 7 7 7 7 7 7 7 7 7 5 5 5 7 5 7 5 5 7 7 5 5 7 7 7 7 7 7 7 7 7 7 7 7 5 5 5 7 7 ",
"5 5 5 3 5 5 5 5 5 5 5 5 7 7 7 5 5 5 5 3 5 5 5 5 5 5 7 7 5 5 5 5 5 5 5 5 5 5 5 5 5 5 5 5 7 7 7 5 5 5 5 7 5 5 5 5 5 3 3 5 7 7 7 7 7 7 5 5 5 5 7 7 5 5 5 5 5 5 5 5 5 5 5 7 7 7 7 7 7 7 7 7 7 7 7 7 7 7 7 7 7 7 7 5 7 7 7 7 7 5 5 5 5 7 7 7 7 7 7 7 7 7 5 5 5 5 5 5 5 7 7 7 7 7 7 7 7 7 7 7 7 7 7 3 3 5 7 7 7 5 7 7 7 5 5 7 7 7 7 7 7 7 7 7 7 7 7 7 7 7 7 7 7 7 7 7 7 7 7 7 7 7 7 7 7 7 7 7 7 7 7 7 7 7 7 7 7 7 7 7 7 7 7 7 7 7 7 7 7 3 5 7 7 5 5 5 7 7 7 7 5 7 7 7 7 7 7 7 5 5 7 7 5 7 7 7 7 5 5 5 7 7 7 7 5 7 7 7 7 7 7 7 7 7 7 7 7 7 7 7 7 7 7 7 7 7 7 7 7 7 7 7 7 7 7 7 7 7 7 7 7 7 7 7 7 7 7 7 7 7 7 7 7 7 7 7 7 7 7 7 ",
"7 7 5 5 5 7 7 5 7 7 7 7 7 7 5 7 7 7 5 5 5 5 5 5 5 5 5 5 5 5 5 5 5 5 5 5 5 5 5 5 5 7 7 7 7 7 7 7 7 7 7 7 7 5 5 5 5 7 7 5 7 7 7 7 7 7 7 5 5 5 7 7 7 7 7 7 7 7 7 7 5 5 7 7 7 7 7 7 7 7 7 7 7 7 7 7 7 7 7 5 5 7 7 7 7 7 7 7 5 5 5 7 5 7 7 7 7 7 7 7 5 7 7 7 7 5 5 5 5 5 5 5 5 5 5 7 7 7 5 5 5 5 5 3 3 5 7 7 5 5 5 7 7 7 7 7 7 7 7 7 7 7 7 7 7 7 7 7 7 7 7 7 7 7 7 7 7 7 7 7 7 7 7 7 7 7 7 7 7 7 7 7 7 7 7 7 7 7 7 5 7 7 7 7 7 7 7 7 7 7 7 7 7 7 5 5 7 7 7 5 5 5 7 7 7 7 7 7 5 5 5 5 5 7 7 7 7 5 5 7 7 7 7 7 7 7 7 7 7 5 5 7 7 7 7 7 7 7 7 7 7 7 7 7 7 7 7 7 7 7 7 7 7 7 7 7 7 7 7 7 7 7 7 7 7 7 7 7 7 7 7 7 7 7 7 7 7 7 7 7 ",
"7 7 5 3 5 7 7 7 7 7 7 7 7 7 7 7 7 7 7 5 5 5 5 5 5 5 7 7 5 5 5 5 5 5 7 5 5 5 5 7 5 5 7 7 7 7 7 7 7 7 7 7 7 7 5 7 7 7 7 7 7 7 7 7 7 7 5 5 5 5 7 7 7 7 7 7 7 7 7 7 7 7 7 7 7 7 7 7 7 7 7 7 7 7 7 7 7 7 7 7 7 7 7 7 7 7 7 7 5 5 7 7 7 7 7 5 7 7 7 7 7 7 7 7 7 7 5 5 5 5 7 5 5 5 5 7 7 5 5 5 7 7 5 5 5 5 7 7 5 5 5 7 7 7 7 7 7 7 7 7 7 7 7 7 7 7 7 7 7 7 7 7 7 7 7 7 7 7 7 7 7 7 7 7 7 7 7 7 7 7 7 7 7 7 7 7 7 7 7 7 7 7 7 7 7 7 7 7 7 7 7 7 7 7 7 5 7 7 7 7 5 5 7 7 7 7 7 7 7 5 7 7 7 7 7 7 7 7 7 7 7 7 7 7 5 7 7 7 7 7 7 7 7 7 7 7 7 7 7 7 7 7 7 7 7 7 7 7 7 7 7 7 7 7 7 7 7 7 7 7 7 7 7 7 7 7 7 7 7 7 7 7 7 7 7 7 7 7 7 5 ",
"7 7 5 5 7 7 7 7 7 7 7 7 7 7 7 7 7 7 7 5 5 5 7 7 7 7 7 7 7 5 5 5 5 5 7 5 5 5 7 7 5 5 7 7 7 7 7 7 7 7 7 5 5 7 7 7 7 7 7 7 7 7 7 7 7 7 7 5 5 7 7 7 7 7 7 7 7 7 7 7 7 7 7 7 7 7 7 7 7 7 7 7 7 7 7 7 7 7 7 7 7 7 7 7 7 7 7 7 7 7 7 7 7 7 7 5 5 5 5 7 7 7 7 7 7 7 7 7 5 7 7 7 7 5 7 7 5 5 3 7 7 7 7 7 7 7 7 7 7 7 7 7 7 7 7 7 7 7 5 5 7 7 7 7 7 7 7 7 7 7 7 7 7 7 7 7 7 7 7 7 5 5 5 7 7 7 7 7 7 7 7 7 7 7 7 7 7 7 7 7 7 7 7 7 7 7 7 7 7 7 7 7 7 7 7 7 7 7 7 7 7 7 7 7 7 7 7 7 7 7 7 7 7 7 7 7 7 7 7 7 7 7 7 7 5 5 7 7 7 7 7 7 7 7 7 7 7 7 7 7 5 7 7 7 7 7 5 7 7 7 7 7 7 7 7 7 7 7 7 7 7 7 7 7 7 7 7 7 7 7 7 7 7 7 7 7 7 7 7 5 ",
"5 3 3 3 5 7 7 5 5 5 5 5 7 7 5 7 7 5 5 5 5 7 5 5 5 5 5 7 5 3 3 5 5 5 7 5 5 7 5 7 7 7 7 7 7 5 5 7 7 7 5 5 3 5 5 5 5 7 7 7 7 7 7 7 7 7 7 5 3 5 5 5 5 5 5 7 5 5 7 7 7 7 5 5 5 7 7 7 7 7 7 3 3 5 7 7 7 7 7 7 7 7 7 5 5 7 7 7 7 7 5 7 5 5 5 3 3 7 7 7 7 7 7 7 7 7 7 5 5 7 7 5 5 5 5 5 5 5 5 5 7 7 7 7 7 7 7 7 7 7 7 7 7 7 5 5 5 5 5 5 7 7 7 7 7 7 7 7 7 7 7 7 7 7 7 7 5 7 7 5 5 5 7 7 7 7 7 7 7 7 7 7 7 7 7 7 7 5 5 5 5 7 5 5 5 5 5 5 5 5 7 7 7 7 7 5 5 5 7 5 5 5 5 5 3 7 7 7 7 7 7 7 7 7 7 7 7 7 5 7 7 5 7 5 3 5 5 7 7 7 7 7 7 7 5 7 7 5 5 5 5 3 3 3 5 5 3 5 7 7 7 7 7 7 7 7 7 7 7 7 7 7 5 5 7 7 5 5 5 7 7 7 7 7 7 5 5 3 5 5 ",
"5 5 3 3 5 7 7 7 5 7 5 5 7 7 5 5 7 5 5 5 5 5 3 3 3 5 5 7 5 3 5 5 5 7 7 7 5 5 5 7 7 7 7 7 5 3 5 3 5 5 3 5 5 7 7 5 7 7 7 7 7 7 7 7 7 7 5 3 3 3 7 5 7 5 5 7 5 5 7 7 5 5 7 7 7 7 6 6 3 7 5 5 3 5 7 5 7 7 7 7 7 7 5 5 5 7 7 7 7 5 3 5 5 3 3 3 3 7 7 7 7 7 7 7 7 7 7 7 5 5 5 3 5 3 5 5 5 3 5 7 7 7 7 7 7 7 7 7 7 7 3 3 7 3 3 5 5 5 5 5 7 7 7 7 7 7 7 7 7 7 7 5 5 5 5 5 5 5 5 5 7 5 7 7 7 7 7 7 7 7 7 7 7 3 7 7 5 3 3 5 3 7 5 5 7 5 5 5 7 5 7 7 7 7 5 3 5 5 3 3 5 5 5 5 5 5 5 5 7 7 7 7 5 7 7 7 7 7 3 3 5 5 5 3 3 3 5 7 7 7 7 7 7 7 7 7 7 5 5 3 3 3 3 3 5 5 7 7 7 7 7 7 7 7 7 7 7 7 7 7 5 5 5 5 5 5 5 7 5 7 7 7 7 7 7 7 7 5 7 5 ",
"7 7 3 3 7 7 7 7 7 7 5 5 5 5 5 5 5 5 5 5 3 3 3 3 3 5 3 7 7 7 5 5 7 7 7 5 7 5 7 7 7 5 3 3 3 3 3 3 3 7 7 7 7 7 7 5 5 7 7 7 7 5 7 3 3 3 3 3 3 3 7 7 7 5 7 7 5 5 5 5 5 5 7 7 7 7 3 6 3 5 3 3 3 7 7 7 7 7 7 7 5 7 7 7 5 7 3 6 5 3 3 3 5 5 3 3 5 7 7 7 7 7 7 7 7 7 7 7 5 5 3 3 3 3 7 5 7 7 7 7 7 7 7 7 7 7 7 7 5 3 3 3 6 6 3 7 7 7 7 5 5 7 7 7 7 7 7 5 5 5 7 5 5 7 7 5 5 5 7 7 7 3 7 7 7 5 7 7 7 7 5 5 3 5 7 3 5 3 3 5 7 5 5 7 7 7 5 7 7 7 7 5 7 5 3 3 6 7 3 3 5 5 5 5 5 5 5 5 7 7 7 7 5 7 7 5 5 3 3 3 3 5 5 3 5 5 5 5 5 7 7 7 7 7 5 7 7 3 5 3 3 3 3 3 5 7 7 7 5 5 5 5 5 7 7 7 7 7 5 5 5 5 7 5 7 7 7 7 7 7 7 7 7 7 6 6 7 7 7 5 ",
"7 7 7 3 5 7 7 7 7 7 5 3 5 5 5 3 3 5 5 5 3 3 3 3 5 5 5 7 7 7 5 5 7 7 7 7 5 5 7 5 5 5 5 6 6 3 5 5 5 7 7 7 7 7 7 5 7 7 7 7 7 5 3 3 3 3 3 5 7 7 7 7 7 7 5 5 7 7 7 7 7 5 7 7 7 3 3 5 5 5 5 7 7 7 7 7 7 7 7 7 5 7 7 7 5 5 5 7 5 3 3 5 5 5 5 3 3 7 7 7 6 7 7 7 7 5 5 3 3 3 3 5 5 5 7 7 7 7 7 7 7 7 7 7 7 5 5 5 5 3 3 7 7 5 5 5 7 5 5 5 7 7 7 7 7 7 7 7 5 5 5 5 3 3 3 5 5 3 7 7 7 7 7 7 7 7 7 5 5 5 7 5 3 3 5 3 3 3 5 7 7 7 5 5 7 7 7 7 7 7 7 5 5 7 5 3 3 7 7 5 7 7 5 5 5 5 5 5 5 5 5 5 5 3 3 3 3 3 3 5 3 5 5 5 5 5 5 3 5 7 7 7 7 5 5 5 3 3 3 3 3 3 3 5 7 7 7 7 7 5 5 5 3 7 7 7 7 5 3 3 5 5 7 7 7 7 7 7 7 7 7 7 7 7 6 6 7 7 7 5 ",
"7 7 7 7 7 7 7 5 7 7 7 5 7 7 7 5 7 7 7 5 5 5 5 7 7 5 5 7 7 7 7 7 7 7 7 7 7 5 5 5 7 7 7 7 7 7 7 7 7 7 7 7 7 7 7 7 7 7 7 7 5 5 5 5 5 7 7 7 7 7 7 7 7 7 7 7 7 7 7 7 3 5 7 5 5 5 7 7 7 7 7 7 7 7 7 7 7 7 7 7 7 7 7 7 7 7 7 7 5 5 5 5 5 7 7 5 5 7 7 7 7 7 5 5 5 7 7 3 7 5 5 7 7 5 7 7 7 7 7 7 7 7 7 7 7 5 7 5 3 7 7 7 7 7 7 7 7 7 7 7 7 7 7 7 7 7 7 7 7 7 5 7 7 7 7 7 7 5 7 7 7 7 7 7 7 7 7 5 5 5 7 7 3 5 5 5 7 7 7 7 7 7 5 7 7 7 7 7 5 5 5 5 3 5 5 5 7 7 7 7 7 7 7 7 5 5 5 5 5 5 5 5 5 5 5 5 5 3 3 3 3 7 7 7 7 5 5 5 5 3 7 7 7 5 5 7 7 3 5 5 5 7 7 7 7 7 7 7 7 7 7 7 7 7 5 5 7 7 5 5 5 5 7 7 7 7 7 7 7 7 7 7 7 7 7 7 7 7 7 7 ",
"7 7 7 7 5 7 7 5 7 7 7 5 5 5 5 5 5 5 5 5 5 7 7 7 7 7 7 7 7 7 7 7 7 7 7 7 7 7 5 3 5 5 5 5 5 7 7 7 7 7 7 7 7 7 7 7 7 7 7 5 5 5 5 6 7 5 5 5 3 5 7 7 7 7 7 7 7 7 7 7 7 7 7 7 7 7 7 7 7 5 7 7 7 7 7 7 7 7 7 7 7 5 5 5 7 7 7 7 7 7 7 7 5 7 7 5 5 7 7 7 7 7 5 5 3 3 3 7 7 7 7 7 5 5 7 7 7 7 7 7 7 7 7 7 7 7 7 5 3 3 7 7 7 7 7 7 7 7 7 7 7 7 7 7 7 7 5 7 7 7 7 7 7 7 7 7 7 7 7 7 5 7 7 7 7 7 5 3 3 5 7 7 5 5 7 5 5 5 5 7 7 5 5 5 7 7 7 7 5 7 7 5 5 5 5 5 7 7 7 7 5 5 5 5 5 5 3 3 3 3 5 3 7 5 5 5 3 3 3 3 3 5 5 5 5 5 5 5 5 3 6 7 5 3 3 5 5 5 5 5 5 7 5 7 7 7 7 7 7 7 7 7 7 7 5 7 7 7 7 7 5 7 7 7 7 7 7 7 7 7 7 7 7 7 7 7 7 7 7 7 ",
"7 7 3 5 5 7 7 5 7 6 3 5 5 5 5 5 5 5 5 3 7 7 7 7 5 5 7 5 7 7 7 7 7 7 7 7 7 5 7 3 5 5 5 5 5 7 7 7 7 7 7 7 7 7 3 5 7 7 5 7 7 7 7 5 7 5 5 5 3 3 5 7 7 7 7 7 5 5 7 7 7 7 7 7 7 7 7 7 7 5 5 7 7 7 7 7 7 7 5 7 5 5 7 7 7 7 7 7 7 7 7 7 7 7 5 5 5 5 5 5 5 5 5 5 3 3 7 7 7 7 7 5 5 5 7 7 7 7 7 7 7 7 7 7 7 7 5 5 3 5 7 7 7 7 5 7 7 5 5 5 7 7 7 7 7 7 7 7 7 7 7 7 7 7 7 7 7 7 7 5 5 7 7 7 7 5 5 3 3 5 7 5 5 5 7 7 5 5 5 7 7 5 5 5 5 3 3 3 5 7 7 5 5 7 5 5 5 5 5 5 3 5 5 3 5 5 3 3 3 3 5 5 5 5 5 5 5 5 5 5 5 5 5 5 5 5 5 7 5 3 6 7 7 7 7 7 5 5 5 5 5 5 5 5 7 7 7 7 7 7 7 7 7 7 7 7 7 7 7 7 7 7 7 7 7 7 7 7 7 7 7 7 7 7 7 7 7 7 7 7 ",
"7 7 5 5 5 7 7 7 3 3 3 3 3 3 3 3 5 5 5 5 5 7 7 5 5 5 5 5 5 5 5 7 5 7 7 5 5 5 3 5 5 5 5 5 5 7 7 7 7 7 7 7 5 3 3 3 7 5 7 7 7 7 7 7 5 5 5 7 7 5 7 7 7 7 7 7 5 5 7 7 7 7 7 5 5 7 7 7 7 7 7 7 7 7 7 7 7 5 7 7 7 7 7 7 7 7 5 5 7 7 7 7 5 5 5 3 5 5 5 7 7 7 7 5 5 7 7 7 7 7 7 7 7 7 7 7 7 7 7 7 7 7 7 7 7 7 7 7 5 5 7 7 7 7 7 7 7 7 7 7 7 7 5 7 7 7 7 7 7 7 7 7 7 7 7 7 5 7 5 5 5 5 5 7 7 7 5 7 5 7 7 7 7 7 7 7 7 7 7 5 5 5 5 3 3 3 5 7 7 5 5 5 5 5 5 4 5 5 5 7 7 7 7 7 7 7 7 7 7 7 7 7 7 5 5 7 5 5 5 5 7 7 7 7 5 5 7 7 7 7 7 7 7 7 7 7 7 7 7 7 7 5 7 7 7 7 7 5 7 7 7 7 7 7 7 7 7 7 7 7 7 7 7 7 7 7 7 7 7 7 7 7 7 7 7 5 3 3 7 5 ",
"7 7 5 5 7 7 7 7 7 7 7 7 7 7 7 7 7 5 5 5 7 7 7 7 7 7 7 7 7 5 7 7 7 7 7 7 7 7 7 7 7 7 7 7 7 7 7 7 7 7 7 7 7 5 7 7 7 7 7 7 7 7 7 5 5 5 2 > > > > > > > > > > > > > > > < 5 2 7 7 7 7 7 7 7 7 7 7 5 7 5 7 7 7 7 7 7 5 5 5 5 5 7 5 7 7 7 7 7 7 7 , > > > > > > > > > > > > > > > 2 7 3 3 7 7 7 5 5 > > > > > > > > > > > > > > > > > > > > > > > > > > > > > > > 7 7 5 7 5 5 5 5 2 > > > > > > > > > > > > > > > < 7 7 5 5 5 7 7 7 7 7 7 5 5 5 5 5 2 5 < > > > > > > > > > > > > > > > 2 7 7 7 7 7 7 7 7 7 7 5 3 3 6 7 7 7 7 7 7 7 7 7 7 7 7 7 7 7 7 7 7 7 7 7 7 7 7 7 7 7 7 7 7 7 7 7 7 7 7 7 7 7 7 7 7 7 7 7 7 7 7 7 7 7 7 ",
"7 7 7 7 7 7 7 7 7 7 7 7 7 7 7 7 7 5 5 7 7 7 7 7 7 7 5 5 5 3 7 7 7 7 7 7 7 7 7 7 7 7 7 7 7 7 7 7 7 7 7 5 3 5 5 5 5 5 5 5 5 5 3 3 5 < -                               O > 5 3 5 7 7 7 7 7 7 7 5 3 5 7 7 7 7 7 7 7 5 5 5 7 7 5 3 5 2 3 3 7 7 > O                               - < 7 3 3 3 3 2 > X                                                           X > 2 3 3 3 3 5 2 -                               X > 7 3 3 7 7 7 7 7 7 6 5 3 3 3 3 3 > X                               - 2 7 7 7 5 3 3 3 3 3 3 3 5 7 7 7 7 7 7 7 7 7 7 7 7 7 5 7 7 7 7 5 7 7 7 7 7 7 7 7 7 7 7 7 7 7 7 7 7 7 7 7 7 7 6 6 7 7 7 7 7 7 7 7 7 7 ",
"7 7 7 7 7 7 7 7 7 7 7 7 7 7 7 7 7 7 7 7 7 7 5 5 7 7 5 3 3 3 7 7 7 7 7 7 7 7 7 7 7 7 7 5 7 5 5 3 3 7 5 5 5 7 7 5 5 5 5 5 5 3 3 5 < % - a s s s s s s s s s s s s s s 9 X - 2 5 5 7 5 7 7 5 5 5 5 7 7 7 7 7 7 7 7 7 7 7 7 7 3 3 3 3 3 3 2 > X 9 d s s s s s s s s s s s s s s - % < 7 3 3 2 - X y s s s s s s s s s s s s s s s s s s s s s s s s s s s s s u X - 2 3 3 5 < % & a s s s s s s s s s s s s s s r X > 7 7 7 5 7 7 7 7 7 7 5 3 3 2 - . 9 s s s s s s s s s s s s s s a - % < 7 3 3 3 3 3 3 3 5 5 7 7 7 7 7 7 7 7 5 5 7 7 7 5 3 3 3 5 3 5 7 7 7 7 7 7 7 7 7 7 7 7 7 7 7 5 5 3 7 7 5 7 7 7 7 7 7 7 7 7 7 7 7 5 ",
"7 7 7 5 5 7 7 7 7 7 7 7 5 5 5 5 7 7 7 7 7 5 3 3 7 7 7 7 7 7 7 7 7 7 7 7 7 7 7 7 7 7 5 5 3 3 5 5 5 7 5 7 7 7 7 7 7 7 3 5 3 3 3 7 >   8 0.f.f.f.f.f.f.f.f.f.f.f.f.f.f.C   O 2 7 7 3 3 5 7 7 7 7 7 7 7 7 7 7 7 7 7 5 7 7 5 5 3 3 3 3 3 3 2 O   j f.f.f.f.f.f.f.f.f.f.f.f.f.f.0.8   > 7 3 3 2 O   T f.f.f.f.f.f.f.f.f.f.f.f.f.f.f.f.f.f.f.f.f.f.f.f.f.f.f.f.f.~ . X 2 5 3 5 >   2 3.f.f.f.f.f.f.f.f.f.f.f.f.f.f.G   % 5 2 2 7 7 7 7 7 7 7 7 7 3 2 O   Z f.f.f.f.f.f.f.f.f.f.f.f.f.f.0.8   > 7 3 5 7 3 5 7 7 7 7 7 7 7 7 7 7 7 3 3 3 3 5 3 3 5 5 5 5 5 7 7 7 7 7 7 7 7 7 7 7 5 7 5 5 5 5 5 3 7 7 7 7 7 7 7 7 7 7 7 7 7 7 7 5 ",
"7 7 7 7 7 7 7 7 7 7 7 7 7 7 5 5 7 7 7 5 5 5 5 5 5 5 7 7 7 7 7 7 7 7 7 7 7 7 7 7 7 7 5 5 5 5 7 7 7 7 7 7 7 7 7 7 7 7 7 7 5 3 3 5 >   8 5.f.f.f.f.f.f.f.f.f.f.f.f.f.f.Z   O 2 7 7 3 7 7 7 7 7 7 7 7 7 7 7 7 7 7 7 5 7 7 5 5 5 7 5 5 3 3 2 O   g f.f.f.f.f.f.f.f.f.f.f.f.f.f.0.8   > 5 3 2 2 O   T f.f.f.f.f.f.f.f.f.f.f.f.f.f.f.f.f.f.f.f.f.f.f.f.f.f.f.f.f.! . O 2 2 2 5 >   < >.f.f.f.f.f.f.f.f.f.f.f.f.f.f.S   % 7 3 3 7 5 7 7 7 7 7 7 7 7 2 O   Z f.f.f.f.f.f.f.f.f.f.f.f.f.f.5.8   > 7 3 5 7 7 7 7 7 7 7 7 7 7 7 7 7 7 5 5 5 5 5 3 5 5 7 7 7 7 7 7 7 7 7 5 5 7 7 7 7 7 7 5 7 7 7 7 5 7 7 7 7 7 7 7 7 7 7 7 7 7 7 7 5 ",
"7 7 7 7 7 7 7 7 7 7 7 7 7 7 7 7 7 7 7 7 7 7 7 7 7 7 7 7 7 7 7 7 7 7 7 7 7 7 7 7 5 7 7 7 7 7 7 7 7 7 7 7 7 7 7 7 7 7 7 7 7 3 3 5 >   7 5.f.f.f.f.f.f.f.f.f.f.f.f.f.f.j   O 2 7 7 7 7 7 7 7 7 7 7 7 7 7 7 7 7 5 3 5 5 7 7 7 7 7 7 7 7 7 2 O   g f.f.f.f.f.f.f.f.f.f.f.f.f.f.0.8   > 7 7 5 2 O   T f.f.f.f.f.f.f.f.f.f.f.f.f.f.f.f.f.f.f.f.f.f.f.f.f.f.f.f.f.! . O 2 7 5 7 >   < >.f.f.f.f.f.f.f.f.f.f.f.f.f.f.S   % 2 2 < 2 5 5 7 7 7 7 7 7 7 2 O   j f.f.f.f.f.f.f.f.f.f.f.f.f.f.5.8   > 7 3 7 7 7 7 7 7 7 7 7 7 7 7 7 7 7 7 7 7 5 7 5 5 7 7 7 7 7 7 7 7 7 7 7 7 7 7 7 7 7 7 7 7 7 7 7 7 7 7 7 7 7 7 7 7 7 7 7 7 7 7 7 5 ",
"7 7 7 7 7 7 7 7 7 7 7 7 7 7 7 7 5 7 7 7 7 7 7 7 7 7 7 7 7 7 7 7 7 7 7 7 7 7 7 7 7 7 7 7 7 7 7 7 7 7 7 7 7 7 7 7 7 7 7 7 7 5 3 5 >   7 5.f.f.f.f.f.f.f.f.f.f.f.f.f.f.j   O 2 7 7 7 7 7 7 7 7 7 7 7 7 7 7 7 7 5 5 5 5 7 7 7 7 7 7 7 7 5 2 O   g f.f.f.f.f.f.f.f.f.f.f.f.f.f.0.8   > 7 7 5 2 O   T f.f.f.f.f.f.f.f.f.f.f.f.f.f.f.f.f.f.f.f.f.f.f.f.f.f.f.f.f.Q . X 2 7 7 7 >   2 >.f.f.f.f.f.f.f.f.f.f.f.f.f.f.S     . .   X > 7 7 7 7 7 7 7 7 2 O   j f.f.f.f.f.f.f.f.f.f.f.f.f.f.5.8   > 7 6 7 7 7 7 7 7 7 7 7 7 7 7 7 7 7 7 7 7 7 7 7 7 7 7 7 7 7 7 7 7 7 7 7 7 7 7 5 7 7 7 7 7 7 7 7 7 7 7 7 7 7 7 7 7 7 7 7 7 7 7 5 5 ",
"7 7 7 7 7 7 7 7 7 7 7 7 7 7 7 7 7 7 7 7 7 7 7 7 7 7 7 7 7 7 7 7 7 7 7 7 7 7 7 7 7 7 7 7 7 7 7 7 7 7 7 7 7 7 7 7 7 7 7 7 7 5 5 7 >   7 5.f.f.f.f.f.f.f.f.f.f.f.f.f.f.M   O 2 7 7 7 7 7 7 7 7 7 7 7 7 7 7 7 7 7 7 7 7 7 7 7 7 7 7 7 5 5 2 @   g f.f.f.f.f.f.f.f.f.f.f.f.f.f.0.8   > 7 7 5 2 O   T f.f.f.f.f.f.f.f.f.f.f.f.f.f.f.f.f.f.f.f.f.f.f.f.f.f.f.f.f.! . X 2 7 7 7 >   2 >.f.f.f.f.f.f.f.f.f.f.f.f.f.f.~ i i i i i r O > 7 7 7 7 7 5 5 2 O   j f.f.f.f.f.f.f.f.f.f.f.f.f.f.5.8   > 7 5 7 7 7 7 7 7 7 7 7 7 7 7 7 7 7 7 7 7 7 7 7 7 7 7 7 7 7 7 7 7 7 7 7 7 7 7 7 7 7 7 7 7 7 7 7 7 7 7 7 7 7 7 7 7 7 7 7 7 7 7 5 5 ",
"7 7 7 7 7 7 7 7 7 7 7 7 7 7 7 7 7 7 7 7 7 7 7 7 7 7 7 7 7 7 7 7 7 7 7 7 7 7 7 7 7 7 7 7 7 7 7 7 7 7 7 7 7 7 7 7 7 7 7 7 7 5 5 7 >   7 5.f.f.f.f.f.f.f.f.f.f.f.f.f.f.M   O 2 7 7 7 7 7 7 7 7 7 7 7 7 7 7 7 7 7 7 7 5 5 5 7 7 7 7 7 7 7 2 @   g f.f.f.f.f.f.f.f.f.f.f.f.f.f.0.8   > 7 7 5 2 O   I f.f.f.f.f.f.f.f.f.f.f.f.f.f.f.f.f.f.f.f.f.f.f.f.f.f.f.f.f.! . X 2 5 5 7 >   2 >.f.f.f.f.f.f.f.f.f.f.f.f.f.f.f.p.f.f.f.f._ O O 2 7 7 7 7 7 7 2 O   j f.f.f.f.f.f.f.f.f.f.f.f.f.f.5.8   > 7 4 7 7 7 7 7 7 7 7 5 7 7 7 7 7 7 7 7 7 5 7 7 7 7 7 7 7 7 7 7 7 7 5 7 7 7 7 7 7 7 7 7 7 7 7 7 7 7 7 7 7 7 7 7 7 7 7 7 7 7 7 5 5 ",
"7 7 7 7 7 7 7 7 7 7 7 7 7 7 7 7 7 7 7 7 7 7 7 7 7 7 7 7 7 7 7 5 7 7 7 7 7 7 7 7 7 7 7 7 7 7 7 7 7 5 7 7 7 7 7 7 5 7 5 5 5 5 3 5 >   7 5.f.f.f.f.f.f.f.f.f.f.f.f.f.f.Z   O 2 7 7 5 5 7 7 3 3 3 3 5 5 7 7 2 3 2 2 2 2 5 3 3 2 2 3 7 7 7 2 O   g f.f.f.f.f.f.f.f.f.f.f.f.f.f.0.8   > 7 3 2 2 O   T f.f.f.f.f.f.f.f.f.f.f.f.f.f.f.f.f.f.f.f.f.f.f.f.f.f.f.f.f.~ . X 2 7 3 7 >   2 >.f.f.f.f.f.f.f.f.f.f.f.f.f.f.f.f.f.f.f.f.' X X 2 7 5 5 5 5 5 2 O   M f.f.f.f.f.f.f.f.f.f.f.f.f.f.5.8   > 7 7 7 7 7 5 7 5 7 7 5 5 7 7 5 5 5 5 5 5 7 7 7 7 7 7 7 7 7 7 7 5 7 7 7 7 7 7 7 7 7 7 7 7 7 7 7 7 7 7 7 7 7 7 7 7 7 7 7 7 7 7 7 5 ",
"7 7 7 7 7 7 7 7 7 7 7 7 7 7 7 7 7 7 7 7 7 7 7 7 7 7 7 7 7 7 7 7 7 7 7 7 7 7 7 5 7 7 5 5 7 7 5 5 5 3 5 7 7 7 5 5 5 5 5 5 3 5 3 5 >   8 5.f.f.f.f.f.f.f.f.f.f.f.f.f.f.M   O 2 7 7 2 2 2 5 3 3 3 3 3 3 5 3 2 2 2 2 2 2 5 5 3 3 3 2 7 5 7 2 O   g f.f.f.f.f.f.f.f.f.f.f.f.f.f.0.8   > 5 2 2 2 @   J >.>.>.>.>.>.5.f.f.f.f.f.f.f.f.f.f.f.f.f.f.f.5.>.>.>.>.>.>.L . O 2 3 2 5 >   2 >.f.f.f.f.f.f.f.f.f.f.f.f.f.f.f.f.f.f.f.f.' X X 2 5 5 5 5 5 5 3 O   n f.f.f.f.f.f.f.f.f.f.f.f.f.f.5.8   > 7 7 7 7 7 7 7 5 7 5 5 7 7 7 5 5 5 5 5 7 7 7 7 7 7 7 7 7 7 7 7 7 7 7 7 7 7 7 7 7 7 7 7 7 7 7 7 7 7 7 7 7 7 7 7 7 7 7 7 7 7 7 7 5 ",
"7 7 7 5 5 5 5 7 7 5 7 5 3 3 5 7 7 5 5 5 5 5 5 7 5 3 3 3 5 3 5 7 5 5 5 7 7 7 7 5 5 5 3 3 5 3 3 3 3 3 3 3 5 3 3 5 3 3 5 5 5 5 3 5 >   8 5.f.f.f.f.f.f.f.f.f.f.f.f.f.f.n   O 2 7 7 3 2 2 < % % % % % % % % % % % % % % > 2 5 3 7 7 7 3 3 2 O   g f.f.f.f.f.f.f.f.f.f.f.f.f.f.0.8   > 5 3 2 2 < % > 2 2 < < < < i e.f.f.f.f.f.f.f.f.f.f.f.f.f.u.a < 2 < 2 2 2 > + < 7 3 2 5 >   2 >.f.f.f.f.f.f.f.f.f.f.f.f.f.f.f.f.f.f.f.f.' X . & - - - > 7 7 7 O   j f.f.f.f.f.f.f.f.f.f.f.f.f.f.5.8   > 7 3 5 6 3 7 5 3 3 7 7 7 7 7 5 5 5 7 5 7 7 7 3 3 6 6 7 3 3 5 7 7 7 7 7 5 7 7 7 7 7 7 7 7 7 7 7 5 5 5 5 3 7 7 7 7 7 7 6 3 5 3 7 5 ",
"7 7 7 5 5 5 5 5 5 5 5 5 5 5 5 5 7 5 5 5 7 5 5 5 5 3 3 5 7 7 7 7 5 5 5 7 7 7 5 5 5 5 3 3 3 3 5 3 3 3 3 3 5 3 3 5 3 3 3 5 5 3 3 5 >   8 5.f.f.f.f.f.f.f.f.f.f.f.f.f.f.M   O 2 7 7 7 2 > O - > > > > > > > > > > > > > O - 2 3 3 3 5 3 3 2 O   g f.f.f.f.f.f.f.f.f.f.f.f.f.f.0.8   > 7 7 7 5 7 2 - O O O O X   8 0.f.f.f.f.f.f.f.f.f.f.f.f.f.u.t   . O O O O % 2 7 7 7 5 7 >   2 >.f.f.f.f.f.f.f.f.f.f.f.f.f.f.f.f.f.f.f.f.] - O O O O $ % - 6 2 O   j f.f.f.f.f.f.f.f.f.f.f.f.f.f.5.8   > 7 3 6 3 3 3 3 3 3 5 5 7 7 7 7 7 7 7 7 5 5 3 6 3 3 6 5 5 3 7 7 7 7 7 5 5 5 5 5 5 7 7 5 5 5 5 5 3 5 5 5 5 5 7 7 7 7 7 7 3 7 7 7 7 ",
"7 7 5 5 5 5 5 5 5 5 5 5 5 5 5 5 7 7 5 7 7 7 7 7 3 3 7 7 7 7 7 7 7 5 5 5 7 5 5 3 5 5 3 3 3 3 5 3 3 3 5 5 5 5 3 5 5 5 5 5 5 3 3 5 >   7 5.f.f.f.f.f.f.f.f.f.f.f.f.f.f.n   O 2 7 7 7 2 X % ( -.-.-.-.-.-.-.-.-.-.-.-.+.r   > 7 3 7 7 5 3 2 O   g f.f.f.f.f.f.f.f.f.f.f.f.f.f.0.8   > 7 7 5 3 3 3 2 2 2 3 7 -   8 0.f.f.f.f.f.f.f.f.f.f.f.f.f.u.t   & 5 2 2 2 2 5 5 7 7 5 7 >   2 >.f.f.f.f.f.f.f.f.f.f.f.f.f.f.f.f.f.f.f.f.0. . . . . . .i . - 2 O   j f.f.f.f.f.f.f.f.f.f.f.f.f.f.5.7   > 7 3 5 5 3 3 3 3 3 5 7 7 5 7 7 7 7 7 5 5 3 3 3 3 3 5 7 7 7 7 7 7 7 5 5 5 5 5 5 3 7 5 3 3 6 7 3 3 3 5 5 5 7 7 7 7 7 7 7 3 7 7 7 7 ",
"7 7 5 5 5 5 5 7 7 5 5 5 5 5 7 7 5 5 7 7 5 5 5 5 3 5 7 7 7 7 7 7 7 5 5 5 5 3 5 3 5 5 3 3 3 3 5 5 5 5 5 5 5 5 5 5 5 5 5 5 3 5 3 7 >   7 5.f.f.f.f.f.f.f.f.f.f.f.f.f.f.j   O 2 3 7 7 2 . & o.f.f.f.f.f.f.f.f.f.f.f.f.u.t   ; 7 3 3 7 7 5 2 O   g f.f.f.f.f.f.f.f.f.f.f.f.f.f.0.8   > 7 5 3 2 2 2 2 3 7 7 7 -   8 0.f.f.f.f.f.f.f.f.f.f.f.f.f.t.t   % 7 7 5 5 2 3 3 5 5 3 5 >   2 >.f.f.f.f.f.f.f.f.f.f.f.f.f.f.f.f.f.f.f.f.f.f.f.f.f.f.f.f   % 2 O   j f.f.f.f.f.f.f.f.f.f.f.f.f.f.5.7   > 7 6 7 7 5 5 5 5 5 5 7 7 5 5 7 7 7 7 5 5 7 3 3 5 7 7 7 7 7 7 7 7 7 5 5 5 5 5 5 3 5 5 5 5 7 7 7 7 7 7 7 5 7 7 7 7 7 7 5 5 5 5 5 7 ",
"7 7 7 5 5 5 5 5 5 5 5 5 5 5 5 5 5 3 5 5 5 5 5 5 5 7 7 7 7 7 7 7 7 5 5 7 7 7 7 5 5 5 7 5 5 5 5 5 5 5 5 5 5 5 5 5 5 3 5 5 3 3 2 5 >   7 5.f.f.f.f.f.f.f.f.f.f.f.f.f.f.n   O 2 2 2 7 2 . = o.f.f.f.f.f.f.f.f.f.f.f.f.u.t   - 7 3 3 5 5 5 2 O   g f.f.f.f.f.f.f.f.f.f.f.f.f.f.0.8   > 5 5 3 3 4 2 2 2 3 5 7 -   8 0.f.f.f.f.f.f.f.f.f.f.f.f.f.u.t   % 7 7 7 5 5 5 5 5 5 2 5 >   2 >.f.f.f.f.f.f.f.f.f.f.f.f.f.f.f.f.f.f.f.f.f.f.f.f.f.f.f.s   % 2 O   j f.f.f.f.f.f.f.f.f.f.f.f.f.f.5.7   > 7 7 7 7 5 3 5 5 5 5 5 5 5 3 5 7 7 5 7 7 7 7 7 7 7 7 7 7 7 5 5 5 5 5 5 5 5 5 7 7 7 7 7 7 7 7 7 7 7 7 7 5 5 7 5 5 7 7 3 3 3 3 5 7 ",
"7 7 5 3 3 5 5 5 5 3 5 3 5 5 5 5 3 3 5 5 5 5 5 5 5 5 5 5 5 5 5 5 5 5 5 5 5 5 5 5 5 5 5 5 5 5 5 5 5 5 5 5 5 4 3 4 4 5 4 2 2 2 2 5 >   7 5.f.f.f.f.f.f.f.f.f.f.f.f.f.f.M   O 2 2 2 5 < . % o.f.f.f.f.f.f.f.f.f.f.f.f.u.t   - 7 5 3 7 7 5 2 O   g f.f.f.f.f.f.f.f.f.f.f.f.f.f.0.8   > 7 5 5 5 5 5 2 2 2 4 7 -   8 0.f.f.f.f.f.f.f.f.f.f.f.f.f.t.t   % 7 5 5 5 5 7 7 7 7 2 7 >   2 >.f.f.f.f.f.f.f.f.f.f.f.f.f.f.f.f.f.f.f.f.f.f.f.f.f.f.f.s   % 2 O   j f.f.f.f.f.f.f.f.f.f.f.f.f.f.5.7   > 7 7 7 7 5 5 7 7 5 5 5 7 5 5 5 5 5 5 7 5 5 7 5 5 7 7 5 7 5 5 5 5 5 5 5 5 7 7 7 7 7 7 7 7 7 7 7 7 7 7 5 5 5 5 5 5 3 7 3 3 3 3 5 7 ",
"7 7 5 5 3 3 5 5 5 5 5 5 5 5 5 5 5 5 5 5 5 5 5 5 5 5 5 5 5 5 5 3 3 3 5 5 5 5 5 5 5 5 5 5 5 5 5 5 5 4 5 5 5 5 2 2 2 2 3 2 4 2 2 5 >   8 5.f.f.f.f.f.f.f.f.f.f.f.f.f.f.Z   O 2 2 2 2 < . % O.f.f.f.f.f.f.f.f.f.f.f.f.u.t   - 5 2 2 5 5 5 2 O   g f.f.f.f.f.f.f.f.f.f.f.f.f.f.0.8   > 7 3 5 5 5 2 2 2 4 5 7 -   8 0.f.f.f.f.f.f.f.f.f.f.f.f.f.t.t   % 7 3 5 5 7 5 7 7 7 5 5 >   2 >.f.f.f.f.f.f.f.f.f.f.f.f.f.f.f.f.f.f.f.f.f.f.f.f.f.f.f.s   % 5 O   j f.f.f.f.f.f.f.f.f.f.f.f.f.f.5.8   > 7 5 7 7 5 5 7 7 5 5 5 5 5 5 5 5 5 5 5 5 5 5 5 5 5 5 5 5 5 5 5 5 5 5 5 5 5 7 7 5 5 5 5 5 5 5 5 5 5 7 5 5 5 5 5 5 3 5 5 5 5 3 5 7 ",
"7 7 5 5 3 3 5 5 5 5 5 5 5 5 5 5 5 5 5 5 5 5 5 5 5 5 3 5 5 5 3 3 3 3 3 3 3 5 5 5 5 5 5 5 5 5 5 5 5 5 5 5 5 3 2 2 2 2 2 3 5 5 5 5 >   8 5.f.f.f.f.f.f.f.f.f.f.f.f.f.f.Z   O 2 7 5 2 1 . % O.f.f.f.f.f.f.f.f.f.f.f.f.u.t   - 2 2 2 3 3 3 2 O   g f.f.f.f.f.f.f.f.f.f.f.f.f.f.0.8   > 7 3 3 5 5 5 4 3 5 5 7 -   8 0.f.f.f.f.f.f.f.f.f.f.f.f.f.t.t   % 7 7 5 5 7 5 5 7 7 3 7 >   2 >.f.f.f.f.f.f.f.f.f.f.f.f.f.f.f.f.f.f.f.f.f.f.f.f.f.f.f.s   % 3 O   j f.f.f.f.f.f.f.f.f.f.f.f.f.f.5.8   > 7 5 5 5 5 5 5 5 3 3 3 5 5 5 5 5 5 5 5 3 5 5 5 5 5 5 5 5 5 5 5 5 5 5 5 5 5 5 5 5 5 5 5 5 5 5 5 5 5 5 5 5 5 5 5 5 5 5 5 3 5 5 5 7 ",
"7 5 5 3 3 5 5 5 5 5 7 7 7 5 7 7 5 5 7 7 5 5 5 5 5 5 3 3 7 5 5 5 3 5 5 3 5 5 5 5 5 5 5 5 5 5 5 5 5 7 7 5 5 5 5 3 3 3 2 5 5 5 5 5 >   8 5.f.f.f.f.f.f.f.f.f.f.f.f.f.f.M   % 7 2 - O X   % O.f.f.f.f.f.f.f.f.f.f.f.f.u.t   . X % < 7 6 5 2 O   g f.f.f.f.f.f.f.f.f.f.f.f.f.f.0.8   > 5 3 3 3 5 3 3 5 5 5 7 -   8 0.f.f.f.f.f.f.f.f.f.f.f.f.f.t.t   % 7 7 7 7 7 7 5 7 4 4 5 >   2 >.f.f.f.f.f.f.f.f.f.f.f.f.f.f.f.f.f.f.f.f.f.f.f.f.f.f.f.s     X     j f.f.f.f.f.f.f.f.f.f.f.f.f.f.5.7   > 7 5 3 5 7 7 7 7 5 3 5 5 5 5 5 7 7 7 5 5 7 7 5 5 7 7 5 5 5 5 5 5 7 5 5 5 5 5 7 7 7 7 5 5 7 7 7 7 7 7 5 7 5 5 7 7 7 7 7 7 7 7 7 7 ",
"5 3 3 3 3 5 5 5 3 3 3 3 5 5 5 5 5 5 5 3 3 3 3 5 5 5 3 3 5 5 3 3 3 3 3 3 3 5 5 3 5 5 5 3 3 3 3 3 3 3 2 2 2 2 3 3 3 2 2 5 4 2 2 5 >   8 5.f.f.f.f.f.f.f.f.f.f.f.f.f.f.j   % 2 % % 8 8 8 t +.f.f.f.f.f.f.f.f.f.f.f.f.u.s 8 8 8 > % < 7 3 2 O   g f.f.f.f.f.f.f.f.f.f.f.f.f.f.0.8   > 5 3 3 5 5 3 5 5 5 5 7 -   8 0.f.f.f.f.f.f.f.f.f.f.f.f.f.u.t   % 7 5 3 5 5 5 3 3 5 2 5 >   2 >.f.f.f.f.f.f.f.f.f.f.f.f.f.f.f.f.f.f.f.f.f.f.f.f.f.f.f.H 8 8 8 8 8 J f.f.f.f.f.f.f.f.f.f.f.f.f.f.5.7   > 7 3 3 3 5 5 5 5 5 3 5 5 5 5 3 7 7 7 7 5 5 5 5 5 5 5 5 3 3 3 3 5 5 5 5 5 5 5 5 5 5 5 5 5 7 7 7 7 5 3 5 5 3 5 5 5 5 5 7 5 5 5 7 5 ",
"5 3 3 2 3 5 5 5 5 3 5 3 5 5 5 5 5 5 5 5 5 3 3 3 5 3 3 3 5 5 5 3 3 5 5 3 5 5 3 3 3 3 3 3 3 3 3 3 3 3 2 2 2 2 2 3 5 5 3 3 2 2 2 5 >   7 5.f.f.f.f.f.f.f.f.f.f.f.f.f.f.j   O -   t 5.9.9.0.u.f.f.f.f.f.f.f.f.f.f.f.f.f.e.9.0.0.H   % 2 2 2 O   g f.f.f.f.f.f.f.f.f.f.f.f.f.f.9.8   > 5 2 2 3 3 3 3 5 3 3 5 -   8 0.f.f.f.f.f.f.f.f.f.f.f.f.f.t.t   % 7 7 7 5 5 3 3 3 3 2 5 >   < >.f.f.f.f.f.f.f.f.f.f.f.f.f.f.p.u.u.u.u.u.p.f.f.f.f.f.f.e.9.9.9.9.9.e.f.f.f.f.f.f.f.f.f.f.f.f.f.f.5.8   > 5 3 3 3 3 3 3 7 7 5 5 5 5 5 3 5 5 7 5 5 5 3 3 3 3 5 5 3 3 3 3 5 5 5 5 5 5 5 5 5 5 5 5 5 7 5 5 5 5 3 5 5 3 3 5 5 3 5 5 5 5 5 5 5 ",
"3 3 3 3 2 5 5 5 5 5 5 5 5 3 5 5 5 3 5 5 5 3 3 3 3 3 5 5 3 3 5 3 3 5 5 3 5 5 3 3 3 3 3 3 3 3 3 3 5 3 3 3 3 2 2 2 5 5 3 2 2 2 2 5 >   7 5.f.f.f.f.f.f.f.f.f.f.f.f.f.f.j   O -   u u.f.f.f.f.f.f.f.f.f.f.f.f.f.f.f.f.f.f.f.f.f.K   % 2 2 2 O   g f.f.f.f.f.f.f.f.f.f.f.f.f.f.9.8   > 5 2 2 3 3 3 3 3 5 5 5 -   8 0.f.f.f.f.f.f.f.f.f.f.f.f.f.t.t   % 5 7 7 5 5 3 3 3 3 2 5 >   2 >.f.f.f.f.f.f.f.f.f.f.f.f.f.f.W u u u u u ' f.f.f.f.f.f.f.f.f.f.f.f.f.f.f.f.f.f.f.f.f.f.f.f.f.f.f.5.8   > 5 3 3 3 5 3 3 5 5 5 5 5 5 3 4 3 5 3 5 5 5 3 3 3 3 5 5 5 3 3 5 5 5 5 5 5 5 5 3 3 5 5 5 5 5 5 5 3 5 5 5 5 5 3 3 3 3 3 3 5 5 5 5 5 ",
"5 3 3 2 2 2 3 5 5 5 5 3 3 3 3 3 3 3 5 5 3 3 3 3 3 3 5 3 3 3 3 3 3 3 3 3 5 5 3 3 3 3 3 3 3 3 3 3 5 5 5 3 3 3 3 3 5 3 2 2 2 2 2 5 >   7 5.f.f.f.f.f.f.f.f.f.f.f.f.f.f.n   O -   u u.f.f.f.f.f.f.f.f.f.f.f.f.f.f.f.f.f.f.f.f.f.J   % 2 5 2 O   g f.f.f.f.f.f.f.f.f.f.f.f.f.f.0.8   > 7 3 3 3 3 2 2 2 3 3 5 -   8 0.f.f.f.f.f.f.f.f.f.f.f.f.f.t.t   % 7 5 5 5 5 5 5 5 3 2 5 >   2 >.f.f.f.f.f.f.f.f.f.f.f.f.f.f.F     .     L f.f.f.f.f.f.f.f.f.f.f.f.f.f.f.f.f.f.f.f.f.f.f.f.f.f.f.5.8   > 5 3 3 5 5 3 5 5 5 5 5 5 5 2 2 2 3 3 5 3 3 3 5 3 3 5 5 5 5 5 5 5 5 3 3 5 5 5 3 3 3 3 3 3 3 3 3 3 5 3 5 5 5 3 3 3 3 3 3 3 3 5 5 5 ",
"5 5 5 3 2 2 3 5 5 5 5 3 2 3 5 5 5 5 3 5 5 5 5 5 5 5 5 5 5 5 5 5 5 5 3 3 3 3 3 3 3 3 3 5 5 5 3 5 5 5 5 5 5 5 5 5 3 2 2 2 2 2 2 5 >   7 5.f.f.f.f.f.f.f.f.f.f.f.f.f.f.Z   O -   u u.f.f.f.f.f.f.f.f.f.f.f.f.f.f.f.f.f.f.f.f.f.J   % 2 5 2 O   g f.f.f.f.f.f.f.f.f.f.f.f.f.f.0.8   > 7 3 3 3 3 3 2 2 3 3 5 -   8 0.f.f.f.f.f.f.f.f.f.f.f.f.f.t.t   % 5 5 5 5 5 5 5 5 5 3 5 >   < >.f.f.f.f.f.f.f.f.f.f.f.f.f.f.F   % 2 O   L f.f.f.f.f.f.f.f.f.f.f.f.f.f.f.f.f.f.f.f.f.f.f.f.f.f.f.5.8   > 5 5 5 5 3 3 5 5 5 5 5 5 5 2 2 4 2 3 3 3 5 3 5 5 5 5 5 5 5 5 5 5 5 5 5 5 5 5 5 3 3 3 3 3 3 3 5 5 5 5 5 5 5 5 5 5 3 3 3 5 5 3 5 7 ",
"5 5 3 3 3 3 3 5 5 5 5 3 3 3 3 3 5 3 3 5 5 5 5 5 5 5 5 5 5 5 5 5 5 5 5 3 3 3 3 3 3 3 5 5 3 5 5 5 5 5 5 5 5 5 3 3 2 2 2 2 2 2 2 5 >   7 5.f.f.f.f.f.f.f.f.f.f.f.f.f.f.M   O -   u u.f.f.f.f.f.f.f.f.f.f.f.f.f.f.f.f.f.f.f.f.f.J   % 2 3 2 O   g f.f.f.f.f.f.f.f.f.f.f.f.f.f.0.8   > 5 5 5 3 5 3 3 2 3 5 7 -   8 0.f.f.f.f.f.f.f.f.f.f.f.f.f.u.t   % 5 5 5 5 5 5 5 5 5 5 7 >   < >.f.f.f.f.f.f.f.f.f.f.f.f.f.f.F   % 2 @   L f.f.f.f.f.f.f.f.f.f.f.f.f.f.f.f.f.f.f.f.f.f.f.f.f.f.f.5.7   > 5 5 5 5 5 5 5 5 5 5 5 5 5 3 3 3 3 5 3 5 5 5 5 5 5 5 5 5 5 5 5 5 5 5 5 5 5 5 5 5 5 3 3 5 5 5 5 5 5 5 5 5 5 5 5 5 5 5 3 3 3 3 5 7 ",
"5 5 5 3 3 3 5 5 5 5 5 3 3 3 5 5 5 5 5 5 5 5 5 5 5 3 5 5 5 5 3 5 5 5 5 3 3 3 5 5 5 5 5 5 5 5 5 5 5 5 5 5 5 5 3 2 2 2 2 2 2 2 2 5 >   8 5.f.f.f.f.f.f.f.f.f.f.f.f.f.f.Z   O -   u u.f.f.f.f.f.f.f.f.f.f.f.f.f.f.f.f.f.f.f.f.f.J   % 2 5 2 O   g f.f.f.f.f.f.f.f.f.f.f.f.f.f.0.8   > 5 5 3 3 5 3 3 3 3 5 7 -   8 0.f.f.f.f.f.f.f.f.f.f.f.f.f.u.t   % 5 5 5 5 5 5 5 5 5 5 7 >   < >.f.f.f.f.f.f.f.f.f.f.f.f.f.f.F   % 2 %   L f.f.f.f.f.f.f.f.f.f.f.f.f.f.f.f.f.f.f.f.f.f.f.f.f.f.f.5.8   > 5 3 5 5 5 5 5 5 5 5 5 5 5 5 5 3 5 5 5 5 5 5 5 5 5 5 5 5 5 5 5 5 5 5 5 5 5 5 5 5 5 5 5 5 5 5 5 5 5 5 3 3 5 5 5 5 5 5 5 3 3 5 5 7 ",
"5 5 5 5 3 3 5 5 5 5 5 5 3 5 5 5 5 5 5 5 3 5 5 5 5 5 3 3 5 5 3 3 5 5 5 3 3 3 5 5 5 5 5 5 3 3 3 3 3 2 2 2 2 2 2 2 3 3 3 3 3 3 3 7 >   8 5.f.f.f.f.f.f.f.f.f.f.f.f.f.f.j         u u.f.f.f.f.f.f.f.f.f.f.f.f.f.f.f.f.f.f.f.f.f.J   % 2 7 2 O   g f.f.f.f.f.f.f.f.f.f.f.f.f.f.0.8   > 5 3 3 3 5 3 5 3 3 5 7 -   8 0.f.f.f.f.f.f.f.f.f.f.f.f.f.u.t   % 5 5 5 5 5 5 5 5 5 5 7 >   2 >.f.f.f.f.f.f.f.f.f.f.f.f.f.f.F   % 2 %   L f.f.f.f.f.f.f.f.f.f.f.f.f.f.f.f.f.f.f.f.f.f.f.f.f.f.f.5.7   > 5 5 5 5 5 5 5 5 5 5 5 5 5 5 5 5 5 5 5 5 5 5 5 5 5 5 5 3 3 5 5 3 5 5 5 5 5 5 5 5 5 5 5 5 5 5 5 5 5 5 5 5 5 5 5 5 3 5 5 5 5 5 5 5 ",
"7 5 5 5 5 5 5 5 5 5 5 5 5 5 5 5 5 5 5 5 5 5 5 5 5 5 5 5 5 5 5 5 5 5 5 5 5 5 5 5 5 5 5 5 5 5 5 5 3 3 2 2 2 2 2 3 3 5 3 5 5 5 5 7 >   8 5.f.f.f.f.f.f.f.f.f.f.f.f.f.f.L t t t t A p.f.f.f.f.f.f.f.f.f.f.f.f.f.f.f.f.f.f.f.f.f.J   % 5 7 2 O   g f.f.f.f.f.f.f.f.f.f.f.f.f.f.0.8   > 5 2 2 2 4 3 4 4 4 5 5 -   8 0.f.f.f.f.f.f.f.f.f.f.f.f.f.u.t   % 5 5 5 5 5 3 5 5 2 5 5 >   < >.f.f.f.f.f.f.f.f.f.f.f.f.f.f.F   % 2 %   L f.f.f.f.f.f.f.f.f.f.f.f.f.f.f.f.f.f.f.f.f.f.f.f.f.f.f.5.8   > 5 5 5 5 5 5 5 5 5 5 5 5 5 5 5 5 5 5 5 5 5 5 7 5 5 5 5 5 5 5 5 5 5 5 5 5 5 5 5 5 5 5 5 5 5 5 5 5 5 5 5 5 5 5 7 5 5 5 5 5 5 5 5 7 ",
"5 5 5 5 5 5 5 5 5 5 5 5 5 5 5 5 5 5 5 5 5 5 5 5 5 5 5 5 5 5 5 5 5 5 5 5 5 5 5 5 5 5 5 5 5 5 5 5 3 3 3 3 3 3 5 5 5 3 3 5 5 3 3 5 >   7 5.f.f.f.f.f.f.f.f.f.f.f.f.f.f.u.u.u.u.u.u.f.f.f.f.f.f.f.f.f.f.f.f.f.f.f.f.f.f.f.f.f.f.J   X - - - X   g f.f.f.f.f.f.f.f.f.f.f.f.f.f.0.8   > 5 2 2 3 2 3 2 5 5 5 5 -   8 0.f.f.f.f.f.f.f.f.f.f.f.f.f.u.t   % 5 5 5 5 3 5 3 3 3 2 5 >   < >.f.f.f.f.f.f.f.f.f.f.f.f.f.f.F   % 7 - . Z .. . . . ... ...3.f.f.f.f.f.f.f.f.f.f.f.f.f.f.f.f.f.f.5.8   > 5 5 5 5 5 5 7 3 3 3 5 5 5 5 5 5 5 5 5 5 5 7 7 7 5 5 5 5 5 5 3 5 5 5 5 5 5 5 5 5 5 5 5 5 5 5 5 5 5 5 5 5 5 5 7 7 7 7 5 5 5 5 5 5 ",
"5 5 5 5 5 5 5 5 5 5 5 5 5 5 5 5 5 5 5 5 5 5 5 5 5 5 5 5 3 3 5 5 5 5 5 5 5 5 5 5 5 5 5 5 3 3 3 3 3 5 3 5 5 5 5 5 5 5 5 5 5 5 3 5 >   7 5.f.f.f.f.f.f.f.f.f.f.f.f.f.f.f.f.f.f.f.f.f.f.f.f.f.f.f.f.f.f.f.f.f.f.f.f.f.f.f.f.f.f.K   . . . .     g f.f.f.f.f.f.f.f.f.f.f.f.f.f.0.8   > 5 3 2 3 3 3 5 5 5 5 5 -   8 0.f.f.f.f.f.f.f.f.f.f.f.f.f.u.t   % 5 5 5 5 5 5 5 5 5 3 5 >   < >.f.f.f.f.f.f.f.f.f.f.f.f.f.f.F   % 7 2 - O % @ @ % % % % % E f.f.f.f.f.f.f.f.f.f.f.f.f.f.f.f.f.f.5.8   > 5 5 5 5 5 5 5 3 5 5 5 5 5 5 5 5 5 5 5 5 5 5 5 5 5 5 5 5 5 5 5 3 5 5 5 5 5 5 5 5 5 5 5 5 5 5 5 5 5 5 5 5 7 7 7 7 7 7 7 5 5 5 5 7 ",
"5 5 5 5 5 5 5 5 5 5 5 5 5 5 5 5 5 5 5 5 5 5 5 5 5 5 5 5 5 5 5 5 5 5 5 5 5 5 5 5 5 3 5 5 3 3 5 3 5 5 5 5 5 5 5 5 5 5 5 5 5 3 3 5 >   7 5.f.f.f.f.f.f.f.f.f.f.f.f.f.f.f.f.f.f.f.f.f.f.f.f.f.f.o.p i i i i i j e.f.f.f.f.f.f.f.+.T T T T T T I X.f.f.f.f.f.f.f.f.f.f.f.f.f.f.0.8   > 5 3 3 3 3 3 3 5 5 5 5 -   8 0.f.f.f.f.f.f.f.f.f.f.f.f.f.u.t   % 5 5 5 5 5 5 5 5 5 3 5 >   < >.f.f.f.f.f.f.f.f.f.f.f.f.f.f.F   % 7 5 2 > % % * - - - X   P f.f.f.f.f.f.f.f.f.f.f.f.f.f.f.f.f.f.5.8   > 5 5 5 5 5 5 3 5 5 5 5 5 5 5 5 5 5 5 5 5 5 3 5 3 3 5 3 5 5 5 5 5 5 5 5 5 5 5 5 5 5 5 5 5 5 5 5 5 5 5 5 5 5 5 5 5 5 7 5 5 5 5 5 7 ",
"3 3 5 5 5 5 5 5 5 5 5 5 5 5 5 3 5 3 3 5 3 5 5 5 5 5 5 5 5 5 5 5 5 5 5 5 5 5 5 3 3 5 5 5 5 5 5 5 5 5 5 5 5 5 5 5 5 5 5 3 3 3 3 5 >   7 5.f.f.f.f.f.f.f.f.f.f.f.f.f.f.f.f.f.f.f.f.f.f.f.f.f.f.' X   . . .   7 5.f.f.f.f.f.f.f.f.f.f.f.f.f.f.f.f.f.f.f.f.f.f.f.f.f.f.f.f.f.f.0.8   > 5 3 3 3 3 5 3 5 5 5 5 -   8 0.f.f.f.f.f.f.f.f.f.f.f.f.f.u.t   * 7 5 5 5 5 5 5 5 5 3 5 >   < >.f.f.f.f.f.f.f.f.f.f.f.f.f.f.F   % 3 3 3 5 5 5 5 5 5 5 O   L f.f.f.f.f.f.f.f.f.f.f.f.f.f.f.f.f.f.5.8   > 5 3 3 5 5 3 5 5 5 5 5 5 5 5 3 5 5 3 3 5 3 3 3 3 5 5 5 5 5 5 5 5 5 5 5 5 5 5 5 5 3 3 3 5 5 5 5 5 5 5 5 5 5 5 5 5 5 5 5 5 5 5 5 5 ",
"5 5 5 5 5 5 5 5 5 5 5 5 5 5 5 5 5 5 5 5 5 5 5 5 5 5 5 5 5 5 5 5 5 5 5 5 5 3 5 5 5 5 5 5 5 5 5 5 5 5 5 5 5 5 5 5 5 5 3 3 3 3 2 5 >   8 5.f.f.f.f.f.f.f.f.f.f.f.f.f.f.f.f.f.f.f.f.f.f.f.f.f.f.[ O X < 2 >   7 5.f.f.f.f.f.f.f.f.f.f.f.f.f.f.f.f.f.f.f.f.f.f.f.f.f.f.f.f.f.f.9.8   > 5 5 5 5 5 5 3 5 3 3 5 -   8 0.f.f.f.f.f.f.f.f.f.f.f.f.f.t.t   % 5 5 3 5 5 5 5 5 5 3 5 >   < >.f.f.f.f.f.f.f.f.f.f.f.f.f.f.F   % 3 5 5 5 5 5 5 5 5 2 O   L f.f.f.f.f.f.f.f.f.f.f.f.f.f.f.f.f.f.5.7   > 5 5 5 5 5 5 5 5 5 5 5 5 5 5 5 5 5 5 3 5 5 5 5 5 5 5 5 5 5 5 5 5 5 5 5 5 5 5 5 5 5 5 5 5 5 5 5 5 5 5 5 5 5 5 5 5 5 7 5 5 5 5 5 7 ",
"5 5 5 5 5 5 5 5 5 5 5 5 5 5 5 5 5 5 5 3 5 5 5 5 5 5 5 5 5 5 5 5 5 5 5 5 3 3 3 5 5 5 5 5 5 5 5 5 5 5 5 5 5 5 5 5 3 5 3 3 2 2 3 5 >   8 5.f.f.f.f.f.f.f.f.f.f.f.f.f.f.f.f.f.f.f.f.f.f.f.f.f.f.] O X 2 7 >   7 5.f.f.f.f.f.f.f.f.f.f.f.f.f.f.f.f.f.f.f.f.f.f.f.f.f.f.f.f.f.f.0.8   > 5 5 5 5 5 3 5 3 3 3 5 -   8 0.f.f.f.f.f.f.f.f.f.f.f.f.f.t.t   % 5 5 5 5 5 5 5 5 5 4 5 >   < >.f.f.f.f.f.f.f.f.f.f.f.f.f.f.F   % 5 5 5 5 5 5 5 5 5 2 O   L f.f.f.f.f.f.f.f.f.f.f.f.f.f.f.f.f.f.5.8   > 5 5 5 5 5 5 5 5 5 5 5 5 5 5 5 5 5 5 5 5 5 5 5 5 5 5 5 5 5 5 5 5 5 5 5 5 5 5 5 5 5 5 5 5 5 5 5 5 5 5 5 5 5 5 5 5 5 5 5 5 5 5 5 5 ",
"5 5 5 5 5 5 5 5 5 5 5 5 5 5 5 5 5 5 5 5 5 5 5 5 5 5 5 5 5 5 5 5 5 5 5 5 5 5 5 5 5 5 5 5 5 5 5 5 5 5 5 5 5 5 5 5 5 5 5 5 5 3 3 5 >   7 5.f.f.f.f.f.f.f.f.f.f.f.f.f.f.f.f.f.f.f.f.f.f.f.f.f.f.] O X < 5 >   7 5.f.f.f.f.f.f.f.f.f.f.f.f.f.f.f.f.f.f.f.f.f.f.f.f.f.f.f.f.f.f.0.8   > 5 3 3 3 5 5 5 5 5 5 5 -   8 0.f.f.f.f.f.f.f.f.f.f.f.f.f.u.t   % 5 5 5 7 5 5 5 5 5 4 5 >   < >.f.f.f.f.f.f.f.f.f.f.f.f.f.f.F   % 5 5 5 5 5 5 5 5 5 2 O   L f.f.f.f.f.f.f.f.f.f.f.f.f.f.f.f.f.f.5.8   > 7 7 7 7 5 5 5 5 5 5 5 5 5 5 5 5 5 5 5 5 5 5 5 5 5 5 5 5 5 5 5 5 5 5 5 5 5 5 5 5 5 5 5 5 5 5 5 5 5 5 5 5 5 5 5 5 7 7 7 5 5 5 5 5 ",
"5 5 5 5 5 5 5 5 5 5 5 5 5 5 5 5 5 5 5 5 5 5 5 5 5 5 5 5 5 5 5 5 5 5 5 5 5 5 5 5 5 5 5 5 5 5 5 5 5 5 5 5 5 5 5 5 5 5 5 5 3 5 3 5 >   7 5.f.f.f.f.f.f.f.f.f.f.f.f.f.f.f.f.f.f.f.f.f.f.f.f.f.f.] O X 2 7 >   7 5.f.f.f.f.f.f.f.f.f.f.f.f.f.f.f.f.f.f.f.f.f.f.f.f.f.f.f.f.f.f.0.8   > 5 3 3 2 2 3 5 5 5 5 7 -   8 0.f.f.f.f.f.f.f.f.f.f.f.f.f.u.t   % 5 5 5 5 5 5 5 3 5 5 5 >   < >.f.f.f.f.f.f.f.f.f.f.f.f.f.f.F   % 5 5 5 5 5 5 5 5 5 2 O   L f.f.f.f.f.f.f.f.f.f.f.f.f.f.f.f.f.f.5.8   > 5 5 5 5 5 5 5 5 5 5 5 5 5 5 5 5 5 5 5 5 5 5 5 5 5 5 5 5 5 5 5 5 5 5 5 5 5 5 5 5 5 5 5 5 5 5 5 5 5 5 5 5 5 5 5 7 7 7 7 7 5 5 5 5 ",
"5 5 5 5 5 5 5 5 5 5 5 5 5 5 5 5 5 5 5 5 5 5 5 5 5 5 5 5 5 5 5 5 3 5 5 5 5 5 5 5 5 5 5 5 5 5 5 5 5 5 5 5 5 3 3 3 5 5 5 3 3 5 4 5 >   7 5.f.f.f.f.f.f.f.f.f.f.f.f.f.f.f.f.f.f.f.f.f.f.f.u.u.u.' O X 2 7 >   7 >.u.u.u.f.f.f.f.f.f.f.f.f.f.f.f.f.f.f.f.f.f.f.f.f.f.f.f.f.f.f.0.8   > 7 3 3 3 2 2 2 2 2 2 5 -   8 0.f.f.f.f.f.f.f.f.f.f.f.f.f.u.t   % 2 2 2 2 2 5 5 5 5 5 5 >   < >.f.f.f.f.f.f.f.f.f.f.f.f.f.f.F   % 5 5 5 5 3 5 5 5 3 2 O   L u.u.t.u.f.f.f.f.f.f.f.f.f.f.f.f.f.f.5.8   > 5 3 5 5 5 5 5 5 5 5 5 5 5 5 5 5 5 5 5 5 5 5 5 5 5 5 5 5 5 5 5 5 5 5 5 5 5 5 5 5 5 5 5 5 5 5 5 5 5 5 5 5 5 5 5 5 5 7 7 5 5 5 5 5 ",
"5 5 5 5 5 5 5 5 5 5 5 5 5 5 5 5 5 5 5 5 5 5 5 5 5 5 5 5 5 5 5 5 5 5 5 5 5 5 5 5 5 5 5 5 5 3 5 5 5 5 3 5 3 3 3 5 5 3 5 3 3 5 5 5 >   7 5.f.f.f.f.f.f.f.f.f.f.f.f.f.f.f.f.f.f.f.f.f.f.o.u t t 9 O > 7 5 2 - % t t t p :.f.f.f.f.f.f.f.f.f.f.f.f.f.f.f.f.f.f.f.f.f.f.f.f.f.f.0.8   > 7 5 5 5 5 2 % X O O O X   9 0.f.f.f.f.f.f.f.f.f.f.f.f.f.u.t   . O X O O % 2 5 5 5 5 7 >   < >.f.f.f.f.f.f.f.f.f.f.f.f.f.f.F   % 5 5 5 5 5 5 5 5 5 3 > O 8 t t t L f.f.f.f.f.f.f.f.f.f.f.f.f.f.5.8   > 5 3 5 3 5 5 5 3 5 5 5 5 5 5 5 5 5 5 5 5 5 5 5 5 5 5 5 5 5 5 5 5 5 5 5 5 5 5 5 5 5 5 5 5 5 5 5 5 5 5 5 5 5 5 5 5 5 7 5 5 5 5 5 5 ",
"5 5 5 3 5 5 5 5 5 5 5 5 5 5 5 5 5 5 5 5 5 5 5 3 5 5 3 3 3 3 5 5 5 5 5 5 5 5 5 5 5 5 5 3 3 3 3 3 3 3 3 5 3 3 5 5 5 5 5 3 3 3 5 5 >   8 5.f.f.f.f.f.f.f.f.f.f.f.f.f.f.f.f.f.f.f.f.f.f. .O   . O > 7 7 5 7 2 > O X   - o.f.f.f.f.f.f.f.f.f.f.f.f.f.f.f.f.f.f.f.f.f.f.f.f.f.f.0.8   > 5 5 5 5 < % % > ; : > > - u 0.f.f.f.f.f.f.f.f.f.f.f.f.f.u.p - : > > > > - % > 3 5 5 5 >   < >.f.f.f.f.f.f.f.f.f.f.f.f.f.f.F   % 5 5 5 5 3 5 5 5 5 5 5 < % X     f f.f.f.f.f.f.f.f.f.f.f.f.f.f.5.8   > 5 3 3 5 3 5 5 5 3 3 5 5 5 5 5 5 5 5 5 5 5 5 3 3 5 5 3 5 3 3 5 5 5 5 5 5 5 5 5 5 5 5 5 3 3 3 5 5 5 5 3 5 5 5 5 5 5 5 5 5 5 5 5 5 ",
"5 5 5 5 5 5 5 5 5 5 5 5 5 5 5 5 5 5 5 5 5 5 5 3 5 5 3 5 5 5 5 5 5 5 5 5 5 5 5 5 5 5 3 3 5 3 3 3 5 5 3 5 5 3 5 5 5 5 3 5 5 3 3 5 >   7 5.f.f.f.f.f.f.f.f.f.f.f.f.f.f.f.f.f.f.f.f.f.f. .% X < 2 5 5 5 5 5 5 7 2 >   - o.f.f.f.f.f.f.f.f.f.f.f.f.f.f.f.f.f.f.f.f.f.f.f.f.f.f.0.8   > 5 3 2 2 %   H -.+.$.$.$.+.:.p.f.f.f.f.f.f.f.f.f.f.f.f.f.p.:.+.$.$.-.-.-.L . O 2 5 5 5 >   < >.f.f.f.f.f.f.f.f.f.f.f.f.f.f.F   % 5 5 5 5 3 5 5 3 3 3 3 5 2 2 O   g f.f.f.f.f.f.f.f.f.f.f.f.f.f.5.8   > 5 3 3 5 5 5 5 5 5 5 5 5 5 5 5 5 5 5 5 5 5 3 5 3 3 3 5 5 5 5 5 5 5 5 5 5 5 5 5 5 5 5 5 5 5 3 3 5 5 5 5 5 5 5 5 5 5 5 5 5 5 5 5 5 ",
"5 5 5 5 5 5 5 5 5 5 5 5 5 5 5 5 5 5 5 5 5 5 5 5 5 5 5 5 5 5 5 5 5 5 5 5 5 5 5 5 5 5 5 5 5 5 5 5 5 5 5 5 5 5 5 5 5 3 3 3 3 2 3 5 >   7 5.f.f.f.f.f.f.f.f.f.f.f.f.f.f.f.f.f.f.f.f.f.f. .% X 2 5 5 5 5 5 5 5 3 5 >   - +.f.f.f.f.f.f.f.f.f.f.f.f.f.f.f.f.f.f.f.f.f.f.f.f.f.f.0.8   > 5 2 2 2 O   L f.f.f.f.f.f.f.f.f.f.f.f.f.f.f.f.f.f.f.f.f.f.f.f.f.f.f.f.f./ . X 2 3 3 5 >   < >.f.f.f.f.f.f.f.f.f.f.f.f.f.f.F   % 5 5 5 5 5 5 5 5 5 5 3 3 3 2 %   g f.f.f.f.f.f.f.f.f.f.f.f.f.f.5.8   > 5 5 5 5 5 5 5 5 5 5 5 5 5 5 5 5 5 5 5 5 5 3 5 5 5 5 5 5 5 5 5 5 5 5 5 5 5 5 5 5 5 5 5 5 5 3 3 5 5 5 5 5 5 5 5 5 5 5 5 5 5 5 5 5 ",
"5 5 5 5 5 5 5 5 5 5 5 5 5 5 5 5 5 5 5 5 5 5 5 5 5 5 5 5 5 5 5 5 5 5 5 5 5 5 5 5 3 3 3 3 5 5 5 5 5 5 5 5 5 5 5 5 3 3 3 3 3 3 3 5 >   8 5.f.f.f.f.f.f.f.f.f.f.f.f.f.f.f.f.f.f.f.f.f.f. .@ X 2 5 5 5 5 5 5 5 5 5 <   - +.f.f.f.f.f.f.f.f.f.f.f.f.f.f.f.f.f.f.f.f.f.f.f.f.f.f.0.8   > 5 2 2 2 O   L f.f.f.f.f.f.f.f.f.f.f.f.f.f.f.f.f.f.f.f.f.f.f.f.f.f.f.f.f.~ . X 2 5 5 5 >   < >.f.f.f.f.f.f.f.f.f.f.f.f.f.f.F   % 5 5 5 5 5 5 5 5 5 5 3 3 3 2 %   g f.f.f.f.f.f.f.f.f.f.f.f.f.f.5.8   > 5 5 5 5 5 5 5 5 5 5 5 5 5 5 5 3 3 3 3 3 5 5 5 5 5 5 5 5 5 5 5 5 5 5 5 5 5 5 5 5 5 3 3 3 5 5 5 5 5 5 5 5 5 5 5 5 5 5 5 5 5 5 5 5 ",
"5 5 5 3 3 5 5 5 5 5 5 5 5 5 5 5 5 3 5 3 3 3 3 5 5 5 5 3 5 5 5 5 3 3 3 5 5 5 3 3 3 3 3 5 5 5 5 5 5 5 5 5 5 5 5 3 3 3 3 3 3 3 3 5 >   7 :.e.e.e.e.e.e.p.f.f.f.f.f.f.f.f.f.f.f.e.e.e.e.' O X 2 5 5 5 5 5 5 5 5 5 < . - O.e.e.e.t.f.f.f.f.f.f.f.f.f.f.f.u.e.e.e.e.e.e.e.e.e.e.:.8   > 5 5 2 2 O   L f.f.f.f.f.f.f.f.f.f.f.f.f.f.f.f.f.f.f.f.f.f.f.f.f.f.f.f.f.~ . X 2 5 5 7 >   < >.f.f.f.f.f.f.f.f.f.f.f.f.f.f.F   % 5 5 5 5 5 5 3 3 5 3 3 3 3 3 %   g f.f.f.f.f.f.f.f.f.f.f.f.f.f.5.8   > 5 5 5 5 5 5 5 5 5 5 5 5 5 5 3 3 3 3 3 5 5 5 5 5 5 5 5 5 5 5 5 5 5 5 5 5 5 5 5 5 5 5 5 3 3 5 5 5 5 3 5 5 5 5 5 5 5 5 5 3 5 3 5 5 ",
"5 5 5 3 3 5 5 5 5 5 5 5 5 5 5 5 5 5 5 5 5 3 3 5 5 5 5 5 5 5 5 3 3 3 3 3 3 3 5 3 3 5 3 5 5 5 5 5 5 5 5 3 3 3 3 3 3 3 3 3 3 3 3 3 2 - % 9 r w 9 9 9 t o.f.f.f.f.f.f.f.f.f.f.>.i q r r 8 O > 2 5 5 5 5 5 5 5 5 5 2 - O 8 w r q F f.f.f.f.f.f.f.f.f.f.f. .r w 9 9 9 9 9 9 9 r q % - 2 5 5 3 2 O   L f.f.f.f.f.f.f.f.f.f.f.f.f.f.f.f.f.f.f.f.f.f.f.f.f.f.f.f.f.~ . X 2 5 5 5 >   < >.f.f.f.f.f.f.f.f.f.f.f.f.f.f.F   % 5 3 5 5 5 3 3 3 5 5 5 3 3 2 %   g f.f.f.f.f.f.f.f.f.f.f.f.f.f.5.8   > 5 3 5 5 5 5 5 5 5 5 5 3 3 3 5 3 3 3 3 5 5 5 5 5 5 5 5 5 5 5 5 5 5 5 5 5 5 5 5 5 5 5 5 3 5 5 5 5 5 5 5 5 5 5 5 5 5 5 5 5 5 5 5 5 ",
"5 5 3 3 3 3 5 3 3 5 5 5 5 5 5 3 5 5 5 5 5 3 3 5 5 5 5 5 5 5 5 5 3 5 5 5 3 3 5 5 5 5 5 5 5 3 3 5 5 5 5 3 3 3 3 3 3 3 3 3 3 3 3 2 5 2 > O X X X X   X ] f.f.f.f.f.f.f.f.f.f.-.>   . O % < 3 5 5 5 5 5 5 5 5 3 3 5 2 > O X .   p f.f.f.f.f.f.f.f.f.f.f.) .   X X X X X X O O O > 2 5 5 5 5 2 O   L f.f.f.f.f.f.f.f.f.f.f.f.f.f.f.f.f.f.f.f.f.f.f.f.f.f.f.f.f./ . O 2 5 5 5 >   < >.f.f.f.f.f.f.f.f.f.f.f.f.f.f.F   % 3 2 3 3 3 3 5 3 5 3 5 5 3 2 @   g f.f.f.f.f.f.f.f.f.f.f.f.f.f.5.8   > 5 2 2 3 5 3 3 5 5 3 3 3 3 5 5 5 5 5 5 5 5 5 5 5 5 5 5 3 5 5 5 5 5 5 5 3 3 3 5 5 5 5 5 5 5 5 5 5 5 5 5 5 5 5 5 5 5 5 3 3 5 5 5 5 ",
"5 5 3 3 3 3 3 3 3 3 5 5 5 5 5 5 5 5 5 5 5 5 5 5 5 5 5 5 5 5 5 3 3 3 3 5 5 3 5 5 5 5 5 5 3 3 3 5 5 5 5 5 5 3 3 3 5 5 5 5 5 5 5 5 5 5 3 2 2 2 2 < . O { f.f.f.f.f.f.f.f.f.f.;.>   - 2 2 5 3 3 3 3 5 5 5 5 5 5 5 5 5 5 2 2 -   p p.f.f.f.f.f.f.f.f.f.f.) X X < 2 2 2 2 2 2 2 2 5 5 3 5 5 5 2 O   L f.f.f.f.f.f.f.f.f.f.f.f.f.f.f.f.f.f.f.f.f.f.f.f.f.f.f.f.f.) X O 2 3 3 5 >   < >.f.f.f.f.f.f.f.f.f.f.f.f.f.f.F   % 5 3 3 3 3 5 5 5 5 5 3 3 3 2 %   g f.f.f.f.f.f.f.f.f.f.f.f.f.f.5.8   > 5 2 3 3 3 3 3 5 3 3 3 2 5 3 5 5 5 3 3 3 3 3 5 5 5 5 3 3 3 3 3 3 3 3 3 3 3 3 3 3 3 5 5 5 5 5 5 5 5 5 5 5 5 3 5 5 5 3 3 3 3 5 5 5 ",
"5 5 3 3 3 3 3 3 3 3 3 5 5 3 3 3 3 3 3 3 3 3 3 3 3 3 3 3 3 3 3 3 3 3 3 3 3 3 3 3 3 3 3 3 3 3 3 3 3 3 3 3 3 3 3 3 3 3 3 5 5 5 5 5 3 3 3 3 3 3 5 2 X % ..f.f.f.f.f.f.f.f.f.f.>.1   : 3 3 3 5 3 3 3 3 5 5 5 5 5 5 5 5 5 3 5 -   p f.f.f.f.f.f.f.f.f.f.f.( X X 2 5 5 5 5 5 5 5 5 3 3 3 3 5 5 2 O   T f.f.f.f.f.f.f.f.f.f.f.f.f.f.f.f.f.f.f.f.f.f.f.f.f.f.f.f.f.) . X 2 5 3 2 >   < 5.f.f.f.f.f.f.f.f.f.f.f.f.f.f.S   % 5 2 2 3 5 5 5 5 3 3 2 3 3 2 O   j f.f.f.f.f.f.f.f.f.f.f.f.f.f.0.8   > 5 3 3 3 3 3 3 3 3 3 3 3 3 3 3 3 3 3 3 3 2 3 3 3 3 3 3 3 3 3 3 3 3 3 3 3 3 3 3 3 3 3 3 3 3 3 3 3 3 3 3 3 3 3 3 5 3 3 3 3 2 3 3 5 ",
"3 3 3 3 3 3 3 3 3 3 3 3 3 3 3 3 3 3 3 3 3 3 3 3 3 3 3 3 3 3 3 3 3 3 3 3 3 3 3 3 3 3 3 3 3 2 3 3 3 3 3 3 3 3 3 3 3 3 3 3 3 3 3 3 2 2 2 3 3 3 5 2 % O Z L L L L L L L L L L H - X > 5 3 3 3 3 3 3 3 3 3 3 3 3 3 5 5 3 3 5 : . r L L L L L L L L L L L g o % 2 5 3 3 5 5 5 3 3 3 3 2 2 3 3 2 % . a L L L L L L L L L L L L L L L L L L L L L L L L L L L L L s . % 2 3 2 3 > X - H L L L L L L L L L L L L L L i . - 5 2 2 2 3 3 3 3 3 3 3 3 3 2 - . u L L L L L L L L L L L L L L K > X < 5 3 3 3 3 2 2 2 3 3 2 3 3 3 3 3 3 3 3 3 2 2 3 2 3 3 3 3 3 3 3 3 3 3 3 3 3 3 3 3 3 3 3 3 3 3 3 2 2 2 2 3 2 3 3 3 3 3 3 2 2 3 3 5 ",
"3 3 3 3 3 3 3 3 3 3 3 3 3 3 3 3 3 3 3 3 3 3 3 3 3 3 3 3 3 3 3 3 3 3 3 3 3 3 3 3 2 3 3 3 3 3 3 3 3 3 3 3 3 3 3 3 3 3 3 3 3 3 2 3 2 2 3 3 3 3 3 3 < % .                     . + > 3 3 3 3 3 3 3 3 3 3 3 3 3 3 3 3 3 3 3 3 2 ; O                       . % < 3 3 3 2 3 3 3 2 3 2 2 2 2 2 2 2 2 - X . .                                                       . - 2 3 3 3 3 3 , % .                             X - 2 5 3 2 2 2 3 3 3 3 3 3 3 2 2 2 - O .                           . % > 3 3 2 3 3 3 3 3 2 3 3 2 3 3 3 3 3 3 3 3 3 3 2 3 3 3 3 2 3 3 3 3 3 3 3 3 3 3 3 3 3 3 3 3 3 3 3 3 3 3 3 2 3 3 3 3 3 3 3 3 3 3 3 3 5 ",
"5 3 3 3 3 3 3 3 3 3 3 3 3 3 3 3 3 3 3 3 3 3 3 3 3 3 2 3 3 3 3 3 3 3 3 3 3 3 3 3 3 3 3 3 3 3 3 3 3 3 3 3 3 3 3 3 3 3 3 3 3 2 2 3 3 3 3 3 3 3 3 3 3 2 > : : > > > > > > > : : < 5 3 3 3 5 3 3 3 3 3 3 3 3 3 3 3 3 3 3 3 3 3 3 < : : > > > > > > > > > > 2 3 3 3 2 2 3 3 3 3 3 2 2 3 3 3 3 3 2 3 > > > > > : : : : : > > > > > > > > > > > > > > > > > > > : > 2 3 3 3 3 3 3 3 2 > > > > > > > > > > > > : > > > 3 3 3 3 3 2 3 3 3 3 3 3 3 3 3 2 3 2 > : : : : > > > > > > : : : : > 2 5 3 3 3 3 3 3 3 3 3 3 3 3 3 5 5 5 3 3 3 3 3 3 3 3 3 3 3 3 3 3 3 3 3 3 3 3 3 3 3 3 3 3 3 3 3 3 3 3 3 3 3 3 3 3 3 3 3 3 3 3 3 3 3 5 5 ",
"5 3 3 3 3 3 3 3 3 3 3 3 3 3 3 5 3 3 3 3 3 3 3 3 3 3 3 3 3 3 3 3 3 3 3 3 3 3 3 3 3 3 3 2 3 3 3 3 3 3 3 3 3 3 3 3 2 3 3 3 3 2 2 3 3 3 3 3 3 3 3 3 3 5 5 5 5 5 5 5 5 5 5 5 5 5 3 3 3 3 3 5 5 5 3 3 3 3 3 3 3 3 3 3 3 3 3 3 2 2 5 5 5 5 5 5 5 5 5 5 5 5 5 3 2 2 3 3 2 3 3 3 3 3 3 3 3 3 3 3 3 3 3 5 5 5 5 5 5 5 5 5 5 5 5 5 5 5 5 5 5 5 5 5 5 5 5 5 5 5 5 5 5 5 3 3 3 3 3 3 3 3 3 5 5 5 5 5 5 5 5 5 5 5 5 5 5 5 5 3 3 5 3 5 3 3 3 3 3 3 2 2 3 3 3 3 3 5 5 5 5 5 5 5 5 5 5 5 5 5 5 5 5 3 3 3 3 3 2 3 3 3 3 3 3 3 3 3 5 5 3 3 3 3 3 3 2 2 3 3 3 3 3 3 3 5 3 3 3 3 3 3 3 3 3 3 3 3 3 3 3 3 3 3 3 3 3 3 5 5 3 3 3 3 3 3 3 3 3 5 ",
"5 3 3 3 3 3 3 3 3 3 3 3 3 3 3 3 3 3 3 3 3 3 3 3 3 3 3 3 3 3 3 3 3 3 3 3 3 3 3 3 3 3 3 3 3 3 3 3 3 3 3 3 3 3 3 3 3 3 3 3 3 3 3 3 5 3 3 3 3 3 3 3 5 3 3 5 3 3 3 3 3 3 3 3 3 3 3 3 3 5 5 5 3 3 5 5 5 3 3 3 3 3 3 3 3 3 3 3 3 3 3 3 2 2 3 3 5 3 3 3 3 3 2 3 2 3 3 3 2 3 3 5 5 5 5 5 5 5 3 3 3 3 3 3 3 3 3 3 3 2 2 2 3 3 3 3 5 5 2 2 3 3 2 3 2 2 3 3 3 2 2 2 3 3 3 3 5 5 3 2 3 3 3 5 5 3 3 3 2 2 2 3 3 3 3 3 3 3 3 3 5 5 5 5 3 3 3 2 2 2 3 3 3 3 3 3 3 3 3 3 3 3 3 2 2 2 2 2 5 3 3 3 3 3 3 3 2 2 2 3 3 3 3 3 3 3 3 3 3 3 3 3 3 3 3 3 3 3 3 3 3 5 5 3 3 5 3 3 3 3 3 3 3 3 3 3 3 3 3 3 3 3 3 5 3 3 3 3 5 5 3 3 3 3 3 3 3 3 3 5 ",
"3 3 3 3 3 3 3 3 3 3 3 3 3 3 3 3 3 3 3 3 3 3 3 3 3 3 3 3 3 3 3 3 3 3 3 3 3 3 3 3 2 3 3 3 3 3 3 3 3 3 3 3 3 3 3 3 3 3 3 3 3 3 3 3 5 5 3 3 3 3 3 5 5 3 3 3 3 5 3 3 3 3 3 5 3 3 3 5 3 5 3 3 2 2 3 3 3 3 3 3 2 3 3 3 3 3 3 3 3 3 3 5 3 3 3 3 3 5 3 3 3 3 3 3 3 3 3 3 3 2 3 5 5 5 5 5 5 3 3 3 3 2 5 5 3 3 2 3 3 3 5 5 4 4 3 5 3 2 2 2 2 3 2 3 3 3 3 3 3 3 5 3 5 2 3 3 3 3 3 2 3 2 3 5 5 3 3 3 3 3 3 3 3 3 5 5 3 3 5 3 3 3 3 3 3 3 3 3 2 3 3 3 3 3 3 3 5 5 5 5 3 3 3 3 3 3 3 3 5 5 3 3 3 3 3 3 2 3 3 3 3 3 3 3 3 3 3 3 3 3 3 3 3 3 3 3 3 5 5 5 3 3 5 3 3 3 3 3 3 3 3 3 2 3 3 3 3 3 3 3 3 3 3 5 3 3 3 3 3 3 3 3 3 3 3 3 3 3 3 5 ",
"3 3 3 3 3 3 3 3 3 3 3 3 3 3 3 3 3 3 3 3 3 3 3 3 3 3 3 3 3 3 3 3 3 3 3 3 3 3 3 3 3 3 3 3 3 5 3 3 3 3 3 3 3 3 3 3 3 3 3 3 3 3 3 3 3 3 3 3 3 3 3 3 3 3 3 3 3 3 3 3 3 3 3 5 5 3 3 4 2 5 3 3 3 3 3 3 3 3 3 3 3 3 2 3 3 3 3 3 5 5 3 2 3 2 3 3 2 3 3 2 3 3 3 3 3 3 3 3 5 5 3 3 3 5 5 3 3 3 3 3 3 3 2 3 3 3 3 3 3 5 5 3 2 5 3 3 3 3 2 2 3 2 2 3 3 3 5 3 3 3 5 5 2 2 3 3 3 2 2 3 3 3 3 3 3 3 3 3 3 3 3 3 5 3 3 3 3 5 5 3 3 3 3 3 3 3 3 3 3 3 3 3 3 3 3 2 2 3 5 5 3 3 3 3 3 3 3 3 3 3 3 3 3 3 3 3 2 3 3 3 3 3 3 3 3 3 3 3 3 3 3 3 3 3 3 3 3 3 3 3 3 3 3 3 3 3 3 3 3 3 3 3 3 3 3 3 3 3 3 3 3 3 3 3 3 3 3 3 3 3 3 3 3 3 3 3 3 3 3 5 ",
"3 3 3 3 3 3 3 3 3 3 3 3 3 3 3 3 3 3 3 3 3 3 3 3 3 3 3 3 3 3 3 3 3 3 3 3 3 3 3 3 3 3 3 3 3 3 3 3 3 3 3 3 3 3 3 3 3 3 3 3 3 3 3 3 3 3 3 3 3 3 3 3 3 3 2 2 3 2 3 3 3 3 5 5 3 3 3 4 5 3 3 5 3 3 3 2 3 3 3 3 5 5 3 2 3 3 3 3 3 3 3 2 3 3 3 3 3 3 3 3 3 3 3 3 3 3 3 2 5 5 3 4 3 3 3 3 3 3 3 3 2 3 2 3 3 2 3 3 3 3 2 3 3 3 2 5 2 3 3 3 3 3 3 3 3 3 3 2 2 2 5 2 5 4 2 2 3 3 3 2 2 3 3 3 3 3 3 5 3 3 3 3 5 3 3 3 3 3 3 3 3 2 2 2 3 3 3 3 3 3 5 3 3 3 3 3 2 2 2 2 3 3 3 2 3 3 3 3 3 3 3 3 3 3 3 3 2 2 3 3 3 3 3 3 3 3 3 3 3 3 3 3 3 3 3 3 3 3 3 3 3 3 3 3 3 3 3 3 3 3 3 3 3 3 3 3 3 3 3 3 3 3 3 3 3 3 3 3 3 3 3 3 3 3 3 3 3 3 3 5 ",
"3 3 3 3 3 3 3 3 3 3 3 3 3 3 3 3 3 3 3 3 3 3 3 3 3 3 3 3 3 3 3 3 3 3 3 3 3 3 3 3 3 3 3 3 3 3 3 3 3 3 2 2 3 3 3 3 3 3 3 3 3 3 3 3 3 3 3 3 3 3 3 3 3 3 3 3 3 2 2 3 3 3 3 3 2 3 3 3 3 3 5 3 3 3 3 3 3 3 3 3 3 3 3 3 3 3 3 3 3 3 3 3 3 3 3 3 3 3 3 3 2 3 3 3 3 3 3 2 3 3 3 3 3 2 2 3 3 3 3 3 2 3 2 3 3 3 3 3 3 3 3 3 3 2 2 3 3 3 3 3 3 3 3 3 3 3 3 3 2 2 3 3 3 3 3 3 3 3 3 3 3 2 3 3 3 3 3 3 3 3 3 3 3 3 3 3 3 2 2 3 3 2 3 3 3 3 3 3 3 3 3 3 3 3 3 3 3 3 2 3 3 3 3 3 3 3 3 3 3 3 3 3 3 3 3 3 3 3 3 3 3 3 3 3 3 3 3 3 3 3 3 3 3 3 3 3 3 3 3 3 3 3 3 3 3 3 3 3 3 3 3 3 3 3 3 3 3 3 3 3 3 3 3 3 3 3 3 3 3 3 3 3 3 3 3 3 3 3 3 3 ",
"3 3 2 2 3 3 3 3 3 3 3 3 3 3 3 3 3 3 3 3 3 3 3 3 3 3 3 3 3 3 3 3 3 3 3 3 3 3 3 3 3 3 3 3 3 3 3 3 3 3 2 2 2 3 3 3 3 3 3 3 3 3 3 3 3 3 3 3 3 3 3 3 3 3 3 3 3 3 3 3 3 3 3 3 3 3 3 3 3 3 3 3 3 3 3 3 3 3 3 3 3 3 3 3 3 3 3 3 2 3 3 2 3 3 3 3 3 3 3 2 3 3 3 3 3 3 3 3 3 3 3 3 3 3 3 3 3 3 3 3 3 3 3 3 3 3 3 3 3 3 3 3 3 3 3 3 3 3 3 3 3 3 3 3 3 3 3 3 3 3 2 3 3 3 3 3 2 3 3 3 3 3 3 3 3 3 3 3 3 3 3 3 3 3 3 3 3 3 3 3 3 3 3 3 3 3 3 3 3 3 3 3 3 3 3 3 3 3 3 3 3 3 3 3 3 3 3 3 3 3 3 3 3 3 3 3 3 3 3 3 3 3 3 3 3 3 3 3 3 3 3 3 3 3 3 3 3 3 3 3 3 3 3 3 3 3 3 3 3 3 3 3 3 3 3 3 3 3 3 3 3 3 3 3 3 3 3 3 3 3 3 3 3 3 3 3 3 3 3 5 ",
"3 3 2 2 3 3 3 3 3 3 3 3 3 3 3 3 3 3 3 3 3 3 3 3 3 3 3 3 3 3 3 3 3 3 3 3 3 3 3 3 3 3 3 3 3 3 3 3 3 3 2 2 3 3 3 3 3 3 3 3 3 3 3 3 3 3 3 3 3 2 3 3 3 3 3 3 3 3 3 3 3 3 3 3 3 3 2 3 3 3 3 3 3 3 3 3 3 3 3 3 3 3 3 3 3 3 3 3 3 3 3 3 3 3 3 3 3 3 3 3 3 3 3 3 3 3 3 3 3 3 3 3 3 3 3 3 3 3 3 3 3 3 3 3 3 2 2 2 3 2 2 3 2 3 3 3 3 3 3 3 3 3 3 3 3 3 3 3 3 3 3 3 3 3 3 3 2 3 3 3 3 3 3 3 3 3 3 3 3 3 3 3 3 3 3 3 3 3 3 3 3 3 3 3 3 3 3 3 3 3 3 3 3 3 3 3 3 3 3 3 3 3 3 3 3 3 3 3 3 3 3 3 3 3 3 3 3 3 3 3 3 3 3 3 3 3 3 3 3 3 3 3 3 3 3 3 3 3 3 3 3 3 3 3 2 2 3 3 3 3 3 3 3 3 3 3 3 3 3 3 3 3 3 3 3 3 5 5 3 3 3 3 3 3 3 3 3 3 3 5 ",
"3 3 2 2 3 3 3 3 3 3 3 3 3 3 3 3 3 3 3 3 3 3 2 3 3 3 3 3 3 3 3 3 3 3 3 3 3 3 3 3 3 3 3 3 2 3 3 3 3 3 3 3 3 3 3 3 3 3 3 3 3 3 3 3 2 3 3 3 3 3 3 3 3 3 3 2 3 3 3 3 3 3 3 3 3 3 3 3 3 3 3 3 3 3 3 3 3 3 3 3 3 3 3 3 3 3 3 2 3 3 3 3 3 3 3 3 3 3 3 3 3 3 3 3 3 3 3 2 2 2 3 2 3 3 3 3 3 3 3 3 3 3 3 3 3 3 2 2 2 2 3 2 3 3 3 3 3 3 3 3 3 3 3 3 3 3 3 3 3 3 2 2 3 3 3 3 3 3 3 3 3 3 3 3 3 3 3 3 3 3 3 3 3 3 3 3 3 3 3 3 3 3 3 3 3 3 3 3 3 3 3 3 3 3 3 3 3 3 3 3 3 3 3 3 3 3 3 3 3 3 3 3 3 3 3 3 3 2 3 3 3 3 3 3 3 3 3 3 3 3 3 3 3 3 3 3 3 3 3 3 3 3 3 3 3 3 3 3 3 3 3 3 3 3 3 3 3 3 3 3 3 3 3 3 3 3 3 3 3 3 3 3 3 3 3 3 3 3 3 3 ",
"3 3 3 3 3 3 3 3 3 3 3 3 3 3 3 3 3 3 3 3 3 3 3 3 3 3 3 3 3 3 3 3 3 3 3 3 3 3 3 3 3 3 3 3 3 3 3 3 3 3 3 3 3 3 3 3 3 3 3 3 3 3 3 3 3 3 3 3 3 3 3 3 3 3 3 3 3 3 3 3 3 3 3 3 3 3 3 3 3 3 3 3 3 3 3 3 3 3 3 3 3 3 3 3 3 3 3 3 3 3 3 3 3 3 3 3 3 3 3 3 3 3 3 3 3 3 3 3 2 3 3 3 3 3 3 3 3 3 3 3 3 3 3 3 3 3 3 3 3 3 3 3 3 3 3 3 3 3 3 3 3 3 3 3 3 3 3 3 3 3 3 3 3 3 3 3 3 3 3 3 3 3 3 3 3 3 3 3 3 3 3 3 3 3 3 3 3 3 3 3 3 3 3 3 3 3 3 3 3 3 3 3 3 3 3 3 3 3 3 3 3 3 3 3 3 3 3 3 3 3 3 3 3 3 3 3 2 3 3 3 3 3 3 3 3 3 3 3 3 3 3 3 3 3 3 3 3 3 3 3 3 3 3 3 3 3 3 3 3 3 3 3 3 3 3 3 3 3 3 3 3 3 3 3 3 3 3 3 3 3 3 3 3 3 3 3 3 3 3 3 ",
"3 3 3 3 3 3 3 3 3 3 3 3 3 3 3 3 3 3 3 3 3 3 3 3 3 3 3 3 3 3 3 3 3 3 3 3 3 3 3 3 3 3 3 3 3 3 3 3 3 3 3 3 3 3 3 3 3 3 3 3 3 3 3 3 3 3 3 3 3 3 3 3 3 3 3 3 3 3 3 3 3 3 3 3 3 3 3 3 3 3 3 3 3 3 3 3 3 3 3 3 3 3 3 3 3 3 3 3 3 3 3 3 3 3 3 3 3 3 3 3 3 3 3 3 3 3 3 3 3 3 3 3 3 3 3 3 3 3 3 3 3 3 3 3 3 3 3 3 3 3 3 3 3 3 5 5 3 3 3 3 3 3 3 3 3 3 3 3 3 3 3 3 3 3 3 3 3 3 3 3 3 3 3 3 3 3 3 3 3 3 3 3 3 3 3 3 3 3 3 3 3 3 3 3 3 3 3 3 3 3 3 3 3 3 3 3 3 3 3 3 3 3 3 3 3 3 3 3 3 3 3 3 3 3 3 3 3 3 3 3 3 3 3 3 3 3 3 3 3 3 3 3 3 3 3 3 3 3 3 5 3 3 3 3 3 3 3 3 3 3 3 3 3 3 3 3 3 3 3 3 3 5 5 3 5 3 3 3 3 3 3 3 3 3 3 3 3 3 3 5 ",
"3 3 3 3 3 3 3 3 3 3 3 3 3 3 3 3 3 3 3 3 3 3 2 3 3 3 3 3 3 3 3 3 3 3 3 3 3 3 3 3 3 3 3 3 3 3 3 3 3 3 3 3 3 3 3 3 3 3 3 3 3 3 3 3 3 3 3 3 3 3 3 3 3 3 3 3 3 3 3 3 3 3 3 3 3 3 3 3 3 3 5 3 5 5 3 3 3 3 3 3 3 3 3 3 3 3 3 3 3 3 3 3 3 3 3 3 3 3 3 3 3 3 3 3 3 3 3 3 3 3 3 3 3 3 3 3 3 3 3 3 3 3 3 3 3 3 3 3 3 3 3 3 3 3 5 5 3 3 3 3 3 3 3 3 3 3 3 3 3 3 3 3 5 3 3 3 5 3 3 3 3 3 3 3 3 3 3 3 3 3 3 3 3 3 3 3 3 3 3 3 3 3 3 3 3 3 3 3 3 3 3 3 3 3 3 3 3 3 3 3 3 3 3 3 3 3 3 3 3 3 3 3 3 3 3 3 3 3 3 3 3 3 3 3 3 3 3 3 3 3 3 3 3 3 3 3 3 3 3 5 3 3 3 3 3 3 3 3 3 3 3 3 3 3 3 3 3 3 3 3 3 3 3 5 5 3 3 3 3 3 3 3 3 3 3 3 3 3 3 5 ",
"3 3 3 3 3 3 3 3 3 3 3 3 3 3 3 3 3 3 3 3 3 3 3 3 3 3 3 3 3 3 3 3 3 3 3 3 3 3 3 3 3 3 3 3 3 3 3 3 3 3 3 3 3 3 3 3 3 3 3 3 3 3 3 3 3 3 5 3 3 3 3 3 3 3 3 3 3 3 3 3 3 3 3 3 3 3 3 3 3 3 3 3 3 3 3 3 3 3 3 3 3 3 3 3 3 3 5 5 5 3 3 3 3 3 3 3 3 3 3 3 3 3 3 3 3 3 3 3 3 5 5 5 3 3 3 3 3 3 3 3 3 3 3 3 3 3 3 3 3 3 3 3 3 3 3 3 3 3 3 3 3 3 3 3 3 3 3 3 5 3 3 5 5 5 3 3 3 3 3 3 3 3 3 3 3 3 3 3 3 3 3 3 3 3 3 3 3 5 3 3 3 3 3 3 3 3 3 3 3 3 3 3 3 3 3 3 3 3 3 3 3 3 3 3 3 3 3 3 3 3 3 3 3 3 3 3 3 5 3 3 3 3 3 3 3 3 3 3 3 3 3 3 3 3 3 3 5 5 3 3 3 3 3 3 3 3 3 3 3 3 3 3 3 3 3 3 3 3 3 3 3 3 3 5 5 5 3 3 3 3 3 3 3 3 3 3 3 3 3 5 ",
"3 3 3 3 3 3 3 3 3 3 3 3 3 3 3 3 3 3 3 3 3 3 3 3 3 3 3 3 3 3 3 3 3 3 3 3 3 3 3 3 3 3 3 3 3 3 3 3 3 3 3 3 3 3 3 3 3 3 3 3 3 3 3 5 5 3 3 3 3 3 3 3 3 3 3 3 3 3 3 3 3 3 3 3 3 3 3 3 3 3 3 3 3 3 3 3 3 3 3 3 3 3 3 3 3 3 3 5 3 3 3 3 3 3 3 3 3 3 3 3 3 3 3 3 3 3 3 3 5 3 3 3 3 5 3 3 3 3 3 3 3 3 3 3 3 3 3 3 3 5 3 3 3 3 3 3 3 3 3 3 3 3 3 3 3 3 3 3 5 3 3 5 5 5 3 5 5 3 3 3 3 3 3 3 3 3 3 3 3 3 3 3 3 3 3 3 5 3 3 3 3 3 3 3 3 3 3 3 3 3 3 3 3 3 3 3 3 3 3 3 3 3 3 3 3 3 3 3 3 3 3 3 3 3 3 3 3 5 5 3 3 3 3 3 3 3 3 3 3 3 3 3 3 3 3 3 5 3 3 3 3 3 3 3 3 3 3 3 3 3 3 3 3 3 3 3 3 3 3 3 5 5 5 5 5 5 3 3 3 3 3 3 3 3 3 3 3 3 3 5 ",
"3 3 3 3 3 3 3 3 3 3 3 3 3 3 3 3 3 3 3 3 3 3 3 3 3 3 3 3 3 3 3 3 3 3 3 3 3 3 3 3 3 3 3 3 3 3 3 3 3 3 3 3 3 3 3 3 3 3 3 3 3 3 3 5 3 3 3 3 3 3 3 3 3 3 3 3 3 3 3 3 3 3 3 3 3 3 3 3 3 3 3 3 3 3 3 3 3 3 3 3 3 3 3 3 3 3 3 3 3 3 3 3 3 3 3 3 3 3 3 3 3 3 3 3 3 3 3 3 3 3 3 3 3 3 3 3 3 3 3 3 3 3 3 3 3 3 3 3 3 3 3 3 3 3 3 3 3 3 3 3 3 3 3 3 3 3 3 3 3 3 3 3 3 3 3 3 3 3 3 3 3 3 3 3 3 3 3 3 3 3 3 3 3 3 3 3 5 3 3 3 3 3 3 3 3 3 3 3 3 3 3 3 3 3 3 3 3 3 3 3 3 3 3 3 3 3 3 3 3 3 3 3 3 3 3 3 3 3 3 3 3 3 3 3 3 3 3 3 3 3 3 3 3 3 3 3 3 3 3 3 3 3 3 3 3 3 3 3 3 3 3 3 3 3 3 3 3 3 3 3 3 3 3 3 3 3 3 3 3 3 3 3 3 3 3 3 3 3 3 5 ",
"3 3 3 2 3 3 2 3 3 3 3 3 3 3 3 3 3 3 3 3 3 3 3 3 3 3 3 3 3 3 3 3 3 3 3 3 3 3 3 3 3 3 3 3 3 3 3 3 3 3 2 2 3 3 3 3 3 3 3 3 2 3 3 3 3 3 3 3 3 2 2 2 3 3 3 3 3 3 3 3 3 3 3 3 3 3 3 3 3 3 3 3 3 3 3 3 3 3 3 3 3 3 2 3 3 3 3 3 3 3 3 3 2 2 3 2 3 3 3 3 3 3 3 3 3 3 3 3 3 3 3 3 3 3 2 2 3 3 3 2 2 3 3 2 3 3 3 3 3 3 3 3 3 3 3 2 3 3 3 2 2 3 3 3 3 3 3 3 3 3 3 3 3 3 3 3 3 3 3 3 3 3 3 3 3 3 3 3 3 3 3 3 3 3 3 3 3 3 3 3 3 3 3 3 3 3 3 3 3 3 3 3 3 3 3 3 3 3 3 3 3 3 3 3 3 3 3 3 3 3 3 3 3 3 3 3 3 3 3 3 2 3 3 3 3 3 3 3 3 3 3 3 3 3 3 3 3 3 3 3 3 3 3 3 2 3 3 2 3 3 3 3 3 3 3 3 3 3 3 3 3 3 3 3 3 3 3 3 3 3 3 3 3 3 3 3 3 3 3 3 ",
"3 3 3 3 3 3 3 3 3 3 3 3 3 3 3 3 3 3 3 3 3 3 3 3 3 3 3 3 3 3 3 3 3 3 3 3 3 3 3 3 3 3 3 3 3 3 3 3 3 3 3 3 3 3 3 3 3 3 3 3 2 3 3 3 3 3 3 3 3 3 3 3 3 3 3 3 3 3 3 3 3 3 3 3 2 3 3 3 3 3 3 3 3 3 3 3 3 3 3 3 3 3 2 3 3 3 3 3 3 3 3 3 2 3 3 3 3 3 3 3 3 3 3 3 3 3 3 3 3 3 3 2 3 3 3 2 3 3 3 3 3 3 2 3 3 3 3 3 3 3 3 3 3 3 3 3 3 3 3 3 3 3 3 3 3 3 3 3 3 3 3 3 3 3 3 3 3 3 3 3 3 3 3 3 3 3 3 3 3 3 3 3 3 3 3 3 3 3 3 3 3 3 3 3 3 3 3 3 3 3 3 3 3 3 3 3 3 3 3 3 3 3 3 3 3 3 3 3 3 3 3 3 3 3 3 3 3 3 3 3 3 3 3 3 3 3 3 3 3 3 3 3 3 3 3 3 3 3 3 3 3 3 3 3 3 3 3 3 3 3 3 3 3 3 3 3 3 3 3 3 3 3 3 3 3 3 3 3 3 3 3 3 3 3 3 3 3 3 3 3 ",
"3 3 3 3 3 3 3 3 3 3 3 3 3 3 3 3 3 3 3 3 3 3 3 3 3 3 3 3 3 3 3 3 3 3 3 3 3 3 3 3 3 3 3 3 3 3 3 3 3 3 3 3 3 3 3 3 3 3 3 3 3 3 3 3 3 3 3 3 3 3 3 3 3 3 3 3 3 3 3 3 3 3 3 3 3 3 3 3 3 3 3 3 3 3 3 3 3 3 3 3 3 3 3 3 3 3 3 3 3 3 3 3 2 3 3 3 3 3 3 3 3 3 3 3 3 3 3 3 3 3 3 3 3 3 3 3 3 3 3 3 3 3 3 3 3 3 3 3 3 3 3 3 3 3 3 3 3 3 3 3 3 3 3 3 3 3 3 3 3 3 3 3 3 3 3 3 3 3 3 3 3 3 3 3 3 3 3 3 3 3 3 3 3 3 3 3 3 3 3 3 3 3 3 3 3 3 3 3 3 3 3 3 3 3 3 3 3 3 3 3 3 3 3 3 3 3 3 3 3 3 3 3 3 3 3 3 3 3 3 3 3 3 3 3 3 3 3 3 3 3 3 3 3 3 3 3 3 2 3 3 3 3 3 3 3 3 3 3 3 3 3 3 3 3 3 3 3 3 3 3 3 3 3 3 3 3 3 3 3 3 3 3 3 3 3 3 3 3 3 5 ",
"3 3 3 3 3 3 3 3 3 3 3 3 3 3 3 3 3 3 3 3 3 3 3 3 3 3 3 3 3 3 3 3 3 3 3 3 3 3 3 3 3 3 3 3 3 3 3 3 3 3 3 3 3 3 3 3 3 3 3 3 3 3 3 3 3 3 3 3 3 3 3 3 3 3 3 3 3 3 3 3 3 3 3 3 3 3 3 3 3 3 3 3 3 3 3 3 3 3 3 3 3 3 3 3 3 3 3 3 3 3 3 3 3 3 3 3 3 3 3 3 3 3 3 3 3 3 3 3 3 3 3 3 3 3 3 3 3 3 3 3 3 3 3 3 3 3 3 3 3 3 3 3 3 3 3 3 3 3 3 3 3 3 3 3 3 3 3 3 3 3 3 3 3 3 3 3 3 3 3 3 3 3 3 3 3 3 3 3 3 3 3 3 3 3 3 3 3 3 3 3 3 3 3 3 3 3 3 3 3 3 3 3 3 3 3 3 3 3 3 3 3 3 3 3 3 3 3 3 3 3 3 3 3 3 3 3 3 3 3 3 3 3 3 3 3 3 3 3 3 3 3 3 3 3 3 3 3 3 3 3 3 3 3 3 3 3 3 3 3 3 3 3 3 3 3 3 3 3 3 3 3 3 3 3 3 3 3 3 3 3 3 3 3 3 3 3 3 3 3 5 ",
"3 3 3 3 3 3 3 3 3 3 3 3 3 3 3 3 3 3 3 3 3 3 3 3 3 3 3 3 3 3 3 3 3 3 3 3 3 3 3 3 3 3 3 3 3 3 3 3 3 3 3 3 3 3 3 3 3 3 3 3 3 3 3 3 3 3 3 3 3 3 3 3 3 3 3 3 3 3 3 3 3 3 3 3 3 3 3 3 3 3 3 3 3 3 3 3 3 3 3 3 3 3 3 3 3 3 3 3 3 3 3 3 3 3 3 3 3 3 3 3 3 3 3 3 3 3 3 3 3 3 3 3 3 3 3 3 3 3 3 3 3 3 3 3 3 3 3 3 3 3 3 3 3 3 3 3 3 3 3 3 3 3 3 3 3 3 3 3 3 3 3 3 3 3 3 3 3 3 3 3 3 3 3 3 3 3 3 3 3 3 3 3 3 3 3 3 3 3 3 3 3 3 3 3 3 3 3 3 3 3 3 3 3 3 3 3 3 3 3 3 3 3 3 3 3 3 3 3 3 3 3 3 3 3 3 3 3 3 3 3 3 3 3 3 3 3 3 3 3 3 3 3 3 3 3 3 3 3 3 3 3 3 3 3 3 3 3 3 3 3 3 3 3 3 3 3 3 3 3 3 3 3 3 3 3 3 3 3 3 3 3 3 3 3 3 3 3 3 3 5 ",
"3 3 2 3 3 3 3 3 3 3 3 3 3 3 3 3 3 3 3 3 3 3 3 3 3 3 2 3 3 3 3 3 3 3 3 3 3 3 3 3 3 3 3 3 2 3 3 5 5 3 3 3 3 3 3 3 3 3 3 3 3 3 3 3 3 3 3 3 3 3 3 3 3 3 3 3 3 3 3 3 3 3 3 3 3 3 3 3 3 3 3 3 2 3 3 3 3 3 3 3 3 3 3 3 3 3 3 3 3 3 3 3 3 3 3 3 3 3 3 3 3 3 3 3 3 3 3 3 3 3 3 3 2 3 3 3 3 3 3 3 3 3 3 3 3 3 3 3 3 3 3 3 3 3 3 3 3 3 3 3 3 3 3 3 3 3 2 3 3 3 3 3 3 3 3 3 3 3 3 3 3 3 3 3 3 3 3 3 3 3 3 3 3 3 3 3 3 3 3 3 3 3 3 3 3 3 3 3 3 3 3 3 3 3 3 3 3 3 3 3 3 3 3 3 3 3 3 3 3 3 3 3 3 3 3 3 3 3 3 3 3 3 3 3 3 3 3 3 3 3 3 3 3 3 3 3 3 3 3 3 3 3 3 3 3 3 3 3 3 3 3 3 3 3 3 3 3 3 3 3 3 3 3 3 3 3 3 3 3 3 3 3 3 3 3 3 3 3 3 5 ",
"3 3 3 3 3 3 3 3 3 3 3 3 3 3 3 3 3 3 3 3 3 3 3 3 3 3 3 3 3 3 3 3 3 3 3 3 3 3 3 3 3 3 3 3 3 3 3 3 3 3 3 3 3 3 3 3 3 3 3 3 3 3 3 3 3 3 3 3 3 3 3 3 3 3 3 3 3 3 3 3 3 3 3 3 3 3 3 3 3 3 3 3 3 3 3 3 3 3 3 3 3 3 3 3 3 3 3 3 3 3 3 3 3 3 3 3 3 3 3 3 3 3 3 3 3 3 5 3 3 3 3 3 3 3 3 3 3 5 3 3 3 3 3 3 3 3 3 3 3 3 3 3 3 5 5 3 3 3 3 2 3 3 3 3 3 3 3 3 3 3 3 3 3 3 3 3 3 3 3 3 3 3 3 3 3 3 3 3 3 3 3 3 3 3 3 3 3 3 3 3 3 3 3 3 3 3 3 3 3 3 3 3 3 3 3 3 2 3 3 3 3 3 3 3 3 3 3 3 3 3 3 3 3 3 3 3 3 3 3 3 3 3 3 3 3 3 3 3 3 3 3 3 3 3 3 3 3 3 3 3 3 3 3 3 3 3 3 3 3 3 3 3 3 3 3 3 3 3 3 3 3 3 3 3 3 3 3 3 3 3 3 3 3 3 3 3 3 3 3 5 ",
"3 3 3 3 3 3 3 3 3 3 3 3 3 3 3 3 3 3 3 3 3 3 2 3 3 3 3 3 3 3 3 3 3 3 3 3 3 3 3 3 3 3 3 3 3 3 3 3 3 3 3 3 3 3 3 3 3 3 2 3 3 3 3 3 3 3 3 3 3 3 3 3 3 3 3 3 3 3 3 3 3 3 3 3 3 3 3 3 3 3 3 3 3 3 3 3 3 3 3 3 3 3 3 3 3 2 3 3 3 3 3 3 3 3 3 3 3 2 3 3 3 3 3 3 3 3 3 3 2 2 3 3 3 3 3 3 3 3 3 3 2 2 3 3 3 3 3 3 3 3 3 3 3 3 3 3 3 3 3 2 2 3 3 3 3 3 3 3 3 3 3 3 2 3 3 3 3 3 3 3 3 3 3 3 3 3 3 3 3 3 3 3 3 3 3 3 3 3 3 3 3 3 3 3 3 3 3 3 3 3 3 3 2 3 3 3 3 3 3 3 3 3 3 3 3 3 3 3 3 3 3 3 3 3 3 3 3 3 3 3 3 3 3 3 3 3 3 2 3 3 3 3 3 3 3 3 3 3 3 3 3 3 3 3 3 3 3 3 3 3 3 3 3 3 3 3 3 3 3 3 3 3 3 3 3 3 3 3 3 3 3 3 3 3 2 3 3 3 3 5 ",
"5 3 3 3 3 3 3 3 3 3 3 3 3 3 3 3 3 3 3 2 3 3 2 3 3 3 3 3 3 3 3 2 3 3 3 3 3 3 3 3 3 3 3 3 3 3 3 3 3 3 3 3 3 3 3 3 3 3 3 3 3 3 3 3 3 3 3 3 3 3 3 3 3 3 3 3 3 3 3 3 3 3 3 3 3 3 3 2 3 3 3 3 3 3 3 3 3 3 3 3 3 3 3 3 3 3 3 3 3 3 2 2 3 3 3 3 2 2 3 3 3 3 3 3 3 3 3 3 2 2 3 3 3 3 3 3 3 3 3 3 3 2 3 3 2 3 2 3 3 3 3 3 3 3 3 3 3 3 3 3 2 3 3 3 3 3 3 3 3 3 3 3 3 3 3 3 3 3 3 3 3 3 3 3 3 3 3 3 3 3 3 3 3 3 3 3 3 3 3 3 3 3 3 3 3 3 3 3 3 3 3 3 2 3 3 3 3 3 3 3 3 3 3 2 3 3 3 3 3 3 3 3 3 3 3 2 3 3 3 3 3 3 3 3 3 3 3 3 3 3 3 3 3 3 3 3 3 3 3 3 3 3 3 3 3 3 3 3 2 3 3 3 3 3 3 3 3 3 3 3 3 3 3 3 3 3 3 3 3 3 3 3 3 3 3 3 3 3 3 5 ",
"3 3 3 3 2 2 2 2 2 2 3 2 2 2 2 3 3 3 3 3 3 3 3 2 2 3 3 3 2 2 2 2 2 2 2 2 2 3 3 3 3 3 3 3 3 3 3 2 2 2 2 2 2 2 3 3 2 2 3 3 3 3 3 3 3 3 3 3 3 3 3 3 3 3 2 2 2 2 2 3 3 3 3 3 3 3 3 2 2 3 3 3 3 3 3 3 3 3 3 3 3 2 3 3 3 3 3 3 3 3 3 2 3 3 3 3 3 2 2 2 3 3 3 3 3 2 3 3 3 3 3 2 3 3 3 3 3 3 3 3 3 3 3 3 3 3 3 3 2 2 3 3 3 3 3 2 2 2 3 3 2 3 3 3 3 3 3 3 3 3 3 3 3 2 2 2 2 3 2 3 3 3 3 3 3 3 3 3 3 3 3 3 3 3 3 3 3 2 2 2 2 2 2 2 3 3 3 3 3 3 3 3 3 2 3 3 3 3 3 3 3 3 3 3 2 3 3 3 3 3 3 3 3 3 3 3 3 3 3 3 3 3 2 3 3 3 3 3 3 3 3 3 3 3 3 3 3 3 3 3 3 3 3 3 3 3 2 3 3 2 2 3 3 2 3 3 3 3 3 3 3 3 3 2 3 3 3 2 3 3 3 3 3 3 3 3 3 3 3 5 ",
"3 3 3 3 2 2 2 2 3 2 2 2 2 2 2 2 3 3 3 3 3 3 3 3 3 3 3 2 2 2 2 2 2 2 3 2 2 3 3 3 3 2 2 3 3 3 3 2 2 2 2 2 2 2 3 3 3 2 3 3 3 3 3 3 3 2 2 3 3 3 3 2 3 3 2 3 2 2 2 2 3 3 3 3 3 3 3 2 2 2 2 3 3 3 3 3 3 3 3 3 3 3 3 2 3 3 3 3 3 2 2 3 3 3 3 3 3 3 3 3 3 3 3 3 2 2 3 3 3 3 3 3 3 2 2 2 2 3 3 3 3 2 3 3 3 3 3 3 2 2 2 3 3 3 3 2 3 3 3 3 3 3 3 3 3 3 3 3 3 3 3 3 3 3 2 2 2 3 3 3 3 3 2 2 3 3 3 3 3 3 3 3 2 2 2 3 3 2 3 2 2 3 2 2 3 3 3 3 3 3 3 3 3 2 3 3 3 2 3 3 3 3 3 3 2 3 3 3 3 3 3 3 3 3 3 3 3 3 3 3 2 3 3 3 3 3 3 3 3 3 3 3 3 3 3 3 3 3 3 3 2 2 2 3 3 2 2 2 3 2 2 3 2 2 3 3 3 3 3 3 3 2 3 3 3 3 2 2 3 3 3 3 3 3 3 3 3 3 3 5 ",
"5 3 3 3 3 3 3 3 3 3 3 3 3 3 3 3 3 3 3 3 3 3 3 3 3 2 2 3 2 3 3 3 2 3 3 3 3 3 3 3 3 2 3 3 3 3 3 3 3 3 2 2 3 3 3 3 3 3 3 3 2 2 3 3 3 3 3 3 3 3 2 2 3 3 3 3 3 3 3 3 3 3 3 3 3 3 3 2 3 3 3 3 3 3 3 3 3 3 3 3 3 3 3 3 3 3 3 3 3 3 3 3 3 3 3 3 3 3 3 3 3 3 3 3 3 3 3 3 3 3 3 3 2 2 3 2 2 2 2 3 3 3 3 3 2 3 3 3 3 2 3 3 2 2 3 3 3 3 3 3 3 3 3 3 3 3 3 3 3 2 2 2 3 3 3 2 2 2 3 2 2 2 3 3 3 3 3 3 3 3 3 2 3 3 3 3 3 3 3 3 3 3 3 2 3 3 3 3 3 3 3 3 2 3 3 3 2 3 3 3 3 3 3 3 3 3 3 3 3 3 3 3 3 3 3 2 3 3 3 3 2 3 3 3 3 3 3 3 3 3 3 5 3 3 3 2 3 3 3 3 3 3 3 3 3 3 3 3 3 2 3 3 3 3 3 3 3 3 3 3 3 3 3 3 3 3 3 3 3 3 3 3 5 5 5 3 3 3 3 5 ",
"3 3 2 2 2 2 3 3 3 3 3 3 3 3 3 3 3 3 3 3 3 3 3 3 2 3 3 3 3 3 3 3 3 3 3 3 3 3 3 3 3 2 3 3 3 3 3 3 3 3 3 2 3 3 3 3 3 3 3 3 2 3 3 3 3 3 3 3 3 3 2 3 3 3 3 3 3 3 3 3 3 3 3 3 2 3 3 3 3 3 2 3 3 3 3 3 3 3 3 3 3 3 3 2 2 2 3 3 3 3 3 3 3 3 3 3 3 3 3 3 3 3 3 3 3 3 3 3 2 2 3 3 3 3 3 3 3 2 2 2 3 3 3 3 3 3 3 3 3 2 3 2 2 2 3 3 3 3 3 3 5 5 3 3 3 3 3 3 2 2 2 2 3 3 3 3 3 3 3 3 3 2 3 3 3 3 3 3 3 3 3 3 3 3 2 3 3 3 3 3 3 3 3 2 3 3 3 3 3 3 3 3 2 2 2 3 2 3 3 3 3 3 3 3 3 3 3 3 3 3 3 3 2 3 3 3 3 3 3 2 3 3 3 3 3 3 3 3 3 3 3 3 3 3 3 2 3 3 3 3 3 3 3 3 3 3 3 3 3 3 3 3 3 3 3 3 3 3 3 3 3 3 3 3 3 3 3 3 3 3 3 3 3 3 3 3 3 3 3 5 ",
"5 3 3 2 2 3 3 3 2 2 2 3 3 3 3 3 3 3 3 2 2 3 3 2 2 3 3 3 3 3 3 3 3 3 3 3 3 3 3 3 3 3 2 2 3 2 3 3 3 5 3 2 3 3 3 3 3 3 2 2 3 3 3 3 3 3 3 3 3 3 2 3 3 3 3 2 2 3 3 3 3 3 2 2 2 3 3 3 3 2 2 2 3 3 3 3 3 3 3 3 3 3 2 2 2 2 2 2 3 3 5 3 2 2 3 3 2 3 3 2 2 3 3 3 3 2 3 3 2 2 3 3 5 3 3 3 3 3 3 2 2 2 3 3 3 2 3 2 2 2 3 3 2 2 2 3 3 3 3 5 5 5 3 3 3 3 3 3 3 3 3 3 2 3 3 5 3 3 3 3 3 3 2 3 3 3 3 3 3 3 3 3 3 2 2 3 5 5 3 3 3 3 3 2 3 3 2 3 3 3 2 3 2 2 3 3 3 3 3 3 3 3 5 3 3 3 3 2 2 3 3 3 3 3 3 3 3 3 5 3 3 3 3 3 2 2 3 3 3 3 3 3 3 3 2 3 2 2 2 2 3 3 3 3 3 3 3 3 2 2 2 3 3 2 2 3 3 3 3 3 3 3 2 2 3 3 3 3 2 3 3 3 3 3 3 3 3 3 3 5 ",
"5 3 3 2 2 3 3 3 2 2 2 2 3 3 3 3 3 3 3 3 2 3 2 2 3 3 5 5 3 3 3 3 3 3 3 3 3 3 3 3 3 3 2 3 3 3 5 5 5 5 2 3 5 3 3 3 3 3 3 2 3 3 5 3 3 3 3 3 2 2 2 3 5 3 3 2 2 2 3 3 3 3 3 3 3 3 3 3 3 3 3 2 3 3 3 3 3 3 2 2 2 2 3 2 2 2 2 3 3 3 5 5 3 3 3 3 2 3 2 3 3 3 3 2 2 2 3 3 2 3 3 5 5 5 5 3 5 3 3 3 2 2 3 2 2 2 2 2 3 3 3 3 3 3 3 3 3 3 3 5 5 3 3 3 3 3 3 3 3 3 2 3 5 5 5 5 5 5 5 3 2 3 3 3 3 3 3 3 3 3 3 4 2 2 2 3 5 5 5 5 5 5 3 3 3 3 3 3 3 3 3 2 2 2 3 5 3 3 2 3 5 5 3 2 2 3 3 2 3 3 3 3 3 3 3 3 3 5 5 5 3 3 3 3 2 2 2 2 2 2 3 3 3 3 2 3 2 2 2 2 2 2 3 3 2 2 5 3 3 3 3 3 2 2 2 2 2 3 3 3 3 3 3 3 3 3 3 3 3 3 3 3 3 3 3 3 3 3 3 5 ",
"3 3 2 2 2 2 2 3 3 3 3 3 2 3 2 3 3 3 3 2 2 3 2 3 5 3 5 5 3 3 3 3 3 2 3 3 3 3 3 3 3 3 3 3 3 2 2 5 5 5 3 3 3 3 3 3 3 3 3 3 3 5 5 3 3 3 3 2 2 2 2 3 3 3 3 3 2 2 3 3 2 3 2 3 5 5 5 5 5 3 3 3 3 3 3 3 3 2 3 3 2 2 2 3 3 3 3 5 3 2 2 5 2 2 3 2 2 2 3 3 3 3 3 3 2 2 2 2 2 5 5 5 5 5 5 3 3 3 2 2 3 3 3 3 3 3 3 3 2 2 2 2 5 4 5 3 3 5 5 3 3 3 3 3 3 3 3 3 3 3 3 5 4 5 5 5 5 5 5 3 2 3 3 3 3 3 3 3 3 3 3 5 5 4 2 5 5 5 5 2 5 3 3 3 3 5 3 3 3 3 3 2 3 5 5 5 5 5 5 5 4 2 2 2 3 2 3 3 3 3 3 3 3 5 3 5 5 5 5 5 3 3 3 3 2 2 2 2 2 2 3 5 3 3 3 3 2 2 3 3 3 3 3 3 3 5 5 5 2 2 2 2 2 3 3 3 3 3 3 3 3 3 2 5 3 3 3 3 3 3 3 3 3 3 3 3 2 3 5 5 ",
"3 2 2 2 2 2 2 2 2 2 2 2 2 2 2 3 3 2 2 2 2 2 2 2 3 3 3 3 2 2 2 2 2 2 2 3 2 2 3 3 3 2 2 2 2 2 2 3 2 2 2 2 2 2 2 3 3 3 3 3 2 2 3 3 2 2 2 2 3 2 3 3 3 3 2 2 2 2 2 3 2 2 2 2 2 2 2 2 3 3 3 3 2 2 2 2 2 2 3 2 2 2 2 3 3 3 3 3 2 2 2 3 2 2 2 2 2 2 2 2 2 2 3 2 2 2 2 2 2 3 3 2 2 3 2 2 2 2 2 2 2 2 2 2 2 2 2 2 2 2 2 2 3 2 3 2 2 2 2 2 2 2 3 3 3 3 2 2 3 2 3 2 2 2 2 2 3 3 2 2 3 3 3 3 2 3 3 3 3 3 2 2 3 2 2 4 2 3 3 2 3 3 3 2 3 3 3 3 2 2 2 2 3 3 3 3 3 5 3 3 2 2 2 2 2 2 2 2 3 3 3 3 2 3 3 3 3 3 2 2 3 3 3 3 2 2 2 2 2 2 3 3 3 3 3 3 2 2 3 2 3 3 2 2 3 3 3 3 2 2 2 2 3 3 3 2 3 3 3 3 2 2 3 3 3 3 2 2 2 3 3 3 2 2 3 3 3 3 3 5 ",
"3 2 2 2 2 2 2 2 3 2 2 2 2 2 2 2 3 2 2 2 2 2 2 2 2 3 3 3 2 2 2 2 2 2 2 3 3 3 2 2 3 2 2 2 2 2 2 2 2 2 2 2 2 2 2 2 3 3 3 3 2 2 2 2 3 3 2 2 3 2 2 2 2 2 2 3 2 2 2 3 3 3 3 2 2 2 2 2 3 2 3 2 2 2 2 2 2 2 2 2 2 2 2 2 2 3 3 3 2 2 2 2 3 3 2 2 2 2 2 2 2 2 2 3 2 2 2 2 2 3 2 3 2 2 3 2 2 2 2 2 3 3 2 2 2 2 3 2 2 3 2 2 3 3 3 3 3 2 3 2 2 2 2 2 3 3 3 2 3 3 3 3 2 2 2 2 3 2 2 2 2 2 2 2 2 2 3 2 3 2 2 2 3 3 3 3 3 3 2 2 2 2 3 2 2 2 3 3 3 3 2 2 2 3 3 3 3 3 3 3 2 3 2 2 2 3 3 2 2 3 3 3 3 3 2 2 3 3 2 2 3 2 3 3 2 2 2 2 3 2 2 3 2 2 3 3 2 2 2 2 3 3 3 3 3 2 3 3 2 2 2 2 3 3 3 3 2 3 3 3 2 2 2 2 3 3 2 2 2 2 2 2 3 3 3 3 3 3 5 5 ",
"3 2 2 2 2 2 2 2 2 2 2 2 2 2 2 2 2 2 2 2 2 2 2 2 2 2 2 2 2 2 2 2 2 2 2 2 2 2 2 2 2 2 2 2 2 2 2 2 2 2 2 2 2 2 2 2 2 2 2 2 2 2 2 2 2 2 2 2 2 2 2 2 2 2 2 2 2 2 2 2 3 3 3 2 2 2 2 2 2 2 2 2 2 2 2 2 2 2 2 2 2 2 2 2 2 2 2 2 2 2 2 2 2 2 2 2 2 2 2 2 2 2 2 2 2 2 2 2 2 2 2 2 2 2 2 2 2 2 2 2 2 3 3 2 2 2 3 2 2 2 2 2 2 2 2 2 2 2 2 2 2 2 2 2 2 2 2 2 2 2 3 3 2 2 2 2 2 2 2 2 2 2 2 2 2 2 2 2 2 2 2 2 2 3 2 3 2 2 2 2 2 2 2 2 2 2 2 2 2 2 2 2 2 3 3 2 2 3 3 3 3 2 2 2 2 2 2 2 2 3 3 3 2 2 2 2 2 2 2 2 2 2 3 3 2 2 2 2 2 2 2 2 2 2 2 2 2 2 2 2 3 3 3 2 2 2 3 3 3 2 2 2 2 3 3 3 2 2 2 2 2 2 2 2 2 2 2 2 2 2 2 2 3 3 2 2 2 3 3 5 ",
"2 2 2 2 2 2 2 2 2 2 2 2 2 2 2 2 2 2 2 2 2 2 2 2 2 2 2 2 2 2 2 2 2 2 2 2 2 2 2 2 2 2 2 2 2 2 2 2 2 2 2 2 2 2 2 2 2 2 2 2 2 2 2 2 2 2 2 2 2 2 2 2 2 2 2 2 2 2 2 2 2 2 2 2 2 2 2 2 2 2 2 2 2 2 2 2 2 2 2 2 2 2 2 2 2 2 2 2 2 2 2 2 2 2 2 2 2 2 2 2 2 2 2 2 2 2 2 2 2 2 2 2 2 2 2 2 2 2 2 2 2 2 2 2 2 2 2 2 2 2 2 2 2 2 2 2 2 2 2 2 2 2 2 2 2 2 2 2 2 2 2 2 2 2 2 2 2 2 2 2 2 2 2 2 2 2 2 2 2 2 2 2 2 2 2 2 2 2 2 2 2 2 2 2 2 2 2 2 2 2 2 2 2 2 2 2 2 2 2 2 2 2 2 2 2 2 2 2 2 2 2 2 2 2 2 2 2 2 2 2 2 2 2 2 2 2 2 2 2 2 2 2 2 2 2 2 2 2 2 2 2 2 2 2 2 2 2 2 2 2 2 2 2 2 2 2 2 2 2 2 2 2 2 2 2 2 2 2 2 2 2 2 2 2 2 2 2 2 2 2 ",
"0 0 0 0 0 0 0 0 0 0 0 0 0 0 0 0 0 0 0 0 0 0 0 0 0 0 0 0 0 0 0 0 0 0 0 0 0 0 0 0 0 0 0 0 0 0 0 0 0 0 0 0 0 0 0 0 0 0 0 0 0 0 0 0 0 0 0 0 0 0 0 0 0 0 0 0 0 0 0 0 0 0 0 0 0 0 0 0 0 0 0 0 0 0 0 0 0 0 0 0 0 0 0 0 0 0 0 0 0 0 0 0 0 0 0 0 0 0 0 0 0 0 0 0 0 0 0 0 0 0 0 0 0 0 0 0 0 0 0 0 0 0 0 0 0 0 0 0 0 0 0 0 0 0 0 0 0 0 0 0 0 0 0 0 0 0 0 0 0 0 0 0 0 0 0 0 0 0 0 0 0 0 0 0 0 0 0 0 0 0 0 0 0 0 0 0 0 0 0 0 0 0 0 0 0 0 0 0 0 0 0 0 0 0 0 0 0 0 0 0 0 0 0 0 0 0 0 0 0 0 0 0 0 0 0 0 0 0 0 0 0 0 0 0 0 0 0 0 0 0 0 0 0 0 0 0 0 0 0 0 0 0 0 0 0 0 0 0 0 0 0 0 0 0 0 0 0 0 0 0 0 0 0 0 0 0 0 0 0 0 0 0 0 0 0 0 0 0 0 0 ",
"b b b b b b b b b b b b b b b b b b b b b b b b b b b b b b b b b b b b b b b b b b b b b b b b b b b b b b b b b b b b b b b b b b b b b b b b b b b b b b b b b b b b b b b b b b b b b b b b b b b b b b b b b b b b b b b b b b b b b b b b b b b b b b b b b b b b b b b b b b b b b b b b b b b b b b b b b b b b b b b b b b b b b b b b b b b b b b b b b b b b b b b b b b b b b b b b b b b b b b b b b b b b b b b b b b b b b b b b b b b b b b b b b b b b b b b b b b b b b b b b b b b b b b b b b b b b b b b b b b b b b b b b b b b b b b b b b b b b b b b b b b b b b b b b b b b b b b b b b b b b ",
"v v v v v v v v v v v v v v v v v v v v v v v v v v v v v v v v v v v v v v v v v v v v v v v v v v v v v v v v v v v v v v v v v v v v v v v v v v v v v v v v v v v v v v v v v v v v v v v v v v v v v v v v v v v v v v v v v v v v v v v v v v v v v v v v v v v v v v v v v v v v v v v v v v v v v v v v v v v v v v v v v v v v v v v v v v v v v v v v v v v v v v v v v v v v v v v v v v v v v v v v v v v v v v v v v v v v v v v v v v v v v v v v v v v v v v v v v v v v v v v v v v v v v v v v v v v v v v v v v v v v v v v v v v v v v v v v v v v v v v v v v v v v v v v v v v v v v v v v v v v v ",
"x x x x x x x x x x x x x x x x x x x x x x x x x x x x x x x x x x x x x x x x x x x x x x x x x x x x x x x x x x x x x x x x x x x x x x x x x x x x x x x x x x x x x x x x x x x x x x x x x x x x x x x x x x x x x x x x x x x x x x x x x x x x x x x x x x x x x x x x x x x x x x x x x x x x x x x x x x x x x x x x x x x x x x x x x x x x x x x x x x x x x x x x x x x x x x x x x x x x x x x x x x x x x x x x x x x x x x x x x x x x x x x x x x x x x x x x x x x x x x x x x x x x x x x x x x x x x x x x x x x x x x x x x x x x x x x x x x x x x x x x x x x x x x x x x x x x x x x x x x x x "
};
